; generated by PrusaSlicer 2.6.1+win64 on 2023-10-25 at 17:44:54 UTC

; 

; external perimeters extrusion width = 0.45mm
; perimeters extrusion width = 0.45mm
; infill extrusion width = 0.45mm
; solid infill extrusion width = 0.45mm
; top infill extrusion width = 0.40mm
; first layer extrusion width = 0.42mm

M190 S60 ; set bed temperature and wait for it to be reached


; Pre-Processed for Cancel-Object support by preprocess_cancellation v0.2.0
; 1 known objects
EXCLUDE_OBJECT_DEFINE NAME=2040_Cover_STL_id_0_copy_0 CENTER=99.956,95.147 POLYGON=[[90.225,75.225],[90.225,114.775],[109.775,114.775],[109.775,75.225]]
M104 S200 ; set temperature
;TYPE:Custom
START_PRINT
M109 S200 ; set temperature and wait for it to be reached
G21 ; set units to millimeters
G90 ; use absolute coordinates
M82 ; use absolute distances for extrusion
G92 E0
; Filament gcode
M107
;LAYER_CHANGE
;Z:0.3
;HEIGHT:0.3
G1 Z.3 F7800
G1 E-2 F2400
G92 E0
G1 X85.872 Y71.76 F7800
G1 E2 F2400
;TYPE:Skirt/Brim
;WIDTH:0.42
G1 F1800
G1 X86.683 Y70.938 E2.05122
G1 X87.612 Y70.253 E2.10242
G1 X88.637 Y69.722 E2.15362
G1 X89.832 Y69.334 E2.20935
G1 X91.5 Y69.14 E2.28383
G1 X109.027 Y69.161 E3.06124
G1 X110.168 Y69.334 E3.11243
G1 X111.269 Y69.683 E3.16366
G1 X112.301 Y70.2 E3.21486
G1 X113.317 Y70.938 E3.27056
G1 X114.128 Y71.76 E3.32178
G1 X114.747 Y72.612 E3.36849
G1 X115.278 Y73.637 E3.41969
G1 X115.643 Y74.733 E3.47093
G1 X115.831 Y75.872 E3.52213
G1 X115.86 Y113.5 E5.19111
G1 X115.666 Y115.168 E5.26559
G1 X115.317 Y116.269 E5.31682
G1 X114.8 Y117.301 E5.36802
G1 X114.128 Y118.24 E5.41924
G1 X113.24 Y119.128 E5.47494
G1 X112.301 Y119.8 E5.52616
G1 X111.362 Y120.278 E5.5729
G1 X110.267 Y120.643 E5.6241
G1 X109.128 Y120.831 E5.6753
G1 X91.5 Y120.86 E6.45719
G1 X89.832 Y120.666 E6.53167
G1 X88.732 Y120.317 E6.58286
G1 X87.612 Y119.747 E6.6386
G1 X86.683 Y119.062 E6.6898
G1 X85.872 Y118.24 E6.74102
G1 X85.2 Y117.301 E6.79224
G1 X84.722 Y116.363 E6.83894
G1 X84.358 Y115.267 E6.89016
G1 X84.169 Y114.128 E6.94137
G1 X84.14 Y76.5 E8.61035
G1 X84.334 Y74.832 E8.68483
G1 X84.683 Y73.731 E8.73606
G1 X85.253 Y72.612 E8.79176
G1 X85.837 Y71.809 E8.8358
G1 X86.124 Y72.017 F7800
G1 F1800
G1 X86.914 Y71.209 E8.88592
G1 X87.798 Y70.556 E8.93467
G1 X88.773 Y70.05 E8.98339
G1 X89.915 Y69.68 E9.03664
G1 X91.5 Y69.496 E9.10741
G1 X108.999 Y69.516 E9.88358
G1 X110.085 Y69.68 E9.9323
G1 X111.133 Y70.012 E9.98106
G1 X112.115 Y70.503 E10.02976
G1 X113.086 Y71.209 E10.08301
G1 X113.857 Y71.991 E10.13172
G1 X114.444 Y72.798 E10.17598
G1 X114.95 Y73.773 E10.2247
G1 X115.297 Y74.816 E10.27346
G1 X115.476 Y75.9 E10.32219
G1 X115.504 Y113.5 E11.98993
G1 X115.32 Y115.085 E12.0607
G1 X114.988 Y116.133 E12.10946
G1 X114.497 Y117.115 E12.15816
G1 X113.857 Y118.009 E12.20693
G1 X113.009 Y118.857 E12.26012
G1 X112.115 Y119.497 E12.30889
G1 X111.226 Y119.95 E12.35315
G1 X110.184 Y120.297 E12.40186
G1 X109.1 Y120.476 E12.45059
G1 X91.5 Y120.504 E13.23124
G1 X89.915 Y120.32 E13.30201
G1 X88.868 Y119.989 E13.35071
G1 X87.798 Y119.444 E13.40397
G1 X86.914 Y118.791 E13.45272
G1 X86.143 Y118.009 E13.50143
G1 X85.556 Y117.202 E13.54569
G1 X85.05 Y116.226 E13.59445
G1 X84.703 Y115.184 E13.64316
G1 X84.524 Y114.1 E13.69189
G1 X84.496 Y76.5 E15.35963
G1 X84.68 Y74.915 E15.4304
G1 X85.011 Y73.867 E15.47915
G1 X85.556 Y72.798 E15.53237
G1 X86.088 Y72.066 E15.57251
; printing object 2040-Cover.STL id:0 copy 0
EXCLUDE_OBJECT_START NAME=2040_Cover_STL_id_0_copy_0
G1 E13.57251 F2400
G92 E0
G1 X92.073 Y77.073 F7800
G1 E2 F2400
;TYPE:Perimeter
;WIDTH:0.42
G1 F1800
G1 X107.927 Y77.078 E2.7032
G1 X107.927 Y112.927 E4.29327
G1 X92.073 Y112.927 E4.99647
G1 X92.073 Y77.133 E6.5841
G1 X91.717 Y76.717 F7800
G1 F1800
G1 X108.283 Y76.722 E7.31888
G1 X108.283 Y113.283 E8.94053
G1 X91.717 Y113.283 E9.67531
G1 X91.717 Y76.777 E11.29452
G1 X91.414 Y76.414 F7800
;TYPE:External perimeter
G1 F1800
G1 X91.549 Y76.362 E11.30094
G1 X108.434 Y76.367 E12.04987
G1 X108.605 Y76.432 E12.05798
G1 X108.638 Y76.572 E12.06436
G1 X108.638 Y113.407 E13.69817
G1 X108.586 Y113.586 E13.70644
G1 X108.451 Y113.638 E13.71286
G1 X91.593 Y113.638 E14.46059
G1 X91.414 Y113.586 E14.46886
G1 X91.362 Y113.451 E14.47528
G1 X91.362 Y76.593 E16.11011
G1 X91.397 Y76.472 E16.1157
G1 X91.554 Y76.454 F7800
G1 E14.1157 F2400
G92 E0
G1 X107.101 Y77.184 F7800
G1 E2 F2400
;TYPE:Solid infill
;WIDTH:0.420347
G1 F1800
G1 X107.66 Y77.744 E2.03513
G1 X107.66 Y78.248 E2.05751
G1 X106.757 Y77.344 E2.11424
G1 X106.254 Y77.344 E2.13657
G1 X107.66 Y78.751 E2.22488
G1 X107.66 Y79.254 E2.24721
G1 X105.75 Y77.344 E2.36714
G1 X105.246 Y77.344 E2.38952
G1 X107.66 Y79.758 E2.54109
G1 X107.66 Y80.261 E2.56342
G1 X104.743 Y77.344 E2.74657
G1 X104.239 Y77.343 E2.76895
G1 X107.66 Y80.765 E2.98378
G1 X107.66 Y81.268 E3.00611
G1 X103.736 Y77.343 E3.25252
G1 X103.232 Y77.343 E3.2749
G1 X107.66 Y81.771 E3.55293
G1 X107.66 Y82.275 E3.57531
G1 X102.729 Y77.343 E3.88495
G1 X102.225 Y77.343 E3.90733
G1 X107.66 Y82.778 E4.24858
G1 X107.66 Y83.282 E4.27096
G1 X101.721 Y77.343 E4.64386
G1 X101.218 Y77.342 E4.66619
G1 X107.66 Y83.785 E5.0707
G1 X107.66 Y84.288 E5.09303
G1 X100.714 Y77.342 E5.52916
G1 X100.211 Y77.342 E5.55149
G1 X107.66 Y84.792 E6.01923
G1 X107.66 Y85.295 E6.04156
G1 X99.707 Y77.342 E6.54092
G1 X99.204 Y77.342 E6.56325
G1 X107.66 Y85.799 E7.09422
G1 X107.66 Y86.302 E7.11655
G1 X98.7 Y77.342 E7.67913
G1 X98.197 Y77.342 E7.70146
G1 X107.66 Y86.806 E8.29566
G1 X107.66 Y87.309 E8.31799
G1 X97.693 Y77.341 E8.94383
G1 X97.189 Y77.341 E8.96621
G1 X107.66 Y87.812 E9.62367
G1 X107.66 Y88.316 E9.64605
G1 X96.686 Y77.341 E10.33512
G1 X96.182 Y77.341 E10.3575
G1 X107.66 Y88.819 E11.07818
G1 X107.66 Y89.323 E11.10056
G1 X95.679 Y77.341 E11.85286
G1 X95.175 Y77.341 E11.87524
G1 X107.66 Y89.826 E12.65915
G1 X107.66 Y90.329 E12.68148
G1 X94.672 Y77.34 E13.49701
G1 X94.168 Y77.34 E13.51939
G1 X107.66 Y90.833 E14.36656
G1 X107.66 Y91.336 E14.38889
G1 X93.664 Y77.34 E15.26768
G1 X93.161 Y77.34 E15.29001
G1 X107.66 Y91.84 E16.20041
G1 X107.66 Y92.343 E16.22274
G1 X92.657 Y77.34 E17.16475
G1 X92.34 Y77.34 E17.17882
G1 X92.34 Y77.526 E17.18708
G1 X107.66 Y92.846 E18.149
G1 X107.66 Y93.35 E18.17138
G1 X92.34 Y78.029 E19.13333
G1 X92.34 Y78.532 E19.15566
G1 X107.66 Y93.853 E20.11761
G1 X107.66 Y94.357 E20.13999
G1 X92.34 Y79.036 E21.10194
G1 X92.34 Y79.539 E21.12427
G1 X107.66 Y94.86 E22.08622
G1 X107.66 Y95.364 E22.1086
G1 X92.34 Y80.043 E23.07055
G1 X92.34 Y80.546 E23.09288
G1 X107.66 Y95.867 E24.05483
G1 X107.66 Y96.37 E24.07716
G1 X92.34 Y81.049 E25.03911
G1 X92.34 Y81.553 E25.06149
G1 X107.66 Y96.874 E26.02344
G1 X107.66 Y97.377 E26.04577
G1 X92.34 Y82.056 E27.00772
G1 X92.34 Y82.56 E27.0301
G1 X107.66 Y97.881 E27.99205
G1 X107.66 Y98.384 E28.01438
G1 X92.34 Y83.063 E28.97633
G1 X92.34 Y83.566 E28.99866
G1 X107.66 Y98.887 E29.96061
G1 X107.66 Y99.391 E29.98299
G1 X92.34 Y84.07 E30.94494
G1 X92.34 Y84.573 E30.96727
G1 X107.66 Y99.894 E31.92922
G1 X107.66 Y100.398 E31.9516
G1 X92.34 Y85.077 E32.91355
G1 X92.34 Y85.58 E32.93588
G1 X107.66 Y100.901 E33.89783
G1 X107.66 Y101.404 E33.92016
G1 X92.34 Y86.084 E34.88208
G1 X92.34 Y86.587 E34.90441
G1 X107.66 Y101.908 E35.86636
G1 X107.66 Y102.411 E35.88869
G1 X92.34 Y87.09 E36.85064
G1 X92.34 Y87.594 E36.87302
G1 X107.66 Y102.915 E37.83497
G1 X107.66 Y103.418 E37.8573
G1 X92.34 Y88.097 E38.81925
G1 X92.34 Y88.601 E38.84163
G1 X107.66 Y103.922 E39.80358
G1 X107.66 Y104.425 E39.82591
G1 X92.34 Y89.104 E40.78786
G1 X92.34 Y89.607 E40.81019
G1 X107.66 Y104.928 E41.77214
G1 X107.66 Y105.432 E41.79452
G1 X92.34 Y90.111 E42.75647
G1 X92.34 Y90.614 E42.7788
G1 X107.66 Y105.935 E43.74075
G1 X107.66 Y106.439 E43.76313
G1 X92.34 Y91.118 E44.72508
G1 X92.34 Y91.621 E44.74741
G1 X107.66 Y106.942 E45.70936
G1 X107.66 Y107.445 E45.73169
G1 X92.34 Y92.124 E46.69364
G1 X92.34 Y92.628 E46.71602
G1 X107.66 Y107.949 E47.67797
G1 X107.66 Y108.452 E47.7003
G1 X92.34 Y93.131 E48.66225
G1 X92.34 Y93.635 E48.68463
G1 X107.66 Y108.956 E49.64658
G1 X107.66 Y109.459 E49.66891
G1 X92.34 Y94.138 E50.63086
G1 X92.34 Y94.642 E50.65324
G1 X107.66 Y109.962 E51.61516
G1 X107.66 Y110.466 E51.63754
G1 X92.34 Y95.145 E52.59949
G1 X92.34 Y95.648 E52.62182
G1 X107.66 Y110.969 E53.58377
G1 X107.66 Y111.473 E53.60615
G1 X92.34 Y96.152 E54.5681
G1 X92.34 Y96.655 E54.59043
G1 X107.66 Y111.976 E55.55238
G1 X107.66 Y112.48 E55.57476
G1 X92.34 Y97.159 E56.53671
G1 X92.34 Y97.662 E56.55904
G1 X107.338 Y112.66 E57.50074
G1 X106.835 Y112.66 E57.52307
G1 X92.34 Y98.165 E58.43319
G1 X92.34 Y98.669 E58.45557
G1 X106.331 Y112.66 E59.33404
G1 X105.828 Y112.66 E59.35637
G1 X92.34 Y99.172 E60.20326
G1 X92.34 Y99.676 E60.22564
G1 X105.324 Y112.66 E61.04088
G1 X104.821 Y112.66 E61.06321
G1 X92.34 Y100.179 E61.84687
G1 X92.34 Y100.682 E61.8692
G1 X104.318 Y112.66 E62.62128
G1 X103.814 Y112.66 E62.64366
G1 X92.34 Y101.186 E63.36409
G1 X92.34 Y101.689 E63.38642
G1 X103.311 Y112.66 E64.07527
G1 X102.807 Y112.66 E64.09765
G1 X92.34 Y102.193 E64.75486
G1 X92.34 Y102.696 E64.77719
G1 X102.304 Y112.66 E65.40281
G1 X101.8 Y112.66 E65.42519
G1 X92.34 Y103.2 E66.01917
G1 X92.34 Y103.703 E66.0415
G1 X101.297 Y112.66 E66.60389
G1 X100.794 Y112.66 E66.62622
G1 X92.34 Y104.206 E67.15703
G1 X92.34 Y104.71 E67.17941
G1 X100.29 Y112.66 E67.67858
G1 X99.787 Y112.66 E67.70091
G1 X92.34 Y105.213 E68.16849
G1 X92.34 Y105.717 E68.19087
G1 X99.283 Y112.66 E68.62681
G1 X98.78 Y112.66 E68.64914
G1 X92.34 Y106.22 E69.0535
G1 X92.34 Y106.723 E69.07583
G1 X98.277 Y112.66 E69.4486
G1 X97.773 Y112.66 E69.47098
G1 X92.34 Y107.227 E69.81211
G1 X92.34 Y107.73 E69.83444
G1 X97.27 Y112.66 E70.14399
G1 X96.766 Y112.66 E70.16637
G1 X92.34 Y108.234 E70.44427
G1 X92.34 Y108.737 E70.4666
G1 X96.263 Y112.66 E70.71292
G1 X95.76 Y112.66 E70.73525
G1 X92.34 Y109.24 E70.94999
G1 X92.34 Y109.744 E70.97237
G1 X95.256 Y112.66 E71.15546
G1 X94.753 Y112.66 E71.17779
G1 X92.34 Y110.247 E71.3293
G1 X92.34 Y110.751 E71.35168
G1 X94.249 Y112.66 E71.47154
G1 X93.746 Y112.66 E71.49387
G1 X92.34 Y111.254 E71.58215
G1 X92.34 Y111.758 E71.60453
G1 X93.242 Y112.66 E71.66117
G1 X92.739 Y112.66 E71.6835
G1 X92.18 Y112.101 E71.7186
; stop printing object 2040-Cover.STL id:0 copy 0
EXCLUDE_OBJECT_END NAME=2040_Cover_STL_id_0_copy_0
;LAYER_CHANGE
;Z:0.5
;HEIGHT:0.2
G1 Z.5 F7800
; printing object 2040-Cover.STL id:0 copy 0
EXCLUDE_OBJECT_START NAME=2040_Cover_STL_id_0_copy_0
G1 E69.7186 F2400
G92 E0
G1 X91.582 Y76.525 F7800
G1 E2 F2400
;TYPE:Perimeter
;WIDTH:0.449999
G1 F3600
G1 X108.456 Y76.54 E2.57116
G1 X108.475 Y76.634 E2.57441
G1 X108.475 Y113.365 E3.81771
G1 X108.461 Y113.439 E3.82026
G1 X108.418 Y113.475 E3.82216
G1 X91.635 Y113.475 E4.39024
G1 X91.561 Y113.461 E4.39279
G1 X91.525 Y113.418 E4.39469
G1 X91.525 Y76.635 E5.63975
G1 X91.538 Y76.565 E5.64216
G1 X91.305 Y76.185 F7800
G1 F3600
G1 X91.55 Y76.117 E5.65077
G1 X108.369 Y76.12 E6.22007
G1 X108.686 Y76.178 E6.23098
G1 X108.819 Y76.31 E6.23732
G1 X108.883 Y76.634 E6.2485
G1 X108.883 Y113.365 E7.4918
G1 X108.819 Y113.69 E7.50301
G1 X108.663 Y113.817 E7.50982
G1 X108.45 Y113.883 E7.51737
G1 X91.635 Y113.883 E8.08654
G1 X91.31 Y113.82 E8.09775
G1 X91.183 Y113.663 E8.10459
G1 X91.117 Y113.45 E8.11214
G1 X91.117 Y76.635 E9.35828
G1 X91.175 Y76.334 E9.36866
G1 X91.265 Y76.229 E9.37334
G1 X91.197 Y75.791 F7800
;TYPE:External perimeter
G1 F1800
G1 X91.518 Y75.71 E9.38455
G1 X108.369 Y75.713 E9.95494
G1 X108.736 Y75.771 E9.96752
G1 X108.968 Y75.879 E9.97618
G1 X109.196 Y76.136 E9.98781
G1 X109.29 Y76.634 E10.00496
G1 X109.29 Y113.365 E11.24826
G1 X109.196 Y113.864 E11.26545
G1 X109.061 Y114.05 E11.27323
G1 X108.735 Y114.25 E11.28618
G1 X108.482 Y114.29 E11.29485
G1 X91.635 Y114.29 E11.8651
G1 X91.137 Y114.197 E11.88225
G1 X90.95 Y114.061 E11.89008
G1 X90.75 Y113.735 E11.90303
G1 X90.71 Y113.482 E11.9117
G1 X90.71 Y76.635 E13.15893
G1 X90.802 Y76.144 E13.17584
G1 X91.045 Y75.86 E13.18849
G1 X91.14 Y75.811 E13.19211
G1 X91.462 Y75.989 F7800
G1 X91.94 Y76.863
;TYPE:Solid infill
;WIDTH:0.54874
G1 F1200
G1 X91.896 Y76.818 E13.19476
G1 X91.835 Y76.835 E13.19742
G1 X91.818 Y76.896 E13.20008
G1 X91.863 Y76.94 E13.20273
G1 X91.924 Y76.924 E13.20538
G1 X91.686 Y77.761 F7800
;WIDTH:0.38292
G1 F1200
G1 X91.645 Y77.772 E13.20658
G1 X91.626 Y77.7 E13.20869
G1 X91.697 Y77.719 E13.21077
;WIDTH:0.41646
G1 X91.764 Y77.647 E13.21382
;WIDTH:0.449999
G1 X92.574 Y76.83 E13.25276
G1 X92.667 Y76.758 E13.25674
;WIDTH:0.41646
G1 X92.76 Y76.686 E13.26039
;WIDTH:0.38292
G1 X92.719 Y76.697 E13.26159
G1 X92.7 Y76.626 E13.26367
G1 X92.771 Y76.645 E13.26575
;WIDTH:0.449999
G1 X93.15 Y76.83 E13.28003
G1 X91.83 Y78.15 E13.34322
G1 X91.83 Y78.726 E13.36272
G1 X93.725 Y76.83 E13.45346
G1 X94.301 Y76.83 E13.47296
G1 X91.83 Y79.301 E13.59125
G1 X91.83 Y79.877 E13.61075
G1 X94.876 Y76.83 E13.75658
G1 X95.452 Y76.831 E13.77608
G1 X91.83 Y80.453 E13.94946
G1 X91.83 Y81.028 E13.96892
G1 X96.028 Y76.831 E14.16985
G1 X96.603 Y76.831 E14.18931
G1 X91.83 Y81.604 E14.41779
G1 X91.83 Y82.18 E14.43729
G1 X97.179 Y76.831 E14.69334
G1 X97.754 Y76.831 E14.7128
G1 X91.83 Y82.755 E14.99638
G1 X91.83 Y83.331 E15.01588
G1 X98.33 Y76.831 E15.32703
G1 X98.906 Y76.831 E15.34653
G1 X91.83 Y83.907 E15.68525
G1 X91.83 Y84.483 E15.70475
G1 X99.481 Y76.831 E16.07102
G1 X100.057 Y76.831 E16.09052
G1 X91.83 Y85.058 E16.48434
G1 X91.83 Y85.634 E16.50384
G1 X100.632 Y76.831 E16.92521
G1 X101.208 Y76.831 E16.94471
G1 X91.83 Y86.21 E17.39365
G1 X91.83 Y86.785 E17.41311
G1 X101.784 Y76.832 E17.88958
G1 X102.359 Y76.832 E17.90904
G1 X91.83 Y87.361 E18.41306
G1 X91.83 Y87.937 E18.43256
G1 X102.935 Y76.832 E18.96415
G1 X103.51 Y76.832 E18.98361
G1 X91.83 Y88.512 E19.54272
G1 X91.83 Y89.088 E19.56222
G1 X104.086 Y76.832 E20.14891
G1 X104.662 Y76.832 E20.16841
G1 X91.83 Y89.664 E20.78267
G1 X91.83 Y90.24 E20.80217
G1 X105.237 Y76.832 E21.44398
G1 X105.813 Y76.832 E21.46348
G1 X91.83 Y90.815 E22.13284
G1 X91.83 Y91.391 E22.15234
G1 X106.388 Y76.832 E22.84925
G1 X106.964 Y76.832 E22.86875
G1 X91.83 Y91.967 E23.59323
G1 X91.83 Y92.542 E23.61269
G1 X107.54 Y76.832 E24.36472
G1 X108.115 Y76.833 E24.38418
G1 X91.83 Y93.118 E25.16373
G1 X91.83 Y93.694 E25.18323
G1 X108.17 Y77.353 E25.96544
G1 X108.17 Y77.929 E25.98494
G1 X91.83 Y94.269 E26.76713
G1 X91.83 Y94.845 E26.78663
G1 X108.17 Y78.505 E27.56882
G1 X108.17 Y79.081 E27.58832
G1 X91.83 Y95.421 E28.37051
G1 X91.83 Y95.996 E28.38997
G1 X108.17 Y79.656 E29.17216
G1 X108.17 Y80.232 E29.19166
G1 X91.83 Y96.572 E29.97385
G1 X91.83 Y97.148 E29.99335
G1 X108.17 Y80.808 E30.77554
G1 X108.17 Y81.383 E30.795
G1 X91.83 Y97.724 E31.57721
G1 X91.83 Y98.299 E31.59667
G1 X108.17 Y81.959 E32.37886
G1 X108.17 Y82.535 E32.39836
G1 X91.83 Y98.875 E33.18055
G1 X91.83 Y99.451 E33.20005
G1 X108.17 Y83.11 E33.98226
G1 X108.17 Y83.686 E34.00176
G1 X91.83 Y100.026 E34.78395
G1 X91.83 Y100.602 E34.80345
G1 X108.17 Y84.262 E35.58564
G1 X108.17 Y84.838 E35.60514
G1 X91.83 Y101.178 E36.38733
G1 X91.83 Y101.753 E36.40679
G1 X108.17 Y85.413 E37.18898
G1 X108.17 Y85.989 E37.20848
G1 X91.83 Y102.329 E37.99067
G1 X91.83 Y102.905 E38.01017
G1 X108.17 Y86.565 E38.79236
G1 X108.17 Y87.14 E38.81182
G1 X91.83 Y103.481 E39.59403
G1 X91.83 Y104.056 E39.61349
G1 X108.17 Y87.716 E40.39568
G1 X108.17 Y88.292 E40.41518
G1 X91.83 Y104.632 E41.19737
G1 X91.83 Y105.208 E41.21687
G1 X108.17 Y88.867 E41.99908
G1 X108.17 Y89.443 E42.01858
G1 X91.83 Y105.783 E42.80077
G1 X91.83 Y106.359 E42.82027
G1 X108.17 Y90.019 E43.60246
G1 X108.17 Y90.594 E43.62192
G1 X91.83 Y106.935 E44.40413
G1 X91.83 Y107.51 E44.42359
G1 X108.17 Y91.17 E45.20578
G1 X108.17 Y91.746 E45.22528
G1 X91.83 Y108.086 E46.00747
G1 X91.83 Y108.662 E46.02697
G1 X108.17 Y92.322 E46.80916
G1 X108.17 Y92.897 E46.82862
G1 X91.83 Y109.238 E47.61083
G1 X91.83 Y109.813 E47.63029
G1 X108.17 Y93.473 E48.41248
G1 X108.17 Y94.049 E48.43198
G1 X91.83 Y110.389 E49.21417
G1 X91.83 Y110.965 E49.23367
G1 X108.17 Y94.624 E50.01588
G1 X108.17 Y95.2 E50.03538
G1 X91.83 Y111.54 E50.81757
G1 X91.83 Y112.116 E50.83707
G1 X108.17 Y95.776 E51.61926
G1 X108.17 Y96.351 E51.63872
G1 X91.83 Y112.692 E52.42093
G1 X91.732 Y113.328 E52.44271
