; generated by PrusaSlicer 2.6.1+win64 on 2023-10-20 at 08:32:36 UTC

; 

; external perimeters extrusion width = 0.45mm
; perimeters extrusion width = 0.45mm
; infill extrusion width = 0.45mm
; solid infill extrusion width = 0.45mm
; top infill extrusion width = 0.40mm
; first layer extrusion width = 0.42mm

M190 S60 ; set bed temperature and wait for it to be reached
M104 S200 ; set temperature
;TYPE:Custom
START_PRINT
M109 S200 ; set temperature and wait for it to be reached
G21 ; set units to millimeters
G90 ; use absolute coordinates
M82 ; use absolute distances for extrusion
G92 E0
; Filament gcode
M107
;LAYER_CHANGE
;Z:0.1
;HEIGHT:0.1
G1 Z.1 F7800
G1 E-2 F2400
G92 E0
G1 X33.552 Y41.014 F7800
G1 E2 F2400
;TYPE:Skirt/Brim
;WIDTH:0.42
G1 F1800
G1 X35.154 Y39.704 E2.03429
G1 X38.27 Y38.894 E2.08764
G1 X161.73 Y38.894 E4.13329
G1 X163.948 Y39.291 E4.17062
G1 X165.892 Y40.432 E4.20797
G1 X167.319 Y42.177 E4.24532
G1 X168.129 Y45.293 E4.29867
G1 X168.129 Y144.707 E5.9459
G1 X167.732 Y146.926 E5.98325
G1 X166.59 Y148.869 E6.02059
G1 X164.846 Y150.296 E6.05793
G1 X161.73 Y151.106 E6.11128
G1 X38.27 Y151.106 E8.15693
G1 X36.052 Y150.709 E8.19426
G1 X34.108 Y149.568 E8.23161
G1 X32.681 Y147.823 E8.26896
G1 X31.871 Y144.707 E8.32231
G1 X31.871 Y45.293 E9.96954
G1 X32.268 Y43.074 E10.00689
G1 X33.41 Y41.131 E10.04423
G1 X33.506 Y41.052 E10.04629
G1 E8.04629 F2400
G92 E0
G1 X143.601 Y138.452 F7800
G1 E2 F2400
;TYPE:Perimeter
;WIDTH:0.419999
G1 F1800
G1 X143.694 Y138.414 E2.00166
G1 X143.938 Y138.024 E2.00928
G1 X143.991 Y137.704 E2.01465
G1 X143.991 Y133.312 E2.08742
G1 X150.765 Y133.303 E2.19966
G1 X151.028 Y133.231 E2.20418
G1 X151.364 Y132.995 E2.21098
G1 X151.538 Y132.736 E2.21615
G1 X151.631 Y132.316 E2.22328
G1 X151.631 Y100.237 E2.75481
G1 X151.535 Y99.811 E2.76205
G1 X151.358 Y99.552 E2.76725
G1 X151.022 Y99.32 E2.77402
G1 X150.635 Y99.241 E2.78056
G1 X143.991 Y99.241 E2.89065
G1 X143.991 Y95.135 E2.95868
G1 X143.937 Y94.811 E2.96412
G1 X143.688 Y94.42 E2.9718
G1 X143.608 Y94.387 E2.97323
G1 X143.688 Y94.355 E2.97466
G1 X143.937 Y93.964 E2.98234
G1 X143.991 Y93.64 E2.98778
G1 X143.991 Y89.153 E3.06213
G1 X150.623 Y89.153 E3.17202
G1 X151.01 Y89.074 E3.17856
G1 X151.346 Y88.842 E3.18533
G1 X151.523 Y88.583 E3.19053
G1 X151.619 Y88.156 E3.19778
G1 X151.619 Y57.684 E3.70268
G1 X151.526 Y57.264 E3.70981
G1 X151.352 Y57.005 E3.71498
G1 X151.203 Y56.874 E3.71827
G1 X150.959 Y56.746 E3.72284
G1 X150.623 Y56.688 E3.72849
G1 X143.991 Y56.688 E3.83838
G1 X143.991 Y52.603 E3.90607
G1 X143.936 Y52.278 E3.91153
G1 X143.687 Y51.886 E3.91922
G1 X143.609 Y51.855 E3.92061
G1 X143.687 Y51.824 E3.922
G1 X143.936 Y51.432 E3.92969
G1 X143.991 Y51.107 E3.93515
G1 X143.991 Y46.6 E4.00983
G1 X160.423 Y46.6 E4.2821
G1 X160.423 Y56.688 E4.44925
G1 X153.68 Y56.697 E4.56098
G1 X153.417 Y56.769 E4.5655
G1 X153.081 Y57.005 E4.5723
G1 X152.907 Y57.264 E4.57747
G1 X152.814 Y57.684 E4.5846
G1 X152.814 Y88.156 E5.0895
G1 X152.91 Y88.583 E5.09675
G1 X153.087 Y88.842 E5.10195
G1 X153.237 Y88.971 E5.10523
G1 X153.48 Y89.096 E5.10976
G1 X153.811 Y89.153 E5.11533
G1 X160.423 Y89.153 E5.22489
G1 X160.423 Y99.241 E5.39204
G1 X153.82 Y99.241 E5.50145
G1 X153.435 Y99.32 E5.50796
G1 X153.099 Y99.552 E5.51473
G1 X152.922 Y99.811 E5.51993
G1 X152.826 Y100.237 E5.52717
G1 X152.826 Y132.316 E6.0587
G1 X152.919 Y132.736 E6.06583
G1 X153.093 Y132.995 E6.071
G1 X153.242 Y133.126 E6.07429
G1 X153.486 Y133.254 E6.07886
G1 X153.822 Y133.312 E6.08451
G1 X160.423 Y133.312 E6.19388
G1 X160.423 Y143.4 E6.36103
G1 X143.991 Y143.4 E6.6333
G1 X143.991 Y139.2 E6.70289
G1 X143.938 Y138.881 E6.70825
G1 X143.694 Y138.491 E6.71587
G1 X143.656 Y138.475 E6.71655
G1 E4.71655 F2400
G92 E0
G1 X108.355 Y93.78 F7800
G1 E2 F2400
G1 F1800
G1 X108.386 Y93.964 E2.00309
G1 X108.635 Y94.355 E2.01077
G1 X108.706 Y94.387 E2.01206
G1 X108.635 Y94.42 E2.01336
G1 X108.386 Y94.811 E2.02104
G1 X108.332 Y95.135 E2.02648
G1 X108.332 Y99.241 E2.09451
G1 X101.738 Y99.245 E2.20377
G1 X101.437 Y99.319 E2.20891
G1 X101.101 Y99.552 E2.21568
G1 X100.924 Y99.811 E2.22088
G1 X100.828 Y100.237 E2.22812
G1 X100.828 Y111.436 E2.41368
G1 X100.941 Y111.897 E2.42154
G1 X101.135 Y112.155 E2.42689
G1 X101.467 Y112.366 E2.43341
G1 X101.824 Y112.433 E2.43943
G1 X107.039 Y112.433 E2.52584
G1 X107.039 Y120.404 E2.65791
G1 X101.824 Y120.404 E2.74432
G1 X101.467 Y120.47 E2.75034
G1 X101.135 Y120.681 E2.75686
G1 X100.941 Y120.94 E2.76222
G1 X100.828 Y121.4 E2.77007
G1 X100.828 Y132.316 E2.95094
G1 X100.921 Y132.736 E2.95807
G1 X101.095 Y132.995 E2.96324
G1 X101.244 Y133.126 E2.96653
G1 X101.489 Y133.254 E2.97111
G1 X101.824 Y133.312 E2.97674
G1 X108.332 Y133.312 E3.08457
G1 X108.332 Y137.704 E3.15734
G1 X108.384 Y138.024 E3.16271
G1 X108.629 Y138.414 E3.17034
G1 X108.712 Y138.452 E3.17185
G1 X108.629 Y138.491 E3.17337
G1 X108.384 Y138.881 E3.181
G1 X108.332 Y139.2 E3.18636
G1 X108.332 Y143.4 E3.25595
G1 X91.9 Y143.4 E3.52822
G1 X91.9 Y139.095 E3.59955
G1 X91.849 Y138.78 E3.60484
G1 X91.608 Y138.391 E3.61242
G1 X91.503 Y138.347 E3.61431
G1 X91.608 Y138.304 E3.61619
G1 X91.849 Y137.914 E3.62379
G1 X91.9 Y137.599 E3.62908
G1 X91.9 Y133.312 E3.70011
G1 X98.768 Y133.303 E3.81391
G1 X99.03 Y133.231 E3.81841
G1 X99.366 Y132.995 E3.82521
G1 X99.54 Y132.736 E3.83038
G1 X99.633 Y132.316 E3.83751
G1 X99.633 Y121.4 E4.01838
G1 X99.52 Y120.94 E4.02623
G1 X99.327 Y120.681 E4.03158
G1 X98.994 Y120.47 E4.03811
G1 X98.637 Y120.404 E4.04413
G1 X93.781 Y120.404 E4.12459
G1 X93.781 Y112.433 E4.25666
G1 X98.637 Y112.433 E4.33712
G1 X98.994 Y112.366 E4.34314
G1 X99.327 Y112.155 E4.34967
G1 X99.52 Y111.897 E4.35501
G1 X99.633 Y111.436 E4.36287
G1 X99.633 Y100.237 E4.54843
G1 X99.537 Y99.811 E4.55567
G1 X99.36 Y99.552 E4.56087
G1 X99.024 Y99.319 E4.56764
G1 X98.637 Y99.241 E4.57418
G1 X91.9 Y99.241 E4.68581
G1 X91.9 Y95.03 E4.75558
G1 X91.847 Y94.712 E4.76092
G1 X91.603 Y94.321 E4.76856
G1 X91.509 Y94.282 E4.77025
G1 X91.603 Y94.244 E4.77193
G1 X91.847 Y93.853 E4.77957
G1 X91.9 Y93.535 E4.78491
G1 X91.9 Y89.153 E4.85752
G1 X98.637 Y89.153 E4.96915
G1 X99.024 Y89.074 E4.97569
G1 X99.36 Y88.842 E4.98246
G1 X99.537 Y88.583 E4.98766
G1 X99.633 Y88.156 E4.99491
G1 X99.633 Y78.162 E5.1605
G1 X99.52 Y77.702 E5.16835
G1 X99.327 Y77.443 E5.1737
G1 X98.994 Y77.232 E5.18023
G1 X98.637 Y77.166 E5.18625
G1 X93.781 Y77.166 E5.26671
G1 X93.781 Y69.195 E5.39878
G1 X98.637 Y69.195 E5.47924
G1 X98.994 Y69.128 E5.48526
G1 X99.327 Y68.917 E5.49179
G1 X99.52 Y68.659 E5.49713
G1 X99.633 Y68.198 E5.50499
G1 X99.633 Y57.684 E5.6792
G1 X99.54 Y57.264 E5.68633
G1 X99.366 Y57.005 E5.6915
G1 X99.217 Y56.874 E5.69479
G1 X98.973 Y56.746 E5.69936
G1 X98.637 Y56.688 E5.70501
G1 X91.9 Y56.688 E5.81664
G1 X91.9 Y52.498 E5.88607
G1 X91.847 Y52.178 E5.89144
G1 X91.602 Y51.788 E5.89907
G1 X91.51 Y51.75 E5.90072
G1 X91.602 Y51.712 E5.90237
G1 X91.847 Y51.322 E5.91
G1 X91.9 Y51.002 E5.91537
G1 X91.9 Y46.6 E5.98831
G1 X108.332 Y46.6 E6.26058
G1 X108.332 Y51.107 E6.33526
G1 X108.386 Y51.432 E6.34072
G1 X108.636 Y51.824 E6.34842
G1 X108.705 Y51.855 E6.34967
G1 X108.636 Y51.886 E6.35092
G1 X108.386 Y52.278 E6.35862
G1 X108.332 Y52.603 E6.36408
G1 X108.332 Y56.688 E6.43177
G1 X101.694 Y56.697 E6.54176
G1 X101.431 Y56.769 E6.54628
G1 X101.095 Y57.005 E6.55308
G1 X100.921 Y57.264 E6.55825
G1 X100.828 Y57.684 E6.56538
G1 X100.828 Y68.198 E6.73959
G1 X100.941 Y68.659 E6.74745
G1 X101.135 Y68.917 E6.7528
G1 X101.467 Y69.128 E6.75932
G1 X101.824 Y69.195 E6.76534
G1 X107.039 Y69.195 E6.85175
G1 X107.039 Y77.166 E6.98382
G1 X101.824 Y77.166 E7.07023
G1 X101.467 Y77.232 E7.07625
G1 X101.135 Y77.443 E7.08277
G1 X100.941 Y77.702 E7.08813
G1 X100.828 Y78.162 E7.09598
G1 X100.828 Y88.156 E7.26157
G1 X100.924 Y88.583 E7.26882
G1 X101.101 Y88.842 E7.27402
G1 X101.251 Y88.971 E7.2773
G1 X101.494 Y89.096 E7.28183
G1 X101.824 Y89.153 E7.28738
G1 X108.332 Y89.153 E7.39521
G1 X108.332 Y93.64 E7.46956
G1 X108.345 Y93.721 E7.47092
G1 X108.738 Y93.701 F7800
G1 F1800
G1 X108.73 Y88.754 E7.55289
G1 X101.824 Y88.754 E7.66732
G1 X101.545 Y88.685 E7.67208
G1 X101.39 Y88.568 E7.6753
G1 X101.284 Y88.412 E7.67843
G1 X101.227 Y88.156 E7.68278
G1 X101.227 Y78.162 E7.84837
G1 X101.294 Y77.886 E7.85308
G1 X101.502 Y77.659 E7.85818
G1 X101.772 Y77.567 E7.86291
G1 X107.437 Y77.564 E7.95678
G1 X107.437 Y68.796 E8.10206
G1 X101.824 Y68.796 E8.19506
G1 X101.566 Y68.737 E8.19945
G1 X101.41 Y68.63 E8.20258
G1 X101.294 Y68.474 E8.2058
G1 X101.227 Y68.198 E8.21051
G1 X101.227 Y57.684 E8.38472
G1 X101.282 Y57.432 E8.38899
G1 X101.476 Y57.198 E8.39403
G1 X101.746 Y57.092 E8.39884
G1 X101.824 Y57.086 E8.40014
G1 X108.73 Y57.086 E8.51457
G1 X108.73 Y52.603 E8.58885
G1 X108.797 Y52.328 E8.59354
G1 X108.913 Y52.173 E8.59675
G1 X109.328 Y52.03 E8.60402
;WIDTH:0.370725
G1 X142.994 Y52.03 E9.09288
;WIDTH:0.419999
G1 X143.41 Y52.173 E9.10017
G1 X143.573 Y52.453 E9.10554
G1 X143.592 Y52.603 E9.10805
G1 X143.592 Y57.086 E9.18233
G1 X150.623 Y57.086 E9.29883
G1 X150.906 Y57.158 E9.30367
G1 X151.06 Y57.277 E9.30689
G1 X151.165 Y57.432 E9.30999
G1 X151.221 Y57.684 E9.31427
G1 X151.221 Y88.156 E9.81917
G1 X151.163 Y88.412 E9.82352
G1 X150.967 Y88.645 E9.82856
G1 X150.702 Y88.749 E9.83328
G1 X150.623 Y88.754 E9.83459
G1 X143.592 Y88.754 E9.95109
G1 X143.592 Y93.64 E10.03205
G1 X143.526 Y93.914 E10.03672
G1 X143.411 Y94.069 E10.03992
G1 X142.994 Y94.213 E10.04723
;WIDTH:0.370724
G1 X109.328 Y94.213 E10.53608
;WIDTH:0.419999
G1 X108.912 Y94.069 E10.54337
G1 X108.746 Y93.76 E10.54918
G1 X109.129 Y93.64 F7800
;TYPE:External perimeter
G1 F1800
G1 X109.129 Y88.356 E10.63673
G1 X101.824 Y88.356 E10.75777
G1 X101.68 Y88.293 E10.76037
G1 X101.625 Y88.156 E10.76282
G1 X101.625 Y78.162 E10.92841
G1 X101.686 Y78.018 E10.931
G1 X101.824 Y77.963 E10.93346
G1 X107.836 Y77.963 E11.03307
G1 X107.836 Y68.398 E11.19156
G1 X101.824 Y68.398 E11.29117
G1 X101.686 Y68.342 E11.29364
G1 X101.625 Y68.198 E11.29623
G1 X101.625 Y57.684 E11.47044
G1 X101.644 Y57.6 E11.47187
G1 X101.773 Y57.492 E11.47466
G1 X101.824 Y57.485 E11.47551
G1 X109.129 Y57.485 E11.59655
G1 X109.129 Y52.603 E11.67744
G1 X109.19 Y52.46 E11.68002
G1 X109.328 Y52.404 E11.68249
G1 X142.994 Y52.404 E12.24031
G1 X143.171 Y52.511 E12.24374
G1 X143.194 Y52.603 E12.24531
G1 X143.194 Y57.485 E12.3262
G1 X150.623 Y57.485 E12.44929
G1 X150.769 Y57.548 E12.45192
G1 X150.822 Y57.684 E12.45434
G1 X150.822 Y88.156 E12.95924
G1 X150.768 Y88.293 E12.96168
G1 X150.623 Y88.356 E12.9643
G1 X143.194 Y88.356 E13.08739
G1 X143.194 Y93.64 E13.17494
G1 X143.133 Y93.783 E13.17752
G1 X142.994 Y93.839 E13.18
G1 X109.328 Y93.839 E13.73782
G1 X109.189 Y93.783 E13.7403
G1 X109.152 Y93.695 E13.74188
G1 X108.743 Y93.536 F7800
G1 X108.739 Y95.098
;TYPE:Perimeter
G1 F1800
G1 X108.797 Y94.861 E13.74592
G1 X108.912 Y94.706 E13.74912
G1 X109.328 Y94.562 E13.75641
;WIDTH:0.370724
G1 X142.994 Y94.562 E14.24526
;WIDTH:0.419999
G1 X143.411 Y94.706 E14.25257
G1 X143.573 Y94.986 E14.25793
G1 X143.592 Y95.135 E14.26042
G1 X143.592 Y99.64 E14.33506
G1 X150.635 Y99.64 E14.45176
G1 X150.914 Y99.709 E14.45652
G1 X151.069 Y99.826 E14.45974
G1 X151.175 Y99.982 E14.46287
G1 X151.232 Y100.237 E14.4672
G1 X151.232 Y132.316 E14.99873
G1 X151.177 Y132.568 E15.003
G1 X150.983 Y132.802 E15.00804
G1 X150.713 Y132.908 E15.01285
G1 X143.592 Y132.914 E15.13084
G1 X143.592 Y137.704 E15.21021
G1 X143.528 Y137.975 E15.21482
G1 X143.414 Y138.13 E15.21801
G1 X142.994 Y138.278 E15.22539
;WIDTH:0.370725
G1 X109.328 Y138.278 E15.71425
;WIDTH:0.419999
G1 X108.909 Y138.13 E15.72161
G1 X108.749 Y137.851 E15.72694
G1 X108.73 Y137.704 E15.7294
G1 X108.73 Y132.914 E15.80877
G1 X101.824 Y132.914 E15.9232
G1 X101.542 Y132.842 E15.92802
G1 X101.387 Y132.723 E15.93126
G1 X101.282 Y132.568 E15.93436
G1 X101.227 Y132.316 E15.93863
G1 X101.227 Y121.4 E16.1195
G1 X101.294 Y121.124 E16.12421
G1 X101.502 Y120.897 E16.12931
G1 X101.772 Y120.805 E16.13404
G1 X107.437 Y120.802 E16.22791
G1 X107.437 Y112.034 E16.37319
G1 X101.824 Y112.034 E16.46619
G1 X101.566 Y111.975 E16.47058
G1 X101.41 Y111.867 E16.47372
G1 X101.294 Y111.712 E16.47693
G1 X101.227 Y111.436 E16.48164
G1 X101.227 Y100.237 E16.6672
G1 X101.284 Y99.981 E16.67155
G1 X101.48 Y99.748 E16.67659
G1 X101.746 Y99.645 E16.68132
G1 X108.73 Y99.64 E16.79704
G1 X108.73 Y95.157 E16.87132
G1 X109.189 Y94.992 F7800
;TYPE:External perimeter
G1 F1800
G1 X109.328 Y94.936 E16.8738
G1 X142.994 Y94.936 E17.43162
G1 X143.172 Y95.044 E17.43507
G1 X143.194 Y95.135 E17.43662
G1 X143.194 Y100.038 E17.51786
G1 X150.635 Y100.038 E17.64115
G1 X150.779 Y100.1 E17.64375
G1 X150.834 Y100.237 E17.6462
G1 X150.834 Y132.316 E18.17773
G1 X150.78 Y132.452 E18.18015
G1 X150.635 Y132.515 E18.18277
G1 X143.194 Y132.515 E18.30606
G1 X143.194 Y137.704 E18.39204
G1 X143.134 Y137.846 E18.39459
G1 X142.994 Y137.904 E18.3971
G1 X109.328 Y137.904 E18.95492
G1 X109.188 Y137.846 E18.95743
G1 X109.129 Y137.704 E18.95998
G1 X109.129 Y132.515 E19.04596
G1 X101.824 Y132.515 E19.167
G1 X101.679 Y132.452 E19.16962
G1 X101.625 Y132.316 E19.17204
G1 X101.625 Y121.4 E19.35291
G1 X101.686 Y121.256 E19.3555
G1 X101.824 Y121.201 E19.35796
G1 X107.836 Y121.201 E19.45757
G1 X107.836 Y111.635 E19.61607
G1 X101.824 Y111.635 E19.71568
G1 X101.686 Y111.58 E19.71814
G1 X101.625 Y111.436 E19.72073
G1 X101.625 Y100.237 E19.90629
G1 X101.68 Y100.1 E19.90874
G1 X101.824 Y100.038 E19.91134
G1 X109.129 Y100.038 E20.03238
G1 X109.129 Y95.135 E20.11362
G1 X109.166 Y95.048 E20.11519
G1 X109.152 Y94.847 F7800
G1 E18.11519 F2400
G92 E0
G1 X56.388 Y51.75 F7800
G1 E2 F2400
;TYPE:Perimeter
G1 F1800
G1 X56.307 Y51.788 E2.00148
G1 X56.062 Y52.178 E2.00911
G1 X56.009 Y52.498 E2.01448
G1 X56.009 Y56.688 E2.08391
G1 X48.519 Y56.697 E2.20801
G1 X48.256 Y56.769 E2.21253
G1 X47.92 Y57.005 E2.21933
G1 X47.746 Y57.264 E2.2245
G1 X47.653 Y57.684 E2.23163
G1 X47.653 Y88.156 E2.73653
G1 X47.749 Y88.582 E2.74377
G1 X47.926 Y88.841 E2.74897
G1 X48.075 Y88.971 E2.75225
G1 X48.318 Y89.096 E2.75678
G1 X48.65 Y89.153 E2.76236
G1 X56.009 Y89.153 E2.88429
G1 X56.009 Y93.535 E2.9569
G1 X56.062 Y93.853 E2.96224
G1 X56.305 Y94.244 E2.96987
G1 X56.389 Y94.282 E2.9714
G1 X56.305 Y94.321 E2.97293
G1 X56.062 Y94.712 E2.98056
G1 X56.009 Y95.03 E2.9859
G1 X56.009 Y99.241 E3.05567
G1 X48.731 Y99.241 E3.17626
G1 X48.359 Y99.32 E3.18256
G1 X48.023 Y99.553 E3.18933
G1 X47.846 Y99.812 E3.19453
G1 X47.751 Y100.237 E3.20175
G1 X47.751 Y132.316 E3.73328
G1 X47.844 Y132.736 E3.74041
G1 X48.018 Y132.995 E3.74558
G1 X48.167 Y133.126 E3.74887
G1 X48.411 Y133.254 E3.75344
G1 X48.747 Y133.312 E3.75909
G1 X56.009 Y133.312 E3.87942
G1 X56.009 Y137.599 E3.95045
G1 X56.06 Y137.914 E3.95574
G1 X56.301 Y138.304 E3.96334
G1 X56.394 Y138.347 E3.96504
G1 X56.301 Y138.391 E3.96674
G1 X56.06 Y138.78 E3.97432
G1 X56.009 Y139.095 E3.97961
G1 X56.009 Y143.4 E4.05094
G1 X39.577 Y143.4 E4.32321
G1 X39.577 Y133.312 E4.49036
G1 X45.69 Y133.303 E4.59165
G1 X45.953 Y133.231 E4.59617
G1 X46.289 Y132.995 E4.60297
G1 X46.463 Y132.736 E4.60814
G1 X46.556 Y132.316 E4.61527
G1 X46.556 Y100.237 E5.1468
G1 X46.46 Y99.812 E5.15402
G1 X46.283 Y99.553 E5.15922
G1 X45.948 Y99.32 E5.16598
G1 X45.559 Y99.241 E5.17256
G1 X39.577 Y99.241 E5.27168
G1 X39.577 Y89.153 E5.43883
G1 X45.462 Y89.153 E5.53634
G1 X45.85 Y89.074 E5.5429
G1 X46.186 Y88.841 E5.54967
G1 X46.363 Y88.582 E5.55487
G1 X46.458 Y88.156 E5.5621
G1 X46.458 Y57.684 E6.067
G1 X46.365 Y57.264 E6.07413
G1 X46.191 Y57.005 E6.0793
G1 X46.042 Y56.874 E6.08259
G1 X45.798 Y56.746 E6.08716
G1 X45.462 Y56.688 E6.09281
G1 X39.577 Y56.688 E6.19032
G1 X39.577 Y46.6 E6.35747
G1 X56.009 Y46.6 E6.62974
G1 X56.009 Y51.002 E6.70268
G1 X56.062 Y51.322 E6.70805
G1 X56.307 Y51.712 E6.71568
G1 X56.334 Y51.725 E6.71618
G1 E4.71618 F2400
G92 E0
G1 X99.062 Y77.746 F7800
G1 E2 F2400
G1 F1800
G1 X99.167 Y77.886 E2.0029
G1 X99.234 Y78.162 E2.00761
G1 X99.234 Y88.156 E2.1732
G1 X99.177 Y88.412 E2.17755
G1 X98.981 Y88.645 E2.18259
G1 X98.715 Y88.749 E2.18732
G1 X98.637 Y88.754 E2.18862
G1 X91.501 Y88.754 E2.30686
G1 X91.501 Y93.535 E2.38608
G1 X91.437 Y93.805 E2.39068
G1 X91.323 Y93.96 E2.39387
G1 X90.903 Y94.108 E2.40125
