;FLAVOR:Marlin
;TIME:5783
;Filament used: 2.73532m
;Layer height: 0.1
;MINX:62.538
;MINY:55.989
;MINZ:0.3
;MAXX:137.463
;MAXY:134.016
;MAXZ:6.7
;Generated with Cura_SteamEngine 5.4.0
M140 S70
M105
M190 S70
M104 S210
M105
M109 S210
M82 ;absolute extrusion mode
START_PRINT
G92 E0
G92 E0
G1 F1500 E-6.5
;LAYER_COUNT:65
;LAYER:0
M107
M204 S1000
G0 F9000 X74.653 Y67.232 Z0.3
;TYPE:SKIRT
G1 F1500 E0
G1 F3000 X75.02 Y66.85 E0.02643
G1 X75.29 Y66.611 E0.04442
G1 X75.595 Y66.371 E0.06378
G1 X75.982 Y66.101 E0.08732
G1 X76.554 Y65.752 E0.12075
G1 X76.909 Y65.57 E0.14066
G1 X77.714 Y65.214 E0.18457
G1 X78.07 Y65.079 E0.20356
G1 X79.052 Y64.771 E0.25491
G1 X79.855 Y64.544 E0.29654
G1 X80.6 Y64.359 E0.33484
G1 X83.68 Y63.727 E0.4917
G1 X86.299 Y63.116 E0.62587
G1 X88.982 Y62.41 E0.76428
G1 X91.561 Y61.653 E0.89838
G1 X94.187 Y60.8 E1.03613
G1 X96.732 Y59.893 E1.17092
G1 X99.269 Y58.907 E1.30672
G1 X101.814 Y57.834 E1.44451
G1 X102.594 Y57.496 E1.48692
G1 X102.86 Y57.394 E1.50114
G1 X103.831 Y57.07 E1.5522
G1 X104.675 Y56.835 E1.59591
G1 X105.86 Y56.557 E1.65664
G1 X107.035 Y56.339 E1.71626
G1 X108.142 Y56.187 E1.77201
G1 X109.407 Y56.07 E1.83539
G1 X110.977 Y56.002 E1.91379
G1 X112.285 Y55.989 E1.97905
G1 X113.924 Y56.03 E2.06084
G1 X115.343 Y56.119 E2.13178
G1 X116.326 Y56.216 E2.18106
G1 X117.587 Y56.403 E2.24466
G1 X118.393 Y56.559 E2.28561
G1 X118.776 Y56.643 E2.30518
G1 X119.66 Y56.863 E2.35062
G1 X120.585 Y57.138 E2.39877
G1 X121.08 Y57.31 E2.42491
G1 X121.76 Y57.58 E2.46141
G1 X122.177 Y57.769 E2.48426
G1 X122.816 Y58.105 E2.52027
G1 X123.33 Y58.42 E2.55035
G1 X123.692 Y58.681 E2.57262
G1 X124.195 Y59.095 E2.60512
G1 X124.559 Y59.446 E2.63035
G1 X124.927 Y59.925 E2.66048
G1 X125.262 Y60.604 E2.69825
G1 X125.376 Y60.914 E2.71473
G1 X125.525 Y61.452 E2.74258
G1 X125.576 Y61.81 E2.76063
G1 X125.629 Y62.459 E2.79311
G1 X125.639 Y62.826 E2.81143
G1 X125.64 Y66.124 E2.97597
G1 X125.68 Y68.904 E3.11468
G1 X125.795 Y71.621 E3.25035
G1 X125.988 Y74.345 E3.38659
G1 X126.254 Y77.035 E3.52145
G1 X126.603 Y79.762 E3.65861
G1 X127.024 Y82.441 E3.79391
G1 X127.525 Y85.138 E3.93076
G1 X128.095 Y87.784 E4.0658
G1 X128.74 Y90.42 E4.20119
G1 X129.466 Y93.06 E4.33779
G1 X130.27 Y95.685 E4.47476
G1 X131.139 Y98.262 E4.61044
G1 X132.073 Y100.795 E4.74513
G1 X133.103 Y103.359 E4.88298
G1 X134.195 Y105.869 E5.01954
G1 X135.339 Y108.308 E5.15394
G1 X136.535 Y110.703 E5.2875
G1 X136.821 Y111.354 E5.32298
G1 X136.939 Y111.661 E5.33938
G1 X137.077 Y112.083 E5.36154
G1 X137.158 Y112.372 E5.37651
G1 X137.293 Y112.953 E5.40627
G1 X137.354 Y113.293 E5.4235
G1 X137.434 Y113.916 E5.45484
G1 X137.463 Y114.382 E5.47813
G1 X137.461 Y114.918 E5.50487
G1 X137.442 Y115.273 E5.52261
G1 X137.384 Y115.815 E5.5498
G1 X137.312 Y116.242 E5.57141
G1 X137.204 Y116.706 E5.59518
G1 X137.096 Y117.073 E5.61426
G1 X136.952 Y117.479 E5.63575
G1 X136.808 Y117.823 E5.65436
G1 X136.635 Y118.181 E5.6742
G1 X136.45 Y118.514 E5.6932
G1 X136.231 Y118.862 E5.71371
G1 X135.983 Y119.208 E5.73495
G1 X135.679 Y119.583 E5.75904
G1 X135.393 Y119.893 E5.78008
G1 X135.005 Y120.261 E5.80676
G1 X134.634 Y120.563 E5.83063
G1 X134.253 Y120.829 E5.85381
G1 X133.876 Y121.056 E5.87576
G1 X132.464 Y121.777 E5.95486
G1 X130.039 Y123.048 E6.09145
G1 X127.649 Y124.387 E6.22813
G1 X125.324 Y125.778 E6.3633
G1 X123.033 Y127.237 E6.49881
G1 X120.513 Y128.946 E6.65072
G1 X119.871 Y129.353 E6.68864
G1 X119.156 Y129.76 E6.72968
G1 X118.608 Y130.045 E6.7605
G1 X117.059 Y130.764 E6.8457
G1 X115.999 Y131.215 E6.90317
G1 X114.574 Y131.776 E6.97958
G1 X113.625 Y132.114 E7.02984
G1 X112.501 Y132.454 E7.08842
G1 X111.053 Y132.817 E7.1629
G1 X109.287 Y133.19 E7.25295
G1 X108.093 Y133.409 E7.31351
G1 X106.588 Y133.643 E7.3895
G1 X105.286 Y133.801 E7.45493
G1 X103.505 Y133.947 E7.54408
G1 X102.8 Y133.977 E7.57929
G1 X99.662 Y134.016 E7.73586
G1 X98.172 Y134.012 E7.81019
G1 X97.165 Y133.997 E7.86044
G1 X95.302 Y133.916 E7.95347
G1 X94.224 Y133.83 E8.00742
G1 X92.515 Y133.614 E8.09336
G1 X90.757 Y133.327 E8.18223
G1 X89.421 Y133.072 E8.25009
G1 X87.94 Y132.741 E8.3258
G1 X86.512 Y132.364 E8.39948
G1 X85.451 Y132.032 E8.45495
G1 X84.335 Y131.63 E8.51413
G1 X82.849 Y131.024 E8.59419
G1 X81.476 Y130.415 E8.66913
G1 X80.536 Y129.963 E8.72116
G1 X79.871 Y129.607 E8.75879
G1 X79.45 Y129.362 E8.7831
G1 X78.703 Y128.881 E8.82742
G1 X77.726 Y128.161 E8.88797
G1 X76.876 Y127.419 E8.94426
G1 X76.18 Y126.722 E8.9934
G1 X75.735 Y126.221 E9.02684
G1 X75.391 Y125.797 E9.05408
G1 X74.93 Y125.152 E9.09363
G1 X74.632 Y124.675 E9.12169
G1 X74.325 Y124.102 E9.15412
G1 X74.189 Y123.812 E9.1701
G1 X73.946 Y123.228 E9.20166
G1 X73.815 Y122.849 E9.22166
G1 X73.639 Y122.199 E9.25526
G1 X72.932 Y118.992 E9.4191
G1 X72.269 Y116.361 E9.55446
G1 X71.531 Y113.749 E9.68988
G1 X70.705 Y111.114 E9.82765
G1 X69.814 Y108.528 E9.96411
G1 X68.87 Y106.023 E10.09766
G1 X67.832 Y103.488 E10.23432
G1 X66.718 Y100.975 E10.37147
G1 X65.549 Y98.521 E10.50708
G1 X64.271 Y96.028 E10.64684
G1 X63.54 Y94.643 E10.72498
G1 X63.41 Y94.369 E10.74011
G1 X63.155 Y93.759 E10.77309
G1 X63.043 Y93.449 E10.78954
G1 X62.887 Y92.943 E10.81595
G1 X62.809 Y92.639 E10.83161
G1 X62.654 Y91.903 E10.86914
G1 X62.593 Y91.484 E10.89026
G1 X62.548 Y90.935 E10.91774
G1 X62.538 Y90.558 E10.93656
G1 X62.554 Y89.997 E10.96456
G1 X62.583 Y89.648 E10.98203
G1 X62.664 Y89.067 E11.01129
G1 X62.742 Y88.68 E11.03099
G1 X62.906 Y88.067 E11.06265
G1 X63.037 Y87.675 E11.08327
G1 X63.189 Y87.298 E11.10355
G1 X63.364 Y86.933 E11.12374
G1 X63.675 Y86.375 E11.15561
G1 X63.867 Y86.07 E11.17359
G1 X64.839 Y84.696 E11.25756
G1 X66.358 Y82.425 E11.39387
G1 X67.797 Y80.139 E11.52863
G1 X69.204 Y77.754 E11.66679
G1 X70.505 Y75.402 E11.80088
G1 X71.765 Y72.962 E11.93789
G1 X72.946 Y70.505 E12.07389
G1 X73.849 Y68.503 E12.18346
G1 X74.042 Y68.115 E12.20508
G1 X74.474 Y67.449 E12.24469
G1 X74.653 Y67.232 E12.25872
G0 F9000 X74.962 Y67.487
G1 F3000 X75.308 Y67.128 E12.2836
G1 X75.537 Y66.925 E12.29886
G1 X75.824 Y66.699 E12.31709
G1 X76.191 Y66.442 E12.33944
G1 X76.737 Y66.108 E12.37137
G1 X77.071 Y65.936 E12.39012
G1 X77.856 Y65.588 E12.43296
G1 X78.19 Y65.461 E12.45078
G1 X79.161 Y65.156 E12.50156
G1 X79.951 Y64.932 E12.54253
G1 X80.68 Y64.751 E12.58
G1 X83.771 Y64.117 E12.73742
G1 X86.39 Y63.506 E12.8716
G1 X89.092 Y62.795 E13.01099
G1 X91.674 Y62.036 E13.14525
G1 X94.321 Y61.177 E13.28409
G1 X96.875 Y60.267 E13.41936
G1 X99.421 Y59.277 E13.55564
G1 X101.969 Y58.203 E13.6936
G1 X102.738 Y57.869 E13.73542
G1 X102.987 Y57.773 E13.74874
G1 X103.938 Y57.455 E13.79877
G1 X104.766 Y57.224 E13.84165
G1 X105.933 Y56.95 E13.90146
G1 X107.09 Y56.735 E13.96017
G1 X108.179 Y56.585 E14.01501
G1 X109.424 Y56.47 E14.07739
G1 X110.981 Y56.402 E14.15514
G1 X112.275 Y56.389 E14.2197
G1 X113.899 Y56.429 E14.30075
G1 X115.304 Y56.517 E14.37098
G1 X116.267 Y56.612 E14.41926
G1 X117.511 Y56.796 E14.482
G1 X118.308 Y56.95 E14.5225
G1 X118.68 Y57.031 E14.54149
G1 X119.546 Y57.246 E14.58601
G1 X120.454 Y57.516 E14.63327
G1 X120.933 Y57.682 E14.65856
G1 X121.596 Y57.945 E14.69415
G1 X121.991 Y58.123 E14.71576
G1 X122.607 Y58.446 E14.75046
G1 X123.121 Y58.761 E14.78054
G1 X123.438 Y58.99 E14.80005
G1 X123.917 Y59.383 E14.83096
G1 X124.281 Y59.734 E14.85619
G1 X124.586 Y60.137 E14.8814
G1 X124.887 Y60.743 E14.91516
G1 X124.991 Y61.023 E14.93006
G1 X125.129 Y61.509 E14.95527
G1 X125.177 Y61.843 E14.9721
G1 X125.229 Y62.47 E15.00349
G1 X125.239 Y62.826 E15.02126
G1 X125.24 Y66.124 E15.18579
G1 X125.28 Y68.921 E15.32535
G1 X125.395 Y71.638 E15.46102
G1 X125.59 Y74.384 E15.59837
G1 X125.857 Y77.086 E15.73383
G1 X126.206 Y79.813 E15.87099
G1 X126.631 Y82.514 E16.0074
G1 X127.134 Y85.222 E16.14481
G1 X127.706 Y87.879 E16.28041
G1 X128.354 Y90.526 E16.41637
G1 X129.081 Y93.166 E16.55298
G1 X129.891 Y95.813 E16.69108
G1 X130.76 Y98.39 E16.82676
G1 X131.702 Y100.944 E16.96257
G1 X132.736 Y103.519 E17.10101
G1 X133.828 Y106.029 E17.23757
G1 X134.981 Y108.487 E17.37303
G1 X136.169 Y110.864 E17.5056
G1 X136.448 Y111.498 E17.54016
G1 X136.559 Y111.786 E17.55556
G1 X136.692 Y112.19 E17.57678
G1 X136.768 Y112.463 E17.59092
G1 X136.899 Y113.024 E17.61966
G1 X136.957 Y113.344 E17.63588
G1 X137.037 Y113.967 E17.66722
G1 X137.063 Y114.381 E17.68791
G1 X137.062 Y114.896 E17.71361
G1 X137.044 Y115.23 E17.73029
G1 X136.986 Y115.772 E17.75749
G1 X136.922 Y116.152 E17.77672
G1 X136.82 Y116.594 E17.79935
G1 X136.719 Y116.94 E17.81733
G1 X136.583 Y117.325 E17.8377
G1 X136.448 Y117.649 E17.85521
G1 X136.285 Y117.987 E17.87393
G1 X136.111 Y118.301 E17.89184
G1 X135.892 Y118.649 E17.91236
G1 X135.672 Y118.957 E17.93124
G1 X135.385 Y119.312 E17.95401
G1 X135.099 Y119.622 E17.97506
G1 X134.752 Y119.951 E17.99891
G1 X134.381 Y120.253 E18.02278
G1 X134.047 Y120.486 E18.0431
G1 X133.67 Y120.713 E18.06505
G1 X132.282 Y121.421 E18.14279
G1 X129.843 Y122.699 E18.28016
G1 X127.453 Y124.038 E18.41684
G1 X125.109 Y125.441 E18.55313
G1 X122.808 Y126.906 E18.68922
G1 X120.299 Y128.608 E18.84048
G1 X119.673 Y129.005 E18.87746
G1 X118.971 Y129.405 E18.91777
G1 X118.44 Y129.682 E18.94765
G1 X116.902 Y130.396 E19.03224
G1 X115.853 Y130.843 E19.08913
G1 X114.44 Y131.399 E19.16489
G1 X113.509 Y131.731 E19.2142
G1 X112.404 Y132.066 E19.27181
G1 X110.97 Y132.426 E19.34557
G1 X109.215 Y132.797 E19.43506
G1 X108.031 Y133.014 E19.49512
G1 X106.54 Y133.246 E19.5704
G1 X105.253 Y133.402 E19.63508
G1 X103.488 Y133.547 E19.72343
G1 X102.795 Y133.577 E19.75804
G1 X99.663 Y133.616 E19.9143
G1 X98.178 Y133.612 E19.98839
G1 X97.182 Y133.597 E20.03809
G1 X95.334 Y133.517 E20.13037
G1 X94.274 Y133.433 E20.18342
G1 X92.579 Y133.219 E20.26865
G1 X90.832 Y132.934 E20.35697
G1 X89.508 Y132.682 E20.42421
G1 X88.042 Y132.354 E20.49915
G1 X86.631 Y131.982 E20.57195
G1 X85.586 Y131.656 E20.62657
G1 X84.486 Y131.26 E20.68489
G1 X83.011 Y130.658 E20.76437
G1 X81.638 Y130.049 E20.83931
G1 X80.725 Y129.61 E20.88985
G1 X80.072 Y129.261 E20.92679
G1 X79.651 Y129.016 E20.95109
G1 X78.94 Y128.559 E20.99326
G1 X77.989 Y127.86 E21.05214
G1 X77.159 Y127.136 E21.10709
G1 X76.479 Y126.456 E21.15507
G1 X76.034 Y125.955 E21.1885
G1 X75.716 Y125.564 E21.21365
G1 X75.269 Y124.94 E21.25194
G1 X74.985 Y124.486 E21.27866
G1 X74.678 Y123.913 E21.31109
G1 X74.558 Y123.658 E21.32515
G1 X74.324 Y123.097 E21.35547
G1 X74.193 Y122.718 E21.37548
G1 X74.03 Y122.113 E21.40674
G1 X73.323 Y118.906 E21.57058
G1 X72.657 Y116.263 E21.70656
G1 X71.916 Y113.64 E21.84255
G1 X71.087 Y110.994 E21.98088
G1 X70.192 Y108.398 E22.11788
G1 X69.24 Y105.871 E22.2526
G1 X68.202 Y103.336 E22.38926
G1 X67.084 Y100.813 E22.52694
G1 X65.91 Y98.349 E22.66311
G1 X64.625 Y95.841 E22.8037
G1 X63.901 Y94.471 E22.88101
G1 X63.779 Y94.214 E22.8952
G1 X63.531 Y93.623 E22.92718
G1 X63.425 Y93.331 E22.94268
G1 X63.274 Y92.843 E22.96816
G1 X63.2 Y92.557 E22.9829
G1 X63.05 Y91.845 E23.0192
G1 X62.992 Y91.451 E23.03907
G1 X62.948 Y90.924 E23.06545
G1 X62.938 Y90.569 E23.08317
G1 X62.953 Y90.03 E23.11007
G1 X62.982 Y89.681 E23.12755
G1 X63.056 Y89.146 E23.15449
G1 X63.134 Y88.759 E23.17419
G1 X63.285 Y88.193 E23.20341
G1 X63.408 Y87.824 E23.22282
G1 X63.55 Y87.471 E23.2418
G1 X63.725 Y87.106 E23.262
G1 X64.014 Y86.588 E23.29159
G1 X64.194 Y86.301 E23.30849
G1 X65.165 Y84.927 E23.39243
G1 X66.69 Y82.647 E23.52928
G1 X68.142 Y80.342 E23.66519
G1 X69.549 Y77.957 E23.80334
G1 X70.855 Y75.596 E23.93795
G1 X72.126 Y73.135 E24.07614
G1 X73.307 Y70.678 E24.21214
G1 X74.208 Y68.679 E24.32154
G1 X74.378 Y68.332 E24.34081
G1 X74.783 Y67.704 E24.3781
G1 X74.962 Y67.487 E24.39213
G1 F1500 E17.89213
;MESH:ZTL-openerl.stl
G0 F9000 X88.67 Y91.913
G0 X99.11 Y115.187
;TYPE:WALL-INNER
G1 F1500 E24.39213
G1 F3000 X98.796 Y115.069 E24.40886
G1 X95.293 Y111.834 E24.64675
G1 X91.789 Y115.069 E24.88468
G1 X91.597 Y115.165 E24.89539
G1 X91.447 Y115.188 E24.90296
G1 X91.233 Y115.156 E24.91376
G1 X91.021 Y115.029 E24.92608
G1 X87.551 Y111.819 E25.16192
G1 X84.556 Y114.407 E25.3594
G1 X84.392 Y114.474 E25.36823
G1 X84.062 Y114.479 E25.3847
G1 X83.709 Y114.31 E25.40423
G1 X83.516 Y114.104 E25.41831
G1 X83.438 Y113.914 E25.42856
G1 X83.438 Y101.242 E26.06076
G1 X83.48 Y100.307 E26.10746
G1 X83.597 Y99.42 E26.15209
G1 X83.797 Y98.523 E26.19794
G1 X84.069 Y97.66 E26.24309
G1 X84.441 Y96.758 E26.29177
G1 X84.874 Y95.933 E26.33825
G1 X85.335 Y95.208 E26.38111
G1 X85.904 Y94.465 E26.4278
G1 X86.561 Y93.747 E26.47636
G1 X87.242 Y93.127 E26.5223
G1 X87.943 Y92.59 E26.56636
G1 X88.754 Y92.073 E26.61434
G1 X89.582 Y91.643 E26.66089
G1 X90.386 Y91.311 E26.70429
G1 X91.281 Y91.025 E26.75116
G1 X92.197 Y90.822 E26.79797
G1 X93.108 Y90.702 E26.84381
G1 X94.044 Y90.661 E26.89056
G1 X114.107 Y90.665 E27.8915
G1 X114.404 Y90.781 E27.90741
G1 X114.545 Y90.931 E27.91768
G1 X114.644 Y91.172 E27.93068
G1 X114.644 Y113.865 E29.06284
G1 X114.551 Y114.113 E29.07605
G1 X114.318 Y114.327 E29.09184
G1 X114.085 Y114.43 E29.10455
G1 X113.865 Y114.479 E29.11579
G1 X113.695 Y114.461 E29.12432
G1 X113.477 Y114.354 E29.13643
G1 X110.747 Y111.833 E29.32182
G1 X107.259 Y115.058 E29.55883
G1 X107.069 Y115.159 E29.56956
G1 X106.724 Y115.167 E29.58678
G1 X106.516 Y115.064 E29.59836
G1 X103.02 Y111.834 E29.83582
G1 X99.523 Y115.064 E30.07332
G1 X99.367 Y115.151 E30.08223
G1 X99.11 Y115.187 E30.09518
G1 F1500 E23.59518
G0 F9000 X98.689 Y115.112
G0 X99.24 Y115.365
G0 X99.196 Y129.634
G0 X100.096 Y129.817
G1 F1500 E30.09518
G1 F3000 X102.964 Y129.776 E30.23828
G1 X104.122 Y129.705 E30.29616
G1 X105.332 Y129.582 E30.35684
G1 X106.684 Y129.393 E30.42495
G1 X107.998 Y129.163 E30.4915
G1 X109.557 Y128.858 E30.57075
G1 X110.694 Y128.595 E30.62897
G1 X111.673 Y128.329 E30.67959
G1 X112.672 Y128.006 E30.73197
G1 X113.561 Y127.681 E30.77919
G1 X115.087 Y127.045 E30.86167
G1 X116.215 Y126.544 E30.92325
G1 X116.96 Y126.181 E30.96459
G1 X117.644 Y125.805 E31.00353
G1 X118.205 Y125.45 E31.03666
G1 X118.647 Y125.132 E31.06382
G1 X119.223 Y124.665 E31.10082
G1 X119.788 Y124.144 E31.13916
G1 X120.285 Y123.633 E31.17472
G1 X120.657 Y123.205 E31.20301
G1 X120.91 Y122.862 E31.22428
G1 X121.114 Y122.52 E31.24415
G1 X121.237 Y122.247 E31.25908
G1 X121.336 Y121.918 E31.27623
G1 X121.395 Y121.586 E31.29305
G1 X121.427 Y121.19 E31.31287
G1 X121.44 Y120.501 E31.34725
G1 X121.44 Y110.069 E31.8677
G1 X121.491 Y109.911 E31.87599
G1 X121.622 Y109.723 E31.88742
G1 X121.785 Y109.611 E31.89729
G1 X122.151 Y109.492 E31.91649
G1 X122.381 Y109.493 E31.92796
G1 X122.594 Y109.576 E31.93937
G1 X122.772 Y109.748 E31.95172
G1 X126.879 Y115.838 E32.31818
G1 X127.228 Y116.239 E32.3447
G1 X127.609 Y116.605 E32.37106
G1 X127.997 Y116.913 E32.39578
G1 X128.443 Y117.198 E32.42218
G1 X128.862 Y117.409 E32.44559
G1 X129.265 Y117.562 E32.46709
G1 X129.736 Y117.684 E32.49137
G1 X130.126 Y117.741 E32.51103
G1 X130.544 Y117.752 E32.53189
G1 X130.915 Y117.714 E32.5505
G1 X131.278 Y117.632 E32.56906
G1 X131.619 Y117.507 E32.58718
G1 X131.919 Y117.35 E32.60408
G1 X132.195 Y117.156 E32.62091
G1 X132.43 Y116.942 E32.63676
G1 X132.664 Y116.667 E32.65478
G1 X132.849 Y116.38 E32.67181
G1 X133.013 Y116.05 E32.6902
G1 X133.133 Y115.711 E32.70814
G1 X133.219 Y115.341 E32.72709
G1 X133.271 Y114.925 E32.74801
G1 X133.271 Y114.39 E32.7747
G1 X133.22 Y113.933 E32.79764
G1 X133.128 Y113.499 E32.81977
G1 X132.98 Y113.024 E32.8446
G1 X132.794 Y112.577 E32.86875
G1 X132.51 Y112.046 E32.89879
G1 X121.497 Y95.733 E33.88076
G1 X121.44 Y95.54 E33.8908
G1 X121.44 Y62.591 E35.53463
G1 X121.415 Y62.235 E35.55243
G1 X121.075 Y61.952 E35.5745
G1 X120.707 Y61.726 E35.59605
G1 X120.236 Y61.487 E35.6224
G1 X119.829 Y61.315 E35.64444
G1 X119.217 Y61.1 E35.6768
G1 X118.409 Y60.868 E35.71874
G1 X117.414 Y60.639 E35.76968
G1 X116.337 Y60.446 E35.82427
G1 X115.443 Y60.335 E35.86921
G1 X114.329 Y60.243 E35.92498
G1 X113.133 Y60.193 E35.9847
G1 X111.57 Y60.184 E36.06268
G1 X110.39 Y60.215 E36.12157
G1 X109.312 Y60.284 E36.17546
G1 X108.285 Y60.392 E36.22698
G1 X107.241 Y60.559 E36.27973
G1 X106.288 Y60.756 E36.32828
G1 X105.243 Y61.024 E36.3821
G1 X104.631 Y61.205 E36.41395
G1 X104.136 Y61.393 E36.44036
G1 X103.696 Y61.601 E36.46464
G1 X103.366 Y61.795 E36.48374
G1 X102.931 Y62.111 E36.51056
