;FLAVOR:Marlin
;TIME:4538
;Filament used: 8.17687m
;Layer height: 0.3
;MINX:67.202
;MINY:62.227
;MINZ:0.3
;MAXX:132.798
;MAXY:127.773
;MAXZ:51.1
;Generated with Cura_SteamEngine 5.4.0
M140 S70
M105
M190 S70
M104 S250
M105
M109 S250
M82 ;absolute extrusion mode
# Home all axes
G28
# Move Z Axis up little to prevent scratching of Heat Bed
G1 Z2.0 F3000
# Move to start position
G1 X0.1 Y20 Z0.3 F5000.0
# Draw the first line
G1 X0.1 Y185.0 Z0.3 F1500.0 E15
# Move to side a little
G1 X0.4 Y185.0 Z0.3 F5000.0
# Draw the second line
G1 X0.4 Y20 Z0.3 F1500.0 E30
# Reset Extruder
G92 E0
# Move Z Axis up little to prevent scratching of Heat Bed
G1 Z2.0 F3000
# Move over to prevent blob squish
G1 X5 Y20 Z0.3 F5000.0
G92 E0
G92 E0
G1 F1500 E-6.5
;LAYER_COUNT:167
;LAYER:0
M107
M204 S1000
G1 F300 Z1.3
;MESH:square_tower.stl
G0 F9000 X101.36 Y120.98 Z1.3
;TYPE:WALL-INNER
G1 F300 Z0.3
G1 F1500 E0
G1 F3000 X101.074 Y121.1 E0.01547
G1 X99 Y121.1 E0.11895
G1 X98.805 Y121.068 E0.1288
G1 X98.64 Y120.98 E0.13813
G1 X98.45 Y120.6 E0.15933
G1 X75 Y120.6 E1.32926
G1 X74.749 Y120.546 E1.34206
G1 X74.599 Y120.448 E1.351
G1 X74.459 Y120.261 E1.36266
G1 X74.4 Y120.078 E1.37225
G1 X74.4 Y92.55 E2.74563
G1 X74.02 Y92.36 E2.76682
G1 X73.9 Y92.074 E2.7823
G1 X73.9 Y90 E2.88577
G1 X73.932 Y89.805 E2.89563
G1 X74.02 Y89.64 E2.90496
G1 X74.4 Y89.45 E2.92615
G1 X74.4 Y70 E3.89652
G1 X74.431 Y69.807 E3.90627
G1 X74.599 Y69.552 E3.92151
G1 X74.749 Y69.454 E3.93044
G1 X75 Y69.4 E3.94325
G1 X98.45 Y69.4 E5.11318
G1 X98.64 Y69.02 E5.13437
G1 X98.926 Y68.9 E5.14985
G1 X101 Y68.9 E5.25332
G1 X101.195 Y68.932 E5.26318
G1 X101.36 Y69.02 E5.27251
G1 X101.55 Y69.4 E5.29371
G1 X125 Y69.4 E6.46363
G1 X125.251 Y69.454 E6.47644
G1 X125.401 Y69.552 E6.48538
G1 X125.541 Y69.739 E6.49703
G1 X125.6 Y69.922 E6.50663
G1 X125.6 Y93.45 E7.68044
G1 X125.98 Y93.64 E7.70164
G1 X126.068 Y93.805 E7.71097
G1 X126.1 Y94 E7.72083
G1 X126.1 Y96.074 E7.8243
G1 X125.98 Y96.36 E7.83977
G1 X125.6 Y96.55 E7.86097
G1 X125.6 Y120 E9.03089
G1 X125.569 Y120.193 E9.04065
G1 X125.401 Y120.448 E9.05588
G1 X125.251 Y120.546 E9.06482
G1 X125 Y120.6 E9.07763
G1 X101.55 Y120.6 E10.24755
G1 X101.36 Y120.98 E10.26875
G1 F1500 E3.76875
G1 F300 Z1.3
G0 F9000 X126.647 Y127.183 Z1.3
G1 F300 Z0.3
G1 F1500 E10.26875
G1 F3000 X127.536 Y127.373 E10.3141
G1 X128.464 Y127.373 E10.3604
G1 X129.353 Y127.183 E10.40576
G1 X130.196 Y126.808 E10.45179
G1 X130.944 Y126.264 E10.49793
G1 X131.554 Y125.587 E10.54339
G1 X132.017 Y124.785 E10.5896
G1 X132.301 Y123.913 E10.63535
G1 X132.396 Y123 E10.68114
G1 X132.301 Y122.087 E10.72694
G1 X132.017 Y121.215 E10.77269
G1 X131.555 Y120.413 E10.81887
G1 X130.944 Y119.736 E10.86437
G1 X130.196 Y119.192 E10.91051
G1 X129.668 Y118.957 E10.93934
G1 X129.505 Y118.787 E10.95109
G1 X129.428 Y118.629 E10.95986
G1 X129.4 Y118.447 E10.96905
G1 X129.4 Y71.553 E13.3086
G1 X129.428 Y71.37 E13.31784
G1 X129.505 Y71.213 E13.32656
G1 X129.702 Y71.031 E13.33994
G1 X130.196 Y70.808 E13.36698
G1 X130.944 Y70.264 E13.41313
G1 X131.554 Y69.587 E13.45859
G1 X132.017 Y68.785 E13.50479
G1 X132.301 Y67.913 E13.55054
G1 X132.396 Y67 E13.59634
G1 X132.301 Y66.087 E13.64214
G1 X132.017 Y65.215 E13.68789
G1 X131.555 Y64.413 E13.73406
G1 X130.944 Y63.736 E13.77956
G1 X130.196 Y63.192 E13.82571
G1 X129.353 Y62.817 E13.87174
G1 X128.464 Y62.628 E13.91708
G1 X127.536 Y62.627 E13.96338
G1 X126.647 Y62.817 E14.00873
G1 X125.804 Y63.192 E14.05476
G1 X125.056 Y63.736 E14.10091
G1 X124.445 Y64.413 E14.1464
G1 X123.892 Y65.37 E14.20155
G1 X123.759 Y65.491 E14.21052
G1 X123.485 Y65.6 E14.22523
G1 X76.588 Y65.6 E16.56493
G1 X76.402 Y65.571 E16.57432
G1 X76.108 Y65.37 E16.59209
G1 X75.555 Y64.413 E16.64723
G1 X74.944 Y63.736 E16.69273
G1 X74.196 Y63.192 E16.73887
G1 X73.353 Y62.817 E16.7849
G1 X72.464 Y62.627 E16.83026
G1 X71.536 Y62.627 E16.87656
G1 X70.647 Y62.817 E16.92191
G1 X69.804 Y63.192 E16.96794
G1 X69.056 Y63.736 E17.01408
G1 X68.446 Y64.413 E17.05955
G1 X67.983 Y65.215 E17.10575
G1 X67.699 Y66.087 E17.1515
G1 X67.604 Y67 E17.1973
G1 X67.699 Y67.913 E17.24309
G1 X67.983 Y68.785 E17.28885
G1 X68.445 Y69.587 E17.33502
G1 X69.056 Y70.264 E17.38052
G1 X69.804 Y70.808 E17.42666
G1 X70.298 Y71.031 E17.45371
G1 X70.495 Y71.213 E17.46709
G1 X70.572 Y71.37 E17.47581
G1 X70.6 Y71.553 E17.48505
G1 X70.6 Y118.52 E19.82824
G1 X70.495 Y118.787 E19.84255
G1 X70.332 Y118.957 E19.8543
G1 X69.804 Y119.192 E19.88314
G1 X69.056 Y119.736 E19.92928
G1 X68.445 Y120.413 E19.97478
G1 X67.983 Y121.215 E20.02095
G1 X67.699 Y122.087 E20.06671
G1 X67.604 Y123 E20.1125
G1 X67.699 Y123.913 E20.1583
G1 X67.983 Y124.785 E20.20405
G1 X68.446 Y125.587 E20.25025
G1 X69.056 Y126.264 E20.29572
G1 X69.804 Y126.808 E20.34186
G1 X70.647 Y127.183 E20.38789
G1 X71.536 Y127.373 E20.43324
G1 X72.464 Y127.373 E20.47954
G1 X73.353 Y127.183 E20.5249
G1 X74.196 Y126.808 E20.57093
G1 X74.944 Y126.264 E20.61707
G1 X75.554 Y125.586 E20.66257
G1 X76.107 Y124.632 E20.71759
G1 X76.241 Y124.509 E20.72666
G1 X76.515 Y124.4 E20.74137
G1 X123.412 Y124.4 E23.08107
G1 X123.598 Y124.429 E23.09046
G1 X123.892 Y124.63 E23.10823
G1 X124.445 Y125.587 E23.16338
G1 X125.056 Y126.264 E23.20887
G1 X125.804 Y126.808 E23.25502
G1 X126.647 Y127.183 E23.30105
G0 F9000 X126.523 Y127.565
;TYPE:WALL-OUTER
G1 F3000 X127.494 Y127.773 E23.35059
G1 X128.506 Y127.773 E23.40108
G1 X129.477 Y127.565 E23.45062
G1 X130.397 Y127.156 E23.50085
G1 X131.213 Y126.563 E23.55118
G1 X131.88 Y125.823 E23.60088
G1 X132.385 Y124.949 E23.65124
G1 X132.695 Y123.997 E23.70119
G1 X132.798 Y123 E23.75119
G1 X132.695 Y122.003 E23.8012
G1 X132.385 Y121.051 E23.85115
G1 X131.88 Y120.177 E23.90151
G1 X131.213 Y119.437 E23.95121
G1 X130.397 Y118.844 E24.00154
G1 X129.9 Y118.621 E24.02871
G1 X129.802 Y118.482 E24.0372
G1 X129.8 Y71.507 E26.38079
G1 X129.868 Y71.393 E26.38741
G1 X130.397 Y71.156 E26.41633
G1 X131.213 Y70.563 E26.46666
G1 X131.88 Y69.823 E26.51636
G1 X132.385 Y68.949 E26.56672
G1 X132.695 Y67.997 E26.61667
G1 X132.798 Y67 E26.66667
G1 X132.695 Y66.003 E26.71668
G1 X132.385 Y65.051 E26.76663
G1 X131.88 Y64.177 E26.81699
G1 X131.213 Y63.437 E26.86669
G1 X130.397 Y62.844 E26.91702
G1 X129.477 Y62.435 E26.96725
G1 X128.506 Y62.228 E27.01678
G1 X127.494 Y62.227 E27.06727
G1 X126.523 Y62.435 E27.11681
G1 X125.603 Y62.844 E27.16704
G1 X124.787 Y63.437 E27.21737
G1 X124.12 Y64.177 E27.26707
G1 X123.564 Y65.131 E27.32216
G1 X123.447 Y65.198 E27.32888
G1 X76.54 Y65.2 E29.66908
G1 X76.436 Y65.131 E29.67531
G1 X75.88 Y64.177 E29.7304
G1 X75.213 Y63.437 E29.7801
G1 X74.397 Y62.844 E29.83043
G1 X73.477 Y62.435 E29.88066
G1 X72.506 Y62.227 E29.9302
G1 X71.494 Y62.227 E29.98069
G1 X70.523 Y62.435 E30.03023
G1 X69.603 Y62.844 E30.08046
G1 X68.787 Y63.437 E30.13078
G1 X68.12 Y64.177 E30.18049
G1 X67.615 Y65.051 E30.23085
G1 X67.305 Y66.003 E30.2808
G1 X67.202 Y67 E30.3308
G1 X67.305 Y67.997 E30.38081
G1 X67.615 Y68.949 E30.43076
G1 X68.12 Y69.823 E30.48112
G1 X68.787 Y70.563 E30.53082
G1 X69.603 Y71.156 E30.58114
G1 X70.1 Y71.379 E30.60832
G1 X70.2 Y71.51 E30.61654
G1 X70.198 Y118.482 E32.95999
G1 X70.1 Y118.621 E32.96847
G1 X69.603 Y118.844 E32.99565
G1 X68.787 Y119.437 E33.04597
G1 X68.12 Y120.177 E33.09568
G1 X67.615 Y121.051 E33.14604
G1 X67.305 Y122.003 E33.19599
G1 X67.202 Y123 E33.24599
G1 X67.305 Y123.997 E33.296
G1 X67.615 Y124.949 E33.34595
G1 X68.12 Y125.823 E33.39631
G1 X68.787 Y126.563 E33.44601
G1 X69.603 Y127.156 E33.49633
G1 X70.523 Y127.565 E33.54656
G1 X71.494 Y127.773 E33.59611
G1 X72.506 Y127.773 E33.64659
G1 X73.477 Y127.565 E33.69614
G1 X74.397 Y127.156 E33.74637
G1 X75.213 Y126.563 E33.79669
G1 X75.88 Y125.823 E33.84639
G1 X76.436 Y124.869 E33.90148
G1 X76.553 Y124.802 E33.90821
G1 X123.46 Y124.8 E36.24841
G1 X123.564 Y124.869 E36.25464
G1 X124.12 Y125.823 E36.30973
G1 X124.787 Y126.563 E36.35943
G1 X125.603 Y127.156 E36.40975
G1 X126.523 Y127.565 E36.45998
G0 F9000 X126.718 Y127.606
G1 F1500 E29.95998
G1 F300 Z1.3
G0 F9000 X101.12 Y120.66 Z1.3
G1 F300 Z0.3
G1 F1500 E36.45998
G1 F3000 X101.035 Y120.698 E36.46463
G1 X98.953 Y120.7 E36.5685
G1 X98.88 Y120.66 E36.57265
G1 X98.8 Y120.5 E36.58158
G1 X98.8 Y120.2 E36.59654
G1 X74.951 Y120.195 E37.78638
G1 X74.866 Y120.15 E37.79117
G1 X74.8 Y120.05 E37.79715
G1 X74.8 Y92.2 E39.18659
G1 X74.5 Y92.2 E39.20156
G1 X74.34 Y92.12 E39.21049
G1 X74.302 Y92.035 E39.21513
G1 X74.3 Y89.953 E39.319
G1 X74.34 Y89.88 E39.32315
G1 X74.5 Y89.8 E39.33208
G1 X74.8 Y89.8 E39.34705
G1 X74.803 Y69.964 E40.33667
G1 X74.887 Y69.834 E40.34439
G1 X74.951 Y69.805 E40.3479
G1 X98.8 Y69.8 E41.53773
G1 X98.8 Y69.5 E41.55269
G1 X98.88 Y69.34 E41.56162
G1 X98.965 Y69.302 E41.56626
G1 X101.047 Y69.3 E41.67014
G1 X101.12 Y69.34 E41.67429
G1 X101.2 Y69.5 E41.68321
G1 X101.2 Y69.8 E41.69818
G1 X125.049 Y69.805 E42.88801
G1 X125.134 Y69.85 E42.89281
G1 X125.2 Y69.95 E42.89879
G1 X125.2 Y93.8 E44.08867
G1 X125.5 Y93.8 E44.10364
G1 X125.66 Y93.88 E44.11256
G1 X125.7 Y93.953 E44.11671
G1 X125.698 Y96.035 E44.22059
G1 X125.66 Y96.12 E44.22523
G1 X125.5 Y96.2 E44.23415
G1 X125.2 Y96.2 E44.24912
G1 X125.197 Y120.036 E45.4383
G1 X125.139 Y120.145 E45.44446
G1 X125.049 Y120.195 E45.4496
G1 X101.2 Y120.2 E46.63943
G1 X101.2 Y120.5 E46.6544
G1 X101.12 Y120.66 E46.66332
G0 F9000 X101.035 Y120.698
G0 X100.928 Y120.698
G1 F1500 E40.16332
G1 F300 Z1.3
G0 F9000 X126.763 Y126.838 Z1.3
;TYPE:SKIN
G1 F300 Z0.3
G1 F1500 E46.66332
G1 F3000 X125.98 Y126.491 E46.70605
G1 X125.304 Y126 E46.74774
G1 X124.739 Y125.373 E46.78984
G1 X124.177 Y124.406 E46.84564
G1 X123.989 Y124.233 E46.85839
G1 X123.739 Y124.099 E46.87254
G1 X123.438 Y124.042 E46.88782
G1 X76.562 Y124.042 E49.22648
G1 X76.261 Y124.099 E49.24176
G1 X76.02 Y124.226 E49.25535
G1 X75.823 Y124.406 E49.26867
G1 X75.261 Y125.373 E49.32447
G1 X74.696 Y126 E49.36657
G1 X74.02 Y126.491 E49.40826
G1 X73.237 Y126.838 E49.45098
G1 X72.428 Y127.013 E49.49228
G1 X71.57 Y127.013 E49.53509
G1 X70.765 Y126.84 E49.57616
G1 X69.98 Y126.491 E49.61902
G1 X69.304 Y126 E49.66071
G1 X68.737 Y125.371 E49.70296
G1 X68.313 Y124.637 E49.74525
G1 X68.052 Y123.837 E49.78723
G1 X67.967 Y123.001 E49.82915
G1 X68.053 Y122.164 E49.87113
G1 X68.313 Y121.363 E49.91314
G1 X68.737 Y120.629 E49.95543
G1 X69.304 Y120 E49.99768
G1 X69.986 Y119.504 E50.03975
G1 X70.483 Y119.278 E50.06699
G1 X70.796 Y118.996 E50.08801
G1 X70.958 Y118.569 E50.1108
G1 X70.958 Y71.528 E52.45768
G1 X70.905 Y71.238 E52.47239
G1 X70.771 Y70.982 E52.48681
G1 X70.487 Y70.721 E52.50605
G1 X69.985 Y70.496 E52.53349
G1 X69.304 Y70 E52.57553
G1 X68.737 Y69.371 E52.61777
G1 X68.313 Y68.637 E52.66006
G1 X68.053 Y67.836 E52.70208
G1 X67.967 Y66.999 E52.74406
G1 X68.052 Y66.163 E52.78598
G1 X68.313 Y65.363 E52.82796
G1 X68.737 Y64.629 E52.87025
G1 X69.304 Y64 E52.9125
G1 X69.98 Y63.509 E52.95419
G1 X70.765 Y63.16 E52.99705
G1 X71.57 Y62.987 E53.03812
G1 X72.428 Y62.987 E53.08093
G1 X73.237 Y63.162 E53.12222
G1 X74.02 Y63.509 E53.16495
G1 X74.696 Y64 E53.20664
G1 X75.261 Y64.627 E53.24874
G1 X75.822 Y65.593 E53.30448
G1 X76.011 Y65.767 E53.31729
G1 X76.261 Y65.901 E53.33144
G1 X76.562 Y65.958 E53.34673
G1 X123.438 Y65.958 E55.68538
G1 X123.739 Y65.901 E55.70066
G1 X123.989 Y65.767 E55.71482
G1 X124.186 Y65.582 E55.7283
G1 X124.739 Y64.627 E55.78335
G1 X125.304 Y64 E55.82546
G1 X125.98 Y63.509 E55.86715
G1 X126.763 Y63.162 E55.90987
G1 X127.572 Y62.988 E55.95116
G1 X128.43 Y62.989 E55.99396
G1 X129.235 Y63.161 E56.03503
G1 X130.02 Y63.508 E56.07785
G1 X130.696 Y64 E56.11956
G1 X131.263 Y64.629 E56.16181
G1 X131.687 Y65.363 E56.2041
G1 X131.948 Y66.163 E56.24609
G1 X132.033 Y66.999 E56.28801
G1 X131.947 Y67.836 E56.32999
G1 X131.687 Y68.637 E56.372
G1 X131.263 Y69.371 E56.41429
G1 X130.696 Y70 E56.45654
G1 X130.015 Y70.496 E56.49857
G1 X129.512 Y70.721 E56.52606
G1 X129.208 Y71.007 E56.54689
G1 X129.095 Y71.238 E56.55972
G1 X129.042 Y71.528 E56.57442
G1 X129.042 Y118.472 E58.91647
G1 X129.078 Y118.71 E58.92848
G1 X129.207 Y118.998 E58.94422
G1 X129.513 Y119.279 E58.96495
G1 X130.015 Y119.504 E58.99239
G1 X130.696 Y120 E59.03443
G1 X131.263 Y120.629 E59.07667
G1 X131.687 Y121.363 E59.11896
G1 X131.948 Y122.164 E59.16099
G1 X132.033 Y122.999 E59.20287
G1 X131.947 Y123.836 E59.24485
G1 X131.687 Y124.637 E59.28686
G1 X131.261 Y125.374 E59.32933
G1 X130.699 Y125.997 E59.37119
G1 X130.019 Y126.491 E59.41312
G1 X129.236 Y126.839 E59.45587
G1 X128.429 Y127.013 E59.49706
G1 X127.572 Y127.013 E59.53981
G1 X126.763 Y126.838 E59.58111
G1 F1500 E53.08111
G1 F300 Z1.3
G0 F9000 X101.595 Y121.267 Z1.3
G1 F300 Z0.3
G1 F1500 E59.58111
G1 F3000 X101.749 Y120.96 E59.59824
G1 X125.189 Y120.958 E60.76767
G1 X125.598 Y120.753 E60.79049
G1 X125.824 Y120.493 E60.80768
G1 X125.913 Y120.298 E60.81838
G1 X125.958 Y120.03 E60.83193
G1 X125.961 Y96.749 E61.99343
G1 X126.257 Y96.6 E62.00996
G1 X126.458 Y96.122 E62.03583
G1 X126.458 Y93.97 E62.14319
G1 X126.411 Y93.686 E62.15756
G1 X126.253 Y93.397 E62.17399
G1 X125.961 Y93.252 E62.19025
G1 X125.958 Y69.969 E63.35185
G1 X125.902 Y69.672 E63.36692
G1 X125.647 Y69.288 E63.38992
G1 X125.4 Y69.123 E63.40474
G1 X125.024 Y69.041 E63.42394
G1 X101.748 Y69.04 E64.58519
G1 X101.602 Y68.746 E64.60156
G1 X101.314 Y68.589 E64.61793
G1 X101.03 Y68.542 E64.63229
G1 X98.879 Y68.542 E64.7396
G1 X98.403 Y68.734 E64.76521
G1 X98.252 Y69.04 E64.78223
G1 X74.809 Y69.042 E65.95181
G1 X74.402 Y69.247 E65.97454
G1 X74.176 Y69.507 E65.99173
G1 X74.087 Y69.702 E66.00243
G1 X74.042 Y69.97 E66.01598
G1 X74.04 Y89.252 E66.97797
G1 X73.746 Y89.398 E66.99434
G1 X73.589 Y89.686 E67.01071
G1 X73.542 Y89.97 E67.02507
G1 X73.542 Y92.121 E67.13238
G1 X73.733 Y92.595 E67.15788
G1 X74.04 Y92.749 E67.17501
G1 X74.042 Y120.03 E68.53607
G1 X74.087 Y120.299 E68.54968
G1 X74.188 Y120.512 E68.56144
G1 X74.408 Y120.762 E68.57805
G1 X74.812 Y120.958 E68.60045
G1 X98.251 Y120.96 E69.76983
G1 X98.398 Y121.254 E69.78623
G1 X98.686 Y121.411 E69.80259
G1 X98.97 Y121.458 E69.81695
G1 X101.121 Y121.458 E69.92427
G1 X101.595 Y121.267 E69.94976
G1 F1500 E63.44976
G1 F300 Z1.3
G0 F9000 X70.499 Y126.502 Z1.3
G1 F300 Z0.3
G1 F1500 E69.94976
G1 F3000 X68.471 Y124.474 E70.09285
G0 F9000 X68.236 Y123.673
G1 F3000 X71.315 Y126.752 E70.31009
G0 F9000 X71.94 Y126.811
G1 F3000 X68.172 Y123.043 E70.57594
G0 F9000 X68.216 Y122.522
G1 F3000 X72.488 Y126.794 E70.87736
G0 F9000 X72.953 Y126.693
G1 F3000 X68.302 Y122.042 E71.20551
G0 F9000 X68.44 Y121.615
G1 F3000 X73.38 Y126.554 E71.55402
G0 F9000 X73.772 Y126.381
G1 F3000 X68.62 Y121.229 E71.91752
G0 F9000 X68.827 Y120.87
G1 F3000 X74.123 Y126.166 E72.29118
G0 F9000 X74.451 Y125.928
G1 F3000 X69.074 Y120.551 E72.67056
G0 F9000 X69.342 Y120.254
G1 F3000 X74.739 Y125.651 E73.05134
G0 F9000 X75.008 Y125.354
G1 F3000 X69.649 Y119.995 E73.42945
G0 F9000 X69.977 Y119.757
G1 F3000 X75.236 Y125.017 E73.80054
G0 F9000 X75.445 Y124.66
G1 F3000 X70.345 Y119.56 E74.16037
G0 F9000 X70.701 Y119.35
G1 F3000 X75.654 Y124.303 E74.50983
G0 F9000 X75.953 Y124.037
G1 F3000 X70.982 Y119.065 E74.8606
G0 F9000 X71.141 Y118.658
G1 F3000 X76.352 Y123.87 E75.2283
G0 F9000 X76.891 Y123.843
G1 F3000 X71.155 Y118.107 E75.633
G0 F9000 X71.155 Y117.541
G1 F3000 X73.879 Y120.265 E75.82519
G0 F9000 X73.844 Y119.665
G1 F3000 X71.155 Y116.975 E76.01495
G0 F9000 X71.155 Y116.41
G1 F3000 X73.844 Y119.099 E76.20468
G0 F9000 X73.844 Y118.533
G1 F3000 X71.155 Y115.844 E76.3944
G0 F9000 X71.155 Y115.278
G1 F3000 X73.844 Y117.968 E76.58416
G0 F9000 X73.844 Y117.402
G1 F3000 X71.155 Y114.713 E76.77388
G0 F9000 X71.155 Y114.147
G1 F3000 X73.844 Y116.836 E76.96361
G0 F9000 X73.844 Y116.27
G1 F3000 X71.155 Y113.581 E77.15333
G0 F9000 X71.155 Y113.016
G1 F3000 X73.844 Y115.705 E77.34305
G0 F9000 X73.843 Y115.138
G1 F3000 X71.155 Y112.45 E77.53271
G0 F9000 X71.155 Y111.884
G1 F3000 X73.843 Y114.573 E77.72239
G0 F9000 X73.843 Y114.007
G1 F3000 X71.155 Y111.319 E77.91205
G0 F9000 X71.155 Y110.753
G1 F3000 X73.843 Y113.441 E78.1017
G0 F9000 X73.843 Y112.876
G1 F3000 X71.155 Y110.187 E78.29139
G0 F9000 X71.155 Y109.622
G1 F3000 X73.843 Y112.31 E78.48104
G0 F9000 X73.843 Y111.744
G1 F3000 X71.155 Y109.056 E78.67069
G0 F9000 X71.155 Y108.49
