; generated by PrusaSlicer 2.6.1+win64 on 2023-10-20 at 17:26:00 UTC

; 

; external perimeters extrusion width = 0.45mm
; perimeters extrusion width = 0.45mm
; infill extrusion width = 0.45mm
; solid infill extrusion width = 0.45mm
; top infill extrusion width = 0.40mm
; first layer extrusion width = 0.42mm

M190 S60 ; set bed temperature and wait for it to be reached
M104 S200 ; set temperature
;TYPE:Custom
START_PRINT
M109 S200 ; set temperature and wait for it to be reached
G21 ; set units to millimeters
G90 ; use absolute coordinates
M82 ; use absolute distances for extrusion
G92 E0
; Filament gcode
M107
;LAYER_CHANGE
;Z:0.35
;HEIGHT:0.35
G1 Z.35 F7800
G1 E-2 F2400
G92 E0
G1 X76.376 Y128.366 F7800
G1 E2 F2400
;TYPE:Skirt/Brim
;WIDTH:0.42
G1 F1800
G1 X78.938 Y127.831 E2.13135
G1 X120.938 Y127.908 E4.23916
G1 X123.146 Y128.309 E4.35178
G1 X125.356 Y129.711 E4.48313
G1 X128.17 Y132.455 E4.68038
G1 X129.475 Y134.281 E4.79302
G1 X130.062 Y136.447 E4.90564
G1 X129.858 Y138.682 E5.01827
G1 X128.889 Y140.706 E5.13089
G1 X127.276 Y142.266 E5.24351
G1 X125.221 Y143.168 E5.35614
G1 X123.729 Y143.343 E5.43153
G1 X76.092 Y143.253 E7.82224
G1 X73.884 Y142.852 E7.93486
G1 X71.954 Y141.708 E8.04746
G1 X70.543 Y139.963 E8.16008
G1 X69.827 Y137.836 E8.27271
G1 X69.897 Y135.593 E8.38533
G1 X70.743 Y133.514 E8.49797
G1 X71.691 Y132.35 E8.57331
G1 X74.513 Y129.617 E8.77046
G1 X76.327 Y128.4 E8.88009
G1 E6.88009 F2400
G92 E0
G1 X120.933 Y135.706 F7800
G1 E2 F2400
;TYPE:Perimeter
;WIDTH:0.565317
G1 F1800
G1 X121.127 Y135.978 E2.02383
G1 X121.452 Y136.366 E2.05993
G1 X120.393 Y136.364 E2.13547
G1 X120.572 Y136.183 E2.15363
G1 X120.897 Y135.754 E2.19202
G1 X120.936 Y134.852 F7800
;TYPE:External perimeter
;WIDTH:0.42
G1 F1800
G1 X121.116 Y135.238 E2.21339
G1 X121.626 Y135.954 E2.25751
G1 X122.107 Y136.412 E2.29084
G1 X122.66 Y136.786 E2.32434
G1 X119.185 Y136.779 E2.49874
G1 X119.759 Y136.391 E2.53351
G1 X120.22 Y135.951 E2.56549
G1 X120.698 Y135.292 E2.60635
G1 X120.907 Y134.905 E2.62842
G1 X120.975 Y135.25 F7800
G1 E.62842 F2400
G92 E0
G1 X78.933 Y135.627 F7800
G1 E2 F2400
;TYPE:Perimeter
;WIDTH:0.565035
G1 F1800
G1 X79.127 Y135.899 E2.02382
G1 X79.452 Y136.287 E2.0599
G1 X78.393 Y136.285 E2.1354
G1 X78.572 Y136.104 E2.15355
G1 X78.897 Y135.675 E2.19192
G1 X78.936 Y134.773 F7800
;TYPE:External perimeter
;WIDTH:0.42
G1 F1800
G1 X79.115 Y135.158 E2.21323
G1 X79.626 Y135.876 E2.25746
G1 X80.106 Y136.333 E2.29072
G1 X80.659 Y136.707 E2.32422
G1 X77.186 Y136.7 E2.49852
G1 X77.759 Y136.312 E2.53325
G1 X78.24 Y135.852 E2.56665
G1 X78.644 Y135.315 E2.60037
G1 X78.907 Y134.826 E2.62824
G1 X78.975 Y135.171 F7800
;LAYER_CHANGE
;Z:0.65
;HEIGHT:0.3
G1 Z.65 F7800
G1 E.62824 F2400
G92 E0
G1 X161.793 Y95.074 F7800
G1 E2 F2400
;TYPE:Overhang perimeter
;WIDTH:0.4
;HEIGHT:0.4
G1 F1800
G1 X162.362 Y94.61 E2.03836
G1 X162.361 Y95.563 E2.08815
G1 X161.839 Y95.113 E2.12416
G1 X160.954 Y95.071 F7800
G1 F1800
G1 X161.544 Y94.746 E2.15935
G1 X162.156 Y94.241 E2.2008
G1 X162.687 Y93.609 E2.24393
G1 X162.778 Y93.447 E2.25364
G1 X162.772 Y96.755 E2.42647
G1 X162.619 Y96.471 E2.44332
G1 X162.256 Y96.02 E2.47357
G1 X161.54 Y95.4 E2.52305
G1 X161.006 Y95.1 E2.55505
G1 X161.351 Y95.021 F7800
G1 E.55505 F2400
G92 E0
G1 X121.007 Y96.266 F7800
G1 E2 F2400
G1 F1800
G1 X120.584 Y95.732 E2.03559
G1 X120.16 Y95.339 E2.06579
G1 X119.735 Y94.994 E2.09439
G1 X120.149 Y94.695 E2.12107
G1 X120.683 Y94.171 E2.16016
G1 X121.011 Y93.765 E2.18743
G1 X121.419 Y94.281 E2.2218
G1 X121.86 Y94.696 E2.25344
G1 X122.272 Y94.996 E2.28007
G1 X121.751 Y95.392 E2.31426
G1 X121.3 Y95.86 E2.34822
G1 X121.042 Y96.217 E2.37123
G1 X120.999 Y97.087 F7800
G1 F1800
G1 X120.947 Y96.954 E2.37869
G1 X120.647 Y96.432 E2.41014
G1 X120.26 Y95.948 E2.44252
G1 X119.792 Y95.528 E2.47537
G1 X119.4 Y95.243 E2.50069
G1 X118.955 Y94.992 E2.52738
G1 X119.383 Y94.769 E2.55259
G1 X119.881 Y94.418 E2.58442
G1 X120.375 Y93.939 E2.62037
G1 X120.74 Y93.451 E2.65221
G1 X120.998 Y92.967 E2.68086
G1 X121.316 Y93.529 E2.7146
G1 X121.821 Y94.13 E2.75561
G1 X122.203 Y94.486 E2.78289
G1 X122.643 Y94.781 E2.81057
G1 X123.089 Y95.001 E2.83655
G1 X122.579 Y95.248 E2.86616
G1 X122.029 Y95.66 E2.90206
G1 X121.662 Y96.039 E2.92962
G1 X121.323 Y96.487 E2.95897
G1 X121.028 Y97.035 E2.99149
G1 X120.991 Y96.945 F7800
G1 E.99149 F2400
G92 E0
G1 X120.494 Y94.528 F7800
G1 E2 F2400
;TYPE:Bridge infill
;WIDTH:0.481294
G1 F3600
G1 X121.356 Y95.339 E2.08952
G1 X120.997 Y95.73 E2.12967
G1 X120.096 Y94.882 E2.22326
G1 E.22326 F2400
G92 E0
G1 X120.927 Y135.254 F7800
G1 E2 F2400
;TYPE:Perimeter
;WIDTH:0.45
;HEIGHT:0.3
G1 F1800
G1 X121.113 Y135.592 E2.01856
G1 X121.493 Y136.081 E2.04835
G1 X121.811 Y136.386 E2.06954
G1 X120.033 Y136.383 E2.15506
G1 X120.289 Y136.148 E2.17177
G1 X120.613 Y135.747 E2.19657
G1 X120.895 Y135.305 E2.22179
G1 X120.928 Y134.207 F7800
;TYPE:External perimeter
G1 F1800
G1 X121.113 Y134.774 E2.25048
G1 X121.418 Y135.356 E2.28208
G1 X121.819 Y135.868 E2.31336
G1 X122.299 Y136.308 E2.34468
G1 X122.895 Y136.691 E2.37875
G1 X123.098 Y136.774 E2.3893
G1 X118.746 Y136.766 E2.59862
G1 X118.948 Y136.684 E2.60911
G1 X119.573 Y136.282 E2.64485
G1 X120.049 Y135.841 E2.67606
G1 X120.454 Y135.316 E2.70795
G1 X120.767 Y134.735 E2.73969
G1 X120.911 Y134.265 E2.76333
G1 X120.958 Y134.606 F7800
G1 X120.919 Y133.685
;TYPE:Overhang perimeter
;WIDTH:0.4
;HEIGHT:0.4
G1 F3600
G1 X120.926 Y133.452 E2.77551
G1 E.77551 F2400
G92 E0
G1 X78.925 Y135.181 F7800
G1 E2 F2400
;TYPE:Perimeter
;WIDTH:0.45
;HEIGHT:0.3
G1 F1800
G1 X79.113 Y135.514 E2.01839
G1 X79.493 Y136.003 E2.04818
G1 X79.811 Y136.308 E2.06937
G1 X78.034 Y136.304 E2.15484
G1 X78.289 Y136.07 E2.17149
G1 X78.613 Y135.669 E2.19629
G1 X78.892 Y135.232 E2.22123
G1 X78.923 Y134.147 F7800
;TYPE:External perimeter
G1 F1800
G1 X79.099 Y134.693 E2.24882
G1 X79.418 Y135.277 E2.28083
G1 X79.819 Y135.789 E2.31211
G1 X80.295 Y136.227 E2.34322
G1 X80.754 Y136.536 E2.36983
G1 X81.129 Y136.696 E2.38944
G1 X76.747 Y136.687 E2.6002
G1 X76.948 Y136.606 E2.61062
G1 X77.574 Y136.204 E2.6464
G1 X78.049 Y135.763 E2.67757
G1 X78.449 Y135.249 E2.7089
G1 X78.767 Y134.656 E2.74126
G1 X78.906 Y134.204 E2.764
G1 X78.952 Y134.546 F7800
G1 X78.92 Y135.667
;TYPE:Solid infill
;WIDTH:0.363168
G1 F2400
G1 X78.618 Y136.06 E2.78247
G1 X79.227 Y136.061 E2.80517
G1 X79.039 Y135.819 E2.81659
G1 E.81659
G92 E0
G1 X120.92 Y135.745 F7800
G1 E2 F2400
;WIDTH:0.363468
G1 X120.618 Y136.138 E2.01849
G1 X121.227 Y136.139 E2.04121
G1 X121.039 Y135.897 E2.05264
G1 E.05264
G92 E0
G1 X79 Y96.196 F7800
G1 E2 F2400
;TYPE:Overhang perimeter
;WIDTH:0.4
;HEIGHT:0.4
G1 F1800
G1 X78.584 Y95.649 E2.0359
G1 X77.74 Y94.912 E2.09444
G1 X78.149 Y94.617 E2.12079
G1 X78.683 Y94.092 E2.15991
G1 X79.011 Y93.658 E2.18833
G1 X79.189 Y93.931 E2.20536
G1 X79.411 Y94.178 E2.22271
G1 X79.829 Y94.595 E2.25356
G1 X80.263 Y94.924 E2.28201
G1 X79.751 Y95.313 E2.3156
G1 X79.3 Y95.78 E2.34952
G1 X79.035 Y96.147 E2.37317
G1 X78.999 Y97.008 F7800
G1 F1800
G1 X78.754 Y96.541 E2.40072
G1 X78.363 Y95.99 E2.43602
G1 X77.911 Y95.561 E2.46858
G1 X77.406 Y95.162 E2.50221
G1 X76.957 Y94.913 E2.52903
G1 X77.387 Y94.689 E2.55436
G1 X77.882 Y94.339 E2.58603
G1 X78.412 Y93.812 E2.62508
G1 X78.741 Y93.372 E2.65378
G1 X78.998 Y92.889 E2.68236
G1 X79.076 Y93.054 E2.6919
G1 X79.512 Y93.72 E2.73349
G1 X80.064 Y94.289 E2.77491
G1 X80.479 Y94.606 E2.80219
G1 X81.057 Y94.919 E2.83653
G1 X80.447 Y95.267 E2.87322
G1 X79.991 Y95.619 E2.90332
G1 X79.558 Y96.072 E2.93606
G1 X79.216 Y96.561 E2.96724
G1 X79.025 Y96.954 E2.99007
G1 X78.942 Y96.612 F7800
G1 X79.473 Y95.43
;TYPE:Bridge infill
;WIDTH:0.484061
G1 F3600
G1 X78.67 Y94.562 E3.08054
G1 X78.276 Y94.922 E3.12137
G1 X79.115 Y95.83 E3.21596
G1 E1.21596 F2400
G92 E0
G1 X38.22 Y94.845 F7800
G1 E2 F2400
;TYPE:Overhang perimeter
;WIDTH:0.4
G1 F1800
G1 X37.635 Y95.317 E2.03927
G1 X37.637 Y94.373 E2.08859
G1 X37.811 Y94.54 E2.10119
G1 X38.172 Y94.809 E2.12471
G1 X39.061 Y94.837 F7800
G1 F1800
G1 X38.508 Y95.143 E2.15773
G1 X38.029 Y95.501 E2.18897
G1 X37.558 Y95.992 E2.22452
G1 X37.222 Y96.472 E2.25513
G1 X37.228 Y93.221 E2.42498
G1 X37.576 Y93.723 E2.45689
G1 X38.056 Y94.21 E2.49261
G1 X38.535 Y94.564 E2.52373
G1 X39.008 Y94.81 E2.55158
G1 X38.666 Y94.897 F7800
;LAYER_CHANGE
;Z:0.95
;HEIGHT:0.3
G1 Z.95 F7800
G1 E.55158 F2400
G92 E0
G1 X79.074 Y54.102 F7800
G1 E2 F2400
;HEIGHT:0.4
G1 F1800
G1 X78.643 Y53.541 E2.03696
G1 X79.514 Y53.543 E2.08247
G1 X79.419 Y53.638 E2.08949
G1 X79.11 Y54.053 E2.11652
G1 X79.067 Y54.902 F7800
G1 F1800
G1 X78.909 Y54.552 E2.13658
G1 X78.411 Y53.879 E2.18032
G1 X78.053 Y53.517 E2.20692
G1 X77.544 Y53.138 E2.24007
G1 X80.615 Y53.144 E2.40051
G1 X80.082 Y53.54 E2.4352
G1 X79.683 Y53.944 E2.46487
G1 X79.245 Y54.548 E2.50385
G1 X79.094 Y54.849 E2.52144
G1 X79.032 Y54.52 F7800
G1 E.52144 F2400
G92 E0
G1 X121.066 Y54.17 F7800
G1 E2 F2400
G1 F1800
G1 X120.644 Y53.62 E2.03622
G1 X121.539 Y53.622 E2.08298
G1 X121.106 Y54.124 E2.11762
G1 X121.075 Y55.001 F7800
G1 F1800
G1 X120.907 Y54.629 E2.13895
G1 X120.409 Y53.957 E2.18265
G1 X120.053 Y53.597 E2.2091
G1 X119.543 Y53.217 E2.24233
G1 X122.613 Y53.223 E2.40272
G1 X122.073 Y53.628 E2.43799
G1 X121.529 Y54.236 E2.48061
G1 X121.25 Y54.62 E2.50541
G1 X121.1 Y54.946 E2.52416
G1 X121.033 Y54.603 F7800
G1 E.52416 F2400
G92 E0
G1 X161.509 Y95.077 F7800
G1 E2 F2400
;TYPE:Perimeter
;WIDTH:0.620827
;HEIGHT:0.3
G1 F1800
G1 X161.86 Y94.854 E2.02886
G1 X162.305 Y94.479 E2.06925
G1 X162.303 Y95.687 E2.15309
G1 X161.864 Y95.306 E2.19343
G1 X161.56 Y95.109 E2.21857
G1 X160.338 Y95.071 F7800
;TYPE:External perimeter
;WIDTH:0.45
G1 F1800
G1 X161.019 Y94.823 E2.25343
G1 X161.556 Y94.495 E2.28369
G1 X162.046 Y94.077 E2.31467
G1 X162.455 Y93.598 E2.34496
G1 X162.779 Y93.069 E2.3748
G1 X162.772 Y96.469 E2.53833
G1 X162.754 Y97.1 E2.56869
G1 X162.416 Y96.536 E2.60031
G1 X162.014 Y96.06 E2.63028
G1 X161.526 Y95.641 E2.66122
G1 X160.981 Y95.308 E2.69194
G1 X160.394 Y95.092 E2.72202
G1 X160.736 Y95.038 F7800
G1 E.72202 F2400
G92 E0
G1 X124.026 Y136.829 F7800
G1 E2 F2400
;WIDTH:0.404381
G1 X124.749 Y136.868 E2.0307
G1 X159.115 Y136.932 E3.48805
G1 X159.931 Y136.831 E3.52292
G1 X160.566 Y136.631 E3.55115
G1 X161.263 Y136.234 E3.58517
G1 X161.813 Y135.742 E3.61646
G1 X162.185 Y135.277 E3.64171
G1 X162.517 Y134.656 E3.67157
G1 X162.724 Y133.98 E3.70155
G1 X162.801 Y133.25 E3.73268
G1 X162.849 Y123.344 E4.15277
;TYPE:Overhang perimeter
;WIDTH:0.4
;HEIGHT:0.4
G1 F3600
G1 X162.875 Y117.917 E4.43631
G1 E2.43631 F2400
G92 E0
G1 X120.935 Y134.853 F7800
G1 E2 F2400
;TYPE:Perimeter
;WIDTH:0.45
;HEIGHT:0.3
G1 F1800
G1 X121.335 Y135.553 E2.03878
G1 X121.684 Y135.994 E2.06583
G1 X122.111 Y136.39 E2.09384
G1 X119.743 Y136.385 E2.20773
G1 X120.228 Y135.919 E2.24008
G1 X120.631 Y135.385 E2.27226
G1 X120.905 Y134.905 E2.29884
G1 X120.928 Y133.198 F7800
;TYPE:External perimeter
;WIDTH:0.507574
G1 F1800
G1 X120.993 Y133.588 E2.3207
;WIDTH:0.478787
G1 X121.057 Y133.979 E2.34118
;WIDTH:0.45
G1 X121.276 Y134.672 E2.37614
G1 X121.576 Y135.233 E2.40674
G1 X121.946 Y135.711 E2.43581
G1 X122.449 Y136.173 E2.46866
G1 X122.952 Y136.498 E2.49746
G1 X123.66 Y136.778 E2.53408
G1 X118.178 Y136.768 E2.79775
G1 X118.393 Y136.707 E2.8085
G1 X118.932 Y136.47 E2.83682
G1 X119.479 Y136.103 E2.8685
G1 X119.923 Y135.683 E2.8979
G1 X120.292 Y135.202 E2.92706
G1 X120.599 Y134.616 E2.95888
G1 X120.804 Y133.945 E2.99263
;WIDTH:0.478787
G1 X120.866 Y133.571 E3.01222
;WIDTH:0.507574
G1 X120.919 Y133.257 E3.02982
G1 E1.02982 F2400
G92 E0
G1 X117.74 Y136.826 F7800
G1 E2 F2400
;WIDTH:0.404381
G1 X117.093 Y136.854 E2.02746
G1 X82.749 Y136.789 E3.48388
G1 X82.026 Y136.751 E3.51458
G1 E1.51458
G92 E0
G1 X78.935 Y134.774 F7800
G1 E2 F2400
;TYPE:Perimeter
;WIDTH:0.45
G1 F1800
G1 X79.335 Y135.474 E2.03878
G1 X79.684 Y135.916 E2.06587
G1 X80.11 Y136.311 E2.09381
G1 X77.743 Y136.306 E2.20765
G1 X78.229 Y135.841 E2.24
G1 X78.632 Y135.306 E2.27222
G1 X78.905 Y134.826 E2.29878
G1 X78.867 Y133.492 F7800
;TYPE:External perimeter
;WIDTH:0.506676
G1 F1800
G1 X78.928 Y133.119 E2.31963
G1 X78.992 Y133.509 E2.34143
;WIDTH:0.478338
G1 X79.056 Y133.899 E2.36184
;WIDTH:0.45
G1 X79.275 Y134.594 E2.39689
G1 X79.576 Y135.155 E2.42751
G1 X79.946 Y135.633 E2.45658
G1 X80.448 Y136.095 E2.48939
G1 X80.949 Y136.418 E2.51806
G1 X81.658 Y136.699 E2.55474
G1 X76.18 Y136.689 E2.81821
G1 X76.392 Y136.629 E2.82881
G1 X76.932 Y136.391 E2.85719
G1 X77.48 Y136.025 E2.88888
G1 X77.924 Y135.605 E2.91828
G1 X78.292 Y135.123 E2.94745
G1 X78.599 Y134.538 E2.97923
G1 X78.805 Y133.865 E3.01308
;WIDTH:0.478338
G1 X78.857 Y133.551 E3.02951
G1 E1.02951 F2400
G92 E0
G1 X75.741 Y136.748 F7800
G1 E2 F2400
;WIDTH:0.404381
G1 X75.093 Y136.775 E2.0275
G1 X40.75 Y136.711 E3.48387
G1 X40.221 Y136.663 E3.5064
G1 X39.591 Y136.517 E3.53382
G1 X38.908 Y136.212 E3.56554
G1 X38.375 Y135.834 E3.59325
G1 X37.878 Y135.33 E3.62327
G1 X37.705 Y135.105 E3.63531
G1 X37.423 Y134.617 E3.65921
G1 X37.155 Y133.853 E3.69354
G1 X37.055 Y133.015 E3.72933
G1 X37.045 Y123.345 E4.1394
;TYPE:Overhang perimeter
;WIDTH:0.4
;HEIGHT:0.4
G1 F3600
G1 X37.039 Y117.918 E4.42293
G1 E2.42293 F2400
G92 E0
G1 X38.47 Y94.846 F7800
G1 E2 F2400
;TYPE:Perimeter
;WIDTH:0.626386
;HEIGHT:0.3
G1 F1800
G1 X38.152 Y95.068 E2.02719
G1 X37.698 Y95.449 E2.06874
G1 X37.7 Y94.251 E2.15272
G1 X38.152 Y94.624 E2.1938
G1 X38.421 Y94.812 E2.2168
G1 X39.648 Y94.842 F7800
;TYPE:External perimeter
;WIDTH:0.45
G1 F1800
G1 X39.204 Y95.002 E2.2395
G1 X38.617 Y95.307 E2.27132
G1 X38.099 Y95.714 E2.303
G1 X37.668 Y96.181 E2.33356
G1 X37.356 Y96.645 E2.36045
G1 X37.221 Y96.957 E2.3768
G1 X37.23 Y92.841 E2.57477
G1 X37.683 Y93.54 E2.61483
G1 X38.094 Y93.978 E2.64372
G1 X38.642 Y94.401 E2.67702
G1 X39.207 Y94.703 E2.70783
G1 X39.59 Y94.824 E2.72715
G1 X39.249 Y94.879 F7800
G1 E.72715 F2400
G92 E0
G1 X77.345 Y94.917 F7800
G1 E2 F2400
;TYPE:Perimeter
G1 F1800
G1 X77.956 Y94.518 E2.0351
G1 X78.417 Y94.093 E2.06526
G1 X78.753 Y93.671 E2.0912
G1 X79.006 Y93.28 E2.1136
G1 X79.242 Y93.666 E2.13536
G1 X79.715 Y94.224 E2.17054
G1 X80.247 Y94.674 E2.20405
G1 X80.668 Y94.923 E2.22758
G1 X80.237 Y95.194 E2.25207
G1 X79.723 Y95.631 E2.28452
G1 X79.348 Y96.045 E2.31139
G1 X78.99 Y96.594 E2.34291
G1 X78.843 Y96.334 E2.35728
G1 X78.344 Y95.695 E2.39627
G1 X77.785 Y95.196 E2.43231
G1 X77.395 Y94.949 E2.45451
G1 X76.383 Y94.917 F7800
;TYPE:External perimeter
G1 F1800
G1 X77.031 Y94.66 E2.48804
G1 X77.695 Y94.234 E2.52598
G1 X78.158 Y93.804 E2.55637
G1 X78.566 Y93.281 E2.58827
G1 X78.808 Y92.838 E2.61255
G1 X78.995 Y92.346 E2.63787
G1 X79.219 Y92.883 E2.66585
G1 X79.539 Y93.42 E2.69592
G1 X79.985 Y93.948 E2.72916
G1 X80.526 Y94.4 E2.76307
G1 X81.191 Y94.774 E2.79977
G1 X81.649 Y94.92 E2.82289
G1 X81.185 Y95.091 E2.84667
G1 X80.618 Y95.386 E2.87741
G1 X80.121 Y95.772 E2.90768
G1 X79.82 Y96.093 E2.92884
G1 X79.414 Y96.638 E2.96153
G1 X79.187 Y97.119 E2.98711
G1 X78.989 Y97.596 E3.01195
G1 X78.81 Y97.078 E3.03831
G1 X78.536 Y96.567 E3.0662
G1 X78.067 Y95.966 E3.10287
G1 X77.499 Y95.462 E3.13939
G1 X76.956 Y95.135 E3.16988
G1 X76.439 Y94.938 E3.19649
G1 X76.781 Y94.877 F7800
G1 E1.19649 F2400
G92 E0
G1 X120.993 Y96.668 F7800
G1 E2 F2400
;TYPE:Perimeter
G1 F1800
G1 X120.715 Y96.216 E2.02552
G1 X120.224 Y95.653 E2.06145
G1 X119.785 Y95.276 E2.08928
G1 X119.343 Y94.996 E2.11445
G1 X119.956 Y94.596 E2.14965
G1 X120.426 Y94.162 E2.18042
G1 X120.746 Y93.759 E2.20517
G1 X121.011 Y93.348 E2.22869
G1 X121.243 Y93.751 E2.25106
G1 X121.681 Y94.264 E2.2835
G1 X122.077 Y94.62 E2.30911
G1 X122.652 Y95.011 E2.34255
G1 X122.381 Y95.161 E2.35745
G1 X121.739 Y95.693 E2.39755
G1 X121.312 Y96.179 E2.42867
G1 X121.026 Y96.618 E2.45387
G1 X120.991 Y97.659 F7800
;TYPE:External perimeter
G1 F1800
G1 X120.755 Y97.022 E2.48654
G1 X120.424 Y96.469 E2.51754
G1 X119.948 Y95.924 E2.55234
G1 X119.578 Y95.602 E2.57593
G1 X118.985 Y95.23 E2.6096
G1 X118.363 Y94.984 E2.64177
G1 X119.031 Y94.738 E2.67601
G1 X119.695 Y94.313 E2.71393
G1 X120.158 Y93.882 E2.74435
G1 X120.566 Y93.36 E2.77622
G1 X120.872 Y92.798 E2.807
G1 X121.005 Y92.391 E2.82759
G1 X121.153 Y92.798 E2.84842
G1 X121.538 Y93.503 E2.88705
