; generated by PrusaSlicer 2.6.1+win64 on 2023-10-21 at 16:51:47 UTC

; 

; external perimeters extrusion width = 0.45mm
; perimeters extrusion width = 0.45mm
; infill extrusion width = 0.45mm
; solid infill extrusion width = 0.45mm
; top infill extrusion width = 0.40mm
; first layer extrusion width = 0.42mm

; external perimeters extrusion width = 0.45mm
; perimeters extrusion width = 0.45mm
; infill extrusion width = 0.45mm
; solid infill extrusion width = 0.45mm
; top infill extrusion width = 0.40mm
; first layer extrusion width = 0.42mm

; external perimeters extrusion width = 0.45mm
; perimeters extrusion width = 0.45mm
; infill extrusion width = 0.45mm
; solid infill extrusion width = 0.45mm
; top infill extrusion width = 0.40mm
; first layer extrusion width = 0.42mm

; external perimeters extrusion width = 0.45mm
; perimeters extrusion width = 0.45mm
; infill extrusion width = 0.45mm
; solid infill extrusion width = 0.45mm
; top infill extrusion width = 0.40mm
; first layer extrusion width = 0.42mm

M190 S60 ; set bed temperature and wait for it to be reached


; Pre-Processed for Cancel-Object support by preprocess_cancellation v0.2.0
; 4 known objects
EXCLUDE_OBJECT_DEFINE NAME=Evil_B_1_stl_id_0_copy_0 CENTER=79.299,56.984 POLYGON=[[56.113,41.063],[56.113,80.994],[103.094,80.994],[103.094,41.063]]
EXCLUDE_OBJECT_DEFINE NAME=Evil_C_1_stl_id_1_copy_0 CENTER=58.171,84.868 POLYGON=[[36.87,66.041],[36.87,116.721],[83.85,116.721],[83.85,66.041]]
EXCLUDE_OBJECT_DEFINE NAME=Evil_D_1_stl_id_2_copy_0 CENTER=88.701,103.321 POLYGON=[[61.001,82.218],[61.001,122.147],[113.982,122.147],[113.982,82.218]]
EXCLUDE_OBJECT_DEFINE NAME=Evil_A_1_stl_id_3_copy_0 CENTER=121.554,90.123 POLYGON=[[107.927,64.129],[107.927,125.194],[136.715,125.194],[136.715,64.129]]
M104 S200 ; set temperature
;TYPE:Custom
START_PRINT
M109 S200 ; set temperature and wait for it to be reached
G21 ; set units to millimeters
G90 ; use absolute coordinates
M82 ; use absolute distances for extrusion
G92 E0
; Filament gcode
M107
;LAYER_CHANGE
;Z:0.3
;HEIGHT:0.3
G1 Z.3 F7800
G1 E-2 F2400
G92 E0
G1 X56.088 Y37.452 F7800
G1 E2 F2400
;TYPE:Skirt/Brim
;WIDTH:0.42
G1 F1800
G1 X57.532 Y35.731 E2.09965
G1 X59.484 Y34.62 E2.19927
G1 X61.602 Y34.256 E2.29459
G1 X73.603 Y34.256 E2.82689
G1 X75.983 Y34.719 E2.93443
G1 X133.668 Y58.011 E5.69374
G1 X135.57 Y59.206 E5.79337
G1 X136.781 Y60.705 E5.87884
G1 X142.599 Y70.695 E6.39161
G1 X143.369 Y72.805 E6.49124
G1 X143.351 Y75.078 E6.59206
G1 X137.407 Y106.414 E8.00675
G1 X136.672 Y108.4 E8.10068
G1 X124.924 Y128.816 E9.14545
G1 X123.477 Y130.534 E9.24508
G1 X121.523 Y131.642 E9.34471
G1 X118.749 Y131.967 E9.46859
G1 X89.826 Y128.92 E10.75856
G1 X47.547 Y123.476 E12.64932
G1 X45.405 Y122.8 E12.74895
G1 X43.632 Y121.421 E12.84858
G1 X42.85 Y120.343 E12.90765
G1 X31.101 Y99.927 E13.95244
G1 X30.343 Y97.813 E14.05205
G1 X30.367 Y95.567 E14.15168
G1 X30.745 Y94.309 E14.20994
G1 X49.988 Y48.195 E16.42626
G1 X56.059 Y37.504 E16.97158
; printing object Evil_B (1).stl id:0 copy 0
EXCLUDE_OBJECT_START NAME=Evil_B_1_stl_id_0_copy_0
G1 E14.97158 F2400
G92 E0
G1 X66.919 Y52.16 F7800
G1 E2 F2400
;TYPE:Perimeter
;WIDTH:0.42
G1 F1800
G1 X67.083 Y52.34 E2.0108
G1 X67.353 Y52.473 E2.02415
G1 X67.603 Y52.508 E2.03535
G1 X67.97 Y52.429 E2.052
G1 X68.211 Y52.267 E2.06488
G1 X68.372 Y52.065 E2.07634
G1 X73.596 Y43.057 E2.53821
G1 X78.51 Y51.64 E2.97689
G1 X78.751 Y51.912 E2.99301
G1 X78.996 Y52.04 E3.00527
G1 X79.282 Y52.087 E3.01813
G1 X90.774 Y52.083 E3.52785
G1 X101.945 Y71.417 E4.51826
G1 X97.603 Y78.993 E4.90557
G1 X86.695 Y60.03 E5.8759
G1 X86.494 Y59.791 E5.88975
G1 X86.233 Y59.64 E5.90312
G1 X85.924 Y59.584 E5.91705
G1 X62.433 Y59.59 E6.95899
G1 X57.262 Y50.641 E7.41742
G1 X61.609 Y43.057 E7.80515
G1 X66.833 Y52.065 E8.26702
G1 X66.879 Y52.115 E8.27003
G1 X67.16 Y51.913 F7800
G1 F1800
G1 X67.194 Y51.962 E8.27268
G1 X67.367 Y52.098 E8.28244
G1 X67.642 Y52.151 E8.29486
G1 X67.901 Y52.061 E8.30702
G1 X68.064 Y51.887 E8.3176
G1 X73.351 Y42.77 E8.78506
G1 X73.589 Y42.33 E8.80725
G1 X78.651 Y51.17 E9.25908
G1 X78.857 Y51.52 E9.27709
G1 X79.032 Y51.67 E9.28731
G1 X79.282 Y51.732 E9.29873
G1 X90.979 Y51.727 E9.81755
G1 X102.355 Y71.416 E10.82614
G1 X97.603 Y79.708 E11.25004
G1 X86.387 Y60.208 E12.24782
G1 X86.192 Y60.012 E12.26008
G1 X85.924 Y59.94 E12.27239
G1 X62.228 Y59.946 E13.32342
G1 X56.852 Y50.641 E13.80007
G1 X61.607 Y42.345 E14.22419
G1 X67.127 Y51.863 E14.71222
G1 X67.449 Y51.708 F7800
;TYPE:External perimeter
G1 F1800
G1 X67.499 Y51.763 E14.71552
G1 X67.633 Y51.794 E14.72162
G1 X67.756 Y51.708 E14.72828
G1 X73.044 Y42.591 E15.19576
G1 X73.295 Y42.124 E15.21928
G1 X73.475 Y41.645 E15.24198
G1 X73.508 Y41.445 E15.25097
G1 X79.14 Y51.306 E15.75466
G1 X79.282 Y51.376 E15.76168
G1 X91.185 Y51.371 E16.28963
G1 X102.765 Y71.416 E17.31642
G1 X97.604 Y80.422 E17.77682
G1 X86.06 Y60.359 E18.8035
G1 X85.924 Y60.296 E18.81015
G1 X62.023 Y60.301 E19.87027
G1 X56.442 Y50.642 E20.36507
G1 X61.605 Y41.633 E20.82563
G1 X67.419 Y51.656 E21.33958
G1 X67.444 Y51.782 F7800
G1 E19.33958 F2400
G92 E0
G1 X89.979 Y52.19 F7800
G1 E2 F2400
;TYPE:Solid infill
;WIDTH:0.423669
G1 F1800
G1 X91.279 Y53.49 E2.08239
G1 X91.975 Y54.694 E2.14471
G1 X89.631 Y52.35 E2.29326
G1 X89.123 Y52.35 E2.31602
G1 X92.67 Y55.897 E2.54081
G1 X93.365 Y57.1 E2.60307
G1 X88.615 Y52.35 E2.9041
G1 X88.107 Y52.35 E2.92686
G1 X94.06 Y58.304 E3.30416
G1 X94.756 Y59.507 E3.36644
G1 X87.599 Y52.351 E3.81998
G1 X87.091 Y52.351 E3.84274
G1 X95.451 Y60.71 E4.37252
G1 X96.146 Y61.914 E4.43482
G1 X86.583 Y52.351 E5.04087
G1 X86.075 Y52.351 E5.06363
G1 X96.841 Y63.117 E5.74592
G1 X97.536 Y64.32 E5.80818
G1 X85.568 Y52.351 E6.56668
G1 X85.06 Y52.352 E6.58944
G1 X98.232 Y65.524 E7.42421
G1 X98.927 Y66.727 E7.48647
G1 X84.552 Y52.352 E8.39748
G1 X84.044 Y52.352 E8.42024
G1 X99.622 Y67.93 E9.40748
G1 X100.317 Y69.134 E9.46978
G1 X83.536 Y52.352 E10.5333
G1 X83.028 Y52.353 E10.55606
G1 X101.013 Y70.337 E11.69581
G1 X101.637 Y71.418 E11.75174
G1 X101.618 Y71.451 E11.75345
G1 X82.52 Y52.353 E12.96377
G1 X82.012 Y52.353 E12.98653
G1 X101.433 Y71.774 E14.21732
G1 X101.248 Y72.097 E14.234
G1 X81.504 Y52.353 E15.48526
G1 X80.997 Y52.353 E15.50798
G1 X101.063 Y72.42 E16.77968
G1 X100.878 Y72.743 E16.79636
G1 X80.489 Y52.354 E18.0885
G1 X79.981 Y52.354 E18.11126
G1 X100.693 Y73.066 E19.42387
G1 X100.507 Y73.389 E19.44057
G1 X79.313 Y52.194 E20.78376
G1 E18.78376 F2400
G92 E0
G1 X74.487 Y44.828 F7800
G1 E2 F2400
G1 F1800
G1 X73.468 Y43.809 E2.06458
G1 X73.282 Y44.13 E2.08121
G1 X74.736 Y45.585 E2.17339
G1 X75.417 Y46.774 E2.23479
G1 X73.095 Y44.452 E2.38195
G1 X72.909 Y44.774 E2.39861
G1 X76.097 Y47.962 E2.60065
G1 X76.778 Y49.151 E2.66205
G1 X72.722 Y45.095 E2.9191
G1 X72.536 Y45.417 E2.93576
G1 X77.89 Y50.771 E3.27507
G1 E1.27507 F2400
G92 E0
G1 X72.232 Y45.621 F7800
G1 E2 F2400
G1 F1800
G1 X85.928 Y59.318 E2.86801
G1 X86.13 Y59.336 E2.8771
G1 X86.325 Y59.389 E2.88616
G1 X86.504 Y59.473 E2.89502
G1 X86.665 Y59.586 E2.90383
G1 X86.809 Y59.729 E2.91292
G1 X86.923 Y59.892 E2.92183
G1 X87.493 Y60.882 E2.97302
G1 X100.322 Y73.712 E3.78608
G1 X100.137 Y74.035 E3.80276
G1 X88.181 Y62.078 E4.56049
G1 X88.869 Y63.274 E4.62232
G1 X99.952 Y74.358 E5.32473
G1 X99.767 Y74.681 E5.34141
G1 X89.557 Y64.47 E5.98849
G1 X90.245 Y65.666 E6.05032
G1 X99.582 Y75.004 E6.64208
G1 X99.397 Y75.327 E6.65876
G1 X90.933 Y66.863 E7.19516
G1 X91.621 Y68.059 E7.25699
G1 X99.212 Y75.65 E7.73806
G1 X99.026 Y75.973 E7.75476
G1 X92.309 Y69.255 E8.18048
G1 X92.997 Y70.451 E8.24231
G1 X98.841 Y76.296 E8.6127
G1 X98.656 Y76.619 E8.62938
G1 X93.685 Y71.647 E8.94445
G1 X94.373 Y72.843 E9.00628
G1 X98.471 Y76.942 E9.26602
G1 X98.286 Y77.265 E9.2827
G1 X95.061 Y74.039 E9.48711
G1 X95.749 Y75.235 E9.54894
G1 X98.101 Y77.588 E9.69803
G1 X97.916 Y77.911 E9.71471
G1 X96.437 Y76.431 E9.80847
G1 X97.125 Y77.627 E9.8703
G1 X97.848 Y78.351 E9.91615
G1 E7.91615 F2400
G92 E0
G1 X85.58 Y59.478 F7800
G1 E2 F2400
G1 F1800
G1 X72.163 Y46.06 E2.85032
G1 X71.976 Y46.382 E2.86701
G1 X84.912 Y59.318 E3.68682
G1 X84.404 Y59.318 E3.70958
G1 X71.79 Y46.703 E4.50901
G1 X71.603 Y47.025 E4.5257
G1 X83.896 Y59.318 E5.30476
G1 X83.388 Y59.318 E5.32752
G1 X71.417 Y47.346 E6.08621
G1 X71.23 Y47.668 E6.1029
G1 X82.88 Y59.318 E6.84121
G1 X82.372 Y59.319 E6.86397
G1 X71.044 Y47.99 E7.58191
G1 X70.857 Y48.311 E7.59856
G1 X81.865 Y59.319 E8.29618
G1 X81.357 Y59.319 E8.31894
G1 X70.67 Y48.633 E8.99619
G1 X70.484 Y48.954 E9.01282
G1 X80.849 Y59.319 E9.66969
G1 X80.341 Y59.319 E9.69245
G1 X70.297 Y49.276 E10.32895
G1 X70.111 Y49.598 E10.34561
G1 X79.833 Y59.319 E10.9617
G1 X79.325 Y59.319 E10.98446
G1 X69.924 Y49.919 E11.58021
G1 X69.738 Y50.241 E11.59687
G1 X78.817 Y59.319 E12.17221
G1 X78.309 Y59.32 E12.19497
G1 X69.551 Y50.562 E12.75
G1 X69.365 Y50.884 E12.76666
G1 X77.801 Y59.32 E13.30129
G1 X77.293 Y59.32 E13.32405
G1 X69.178 Y51.206 E13.8383
G1 X68.992 Y51.527 E13.85493
G1 X76.785 Y59.32 E14.34881
G1 X76.277 Y59.32 E14.37157
G1 X68.805 Y51.849 E14.84507
G1 X68.619 Y52.17 E14.8617
G1 X75.769 Y59.32 E15.31483
G1 X75.261 Y59.32 E15.33759
G1 X68.398 Y52.458 E15.7725
G1 X68.25 Y52.577 E15.78101
G1 X68.096 Y52.663 E15.78891
G1 X74.753 Y59.32 E16.21079
G1 X74.245 Y59.32 E16.23355
G1 X67.534 Y52.61 E16.65882
G1 E14.65882 F2400
G92 E0
G1 X62.115 Y44.142 F7800
G1 E2 F2400
G1 F1800
G1 X61.593 Y43.62 E2.03308
G1 X61.408 Y43.943 E2.04976
G1 X62.376 Y44.911 E2.11111
G1 X63.077 Y46.121 E2.17378
G1 X61.223 Y44.266 E2.29131
G1 X61.038 Y44.589 E2.30799
G1 X63.779 Y47.331 E2.48173
G1 X64.481 Y48.54 E2.54438
G1 X60.853 Y44.912 E2.7743
G1 X60.668 Y45.235 E2.79098
G1 X65.182 Y49.75 E3.07708
G1 X65.884 Y50.96 E3.13977
G1 X60.483 Y45.558 E3.48209
G1 X60.297 Y45.881 E3.49879
G1 X73.737 Y59.321 E4.35054
G1 X73.229 Y59.321 E4.3733
G1 X60.112 Y46.204 E5.20458
G1 X59.927 Y46.527 E5.22126
G1 X72.721 Y59.321 E6.03207
G1 X72.213 Y59.321 E6.05483
G1 X59.742 Y46.85 E6.84517
G1 X59.557 Y47.173 E6.86185
G1 X71.705 Y59.321 E7.63172
G1 X71.197 Y59.321 E7.65448
G1 X59.372 Y47.496 E8.40388
G1 X59.187 Y47.819 E8.42056
G1 X70.689 Y59.321 E9.14949
G1 X70.181 Y59.321 E9.17225
G1 X59.002 Y48.142 E9.88071
G1 X58.817 Y48.465 E9.89739
G1 X69.673 Y59.322 E10.58541
G1 X69.165 Y59.322 E10.60817
G1 X58.631 Y48.788 E11.27575
G1 X58.446 Y49.111 E11.29243
G1 X68.657 Y59.322 E11.93954
G1 X68.149 Y59.322 E11.9623
G1 X58.261 Y49.434 E12.58894
G1 X58.076 Y49.757 E12.60562
G1 X67.641 Y59.322 E13.21179
G1 X67.133 Y59.322 E13.23455
G1 X57.891 Y50.08 E13.82026
G1 X57.706 Y50.403 E13.83694
G1 X66.625 Y59.322 E14.40218
G1 X66.117 Y59.322 E14.42494
G1 X57.756 Y50.962 E14.95478
G1 X58.451 Y52.165 E15.01704
G1 X65.609 Y59.323 E15.47067
G1 X65.101 Y59.323 E15.49343
G1 X59.147 Y53.369 E15.87076
G1 X59.842 Y54.572 E15.93302
G1 X64.593 Y59.323 E16.23411
G1 X64.085 Y59.323 E16.25687
G1 X60.537 Y55.775 E16.48172
G1 X61.233 Y56.979 E16.54404
G1 X63.577 Y59.323 E16.69259
G1 X63.069 Y59.323 E16.71535
G1 X61.49 Y57.745 E16.81539
; stop printing object Evil_B (1).stl id:0 copy 0
EXCLUDE_OBJECT_END NAME=Evil_B_1_stl_id_0_copy_0
; printing object Evil_C (1).stl id:1 copy 0
EXCLUDE_OBJECT_START NAME=Evil_C_1_stl_id_1_copy_0
G1 E14.81539 F2400
G92 E0
G1 X72.816 Y74.564 F7800
G1 E2 F2400
;TYPE:Perimeter
;WIDTH:0.42
G1 F1800
G1 X72.683 Y74.54 E2.00599
G1 X60.039 Y74.54 E2.56681
G1 X59.731 Y74.595 E2.58069
G1 X59.47 Y74.746 E2.59406
G1 X59.269 Y74.985 E2.60791
G1 X46.948 Y96.311 E3.70034
G1 X46.842 Y96.606 E3.71424
G1 X46.842 Y96.907 E3.72759
G1 X46.947 Y97.2 E3.7414
G1 X52.699 Y107.145 E4.25098
G1 X48.357 Y114.72 E4.63825
G1 X38.02 Y96.757 E5.5575
G1 X55.19 Y67.037 E7.0799
G1 X77.53 Y67.037 E8.07079
G1 X82.701 Y75.987 E8.52926
G1 X78.361 Y83.559 E8.91637
G1 X73.454 Y74.988 E9.35443
G1 X73.252 Y74.747 E9.36838
G1 X72.991 Y74.595 E9.38178
G1 X72.875 Y74.575 E9.387
G1 X72.766 Y74.918 F7800
G1 F1800
G1 X72.683 Y74.896 E9.39081
G1 X60.039 Y74.896 E9.95163
G1 X59.772 Y74.968 E9.9639
G1 X59.577 Y75.162 E9.9761
G1 X47.256 Y96.489 E11.06857
G1 X47.185 Y96.757 E11.08087
G1 X47.256 Y97.022 E11.09304
G1 X53.109 Y107.144 E11.61165
G1 X48.358 Y115.434 E12.03546
G1 X37.609 Y96.757 E12.99127
G1 X54.984 Y66.682 E14.53185
G1 X77.735 Y66.682 E15.54097
G1 X83.111 Y75.986 E16.01758
G1 X78.361 Y84.274 E16.44129
G1 X73.145 Y75.164 E16.90691
G1 X72.95 Y74.967 E16.9192
G1 X72.824 Y74.934 E16.92498
G1 X72.683 Y75.251 F7800
;TYPE:External perimeter
G1 F1800
G1 X60.039 Y75.251 E17.4858
G1 X60.008 Y75.254 E17.48718
G1 X59.885 Y75.34 E17.49384
G1 X47.551 Y96.695 E18.58767
G1 X47.564 Y96.845 E18.59435
G1 X53.519 Y107.144 E19.12203
G1 X48.358 Y116.148 E19.58235
G1 X37.199 Y96.757 E20.57468
G1 X54.779 Y66.326 E22.13348
G1 X77.94 Y66.326 E23.16078
G1 X83.522 Y75.985 E23.6556
G1 X78.361 Y84.989 E24.11592
G1 X72.837 Y75.341 E24.60903
G1 X72.737 Y75.277 E24.6143
G1 X72.613 Y74.858 F7800
G1 E22.6143 F2400
G92 E0
G1 X76.741 Y67.144 F7800
G1 E2 F2400
;TYPE:Solid infill
;WIDTH:0.420434
G1 F1800
G1 X78.026 Y68.429 E2.0807
G1 X78.715 Y69.622 E2.14188
G1 X76.398 Y67.304 E2.28743
G1 X75.894 Y67.304 E2.30981
G1 X79.404 Y70.814 E2.53025
G1 X80.093 Y72.007 E2.59143
G1 X75.39 Y67.304 E2.8868
G1 X74.887 Y67.304 E2.90914
G1 X80.782 Y73.2 E3.2794
G1 X81.471 Y74.392 E3.34054
G1 X74.383 Y67.304 E3.78569
G1 X73.88 Y67.304 E3.80803
G1 X82.161 Y75.585 E4.32811
G1 X82.393 Y75.987 E4.34872
G1 X82.272 Y76.199 E4.35956
G1 X73.376 Y67.304 E4.91823
G1 X72.873 Y67.304 E4.94057
G1 X82.088 Y76.52 E5.51934
G1 X81.905 Y76.84 E5.53571
G1 X72.369 Y67.304 E6.13461
G1 X71.866 Y67.304 E6.15695
G1 X81.721 Y77.16 E6.77591
G1 X81.538 Y77.48 E6.79228
G1 X71.362 Y67.304 E7.43137
G1 X70.859 Y67.304 E7.45371
G1 X81.354 Y77.8 E8.11287
G1 X81.171 Y78.12 E8.12924
G1 X70.355 Y67.304 E8.80852
G1 X69.852 Y67.304 E8.83086
G1 X80.988 Y78.44 E9.53024
G1 X80.804 Y78.76 E9.54663
G1 X69.348 Y67.304 E10.26611
G1 X68.845 Y67.304 E10.28845
G1 X80.621 Y79.08 E11.02803
G1 X80.437 Y79.4 E11.04442
G1 X68.341 Y67.304 E11.80409
G1 X67.837 Y67.304 E11.82647
G1 X80.254 Y79.72 E12.60627
G1 X80.07 Y80.04 E12.62266
G1 X67.334 Y67.304 E13.42253
G1 X66.83 Y67.304 E13.44491
G1 X79.887 Y80.361 E14.26494
G1 X79.703 Y80.681 E14.28133
G1 X66.327 Y67.304 E15.12142
G1 X65.823 Y67.304 E15.1438
G1 X72.803 Y74.284 E15.58217
G1 X73.083 Y74.345 E15.5949
G1 X73.261 Y74.428 E15.60362
G1 X73.423 Y74.542 E15.61242
G1 X73.567 Y74.685 E15.62143
G1 X73.681 Y74.848 E15.63026
G1 X74.103 Y75.583 E15.6679
G1 X79.52 Y81.001 E16.00814
G1 X79.337 Y81.321 E16.02451
G1 X74.777 Y76.761 E16.31089
G1 X75.452 Y77.939 E16.37118
G1 X79.153 Y81.641 E16.60365
G1 X78.97 Y81.961 E16.62002
G1 X76.126 Y79.117 E16.79863
G1 X76.8 Y80.295 E16.8589
G1 X78.786 Y82.281 E16.98363
G1 X78.603 Y82.601 E17
G1 X77.475 Y81.473 E17.07084
G1 X78.149 Y82.651 E17.13111
G1 X78.537 Y83.039 E17.15548
G1 E15.15548 F2400
G92 E0
G1 X72.449 Y74.434 F7800
G1 E2 F2400
G1 F1800
G1 X65.32 Y67.304 E2.44776
G1 X64.816 Y67.304 E2.47014
G1 X71.786 Y74.273 E2.90785
G1 X71.282 Y74.273 E2.93023
G1 X64.313 Y67.304 E3.36791
G1 X63.809 Y67.304 E3.39029
G1 X70.779 Y74.273 E3.828
G1 X70.275 Y74.273 E3.85038
G1 X63.306 Y67.304 E4.28806
G1 X62.802 Y67.304 E4.31044
G1 X69.772 Y74.273 E4.74815
G1 X69.268 Y74.273 E4.77053
G1 X62.299 Y67.304 E5.20821
G1 X61.795 Y67.304 E5.23059
G1 X68.764 Y74.273 E5.66827
G1 X68.261 Y74.273 E5.69061
G1 X61.292 Y67.304 E6.12829
G1 X60.788 Y67.304 E6.15067
G1 X67.757 Y74.273 E6.58835
G1 X67.254 Y74.273 E6.61069
G1 X60.284 Y67.304 E7.0484
G1 X59.781 Y67.304 E7.07074
G1 X66.75 Y74.273 E7.50842
G1 X66.247 Y74.273 E7.53076
G1 X59.277 Y67.304 E7.96847
G1 X58.774 Y67.304 E7.99081
G1 X65.743 Y74.273 E8.42849
G1 X65.24 Y74.273 E8.45083
G1 X58.27 Y67.304 E8.88854
G1 X57.767 Y67.304 E8.91088
G1 X64.736 Y74.273 E9.34856
G1 X64.233 Y74.273 E9.3709
G1 X57.263 Y67.304 E9.80861
G1 X56.76 Y67.304 E9.83095
G1 X63.729 Y74.273 E10.26863
G1 X63.226 Y74.273 E10.29097
G1 X56.256 Y67.304 E10.72868
G1 X55.753 Y67.304 E10.75102
G1 X62.722 Y74.273 E11.1887
G1 X62.218 Y74.273 E11.21108
G1 X55.309 Y67.364 E11.64499
G1 X55.125 Y67.683 E11.66134
G1 X61.715 Y74.273 E12.07522
G1 X61.211 Y74.273 E12.0976
