; generated by PrusaSlicer 2.6.1+win64 on 2023-10-21 at 09:17:48 UTC

; 

; external perimeters extrusion width = 0.45mm
; perimeters extrusion width = 0.45mm
; infill extrusion width = 0.45mm
; solid infill extrusion width = 0.45mm
; top infill extrusion width = 0.40mm
; first layer extrusion width = 0.42mm

M190 S60 ; set bed temperature and wait for it to be reached


; Pre-Processed for Cancel-Object support by preprocess_cancellation v0.2.0
; 1 known objects
EXCLUDE_OBJECT_DEFINE NAME=Evil_Puzzle___With_2x3mm_Magnets_stl_id_0_copy_0 CENTER=104.467,100.022 POLYGON=[[21.231,41.26],[21.231,148.74],[178.769,148.74],[178.769,41.26]]
M104 S200 ; set temperature
;TYPE:Custom
START_PRINT
M109 S200 ; set temperature and wait for it to be reached
G21 ; set units to millimeters
G90 ; use absolute coordinates
M82 ; use absolute distances for extrusion
G92 E0
; Filament gcode
M107
;LAYER_CHANGE
;Z:0.3
;HEIGHT:0.3
G1 Z.3 F7800
G1 E-2 F2400
G92 E0
G1 X32.818 Y56.842 F7800
G1 E2 F2400
;TYPE:Skirt/Brim
;WIDTH:0.42
G1 F1800
G1 X69.789 Y35.496 E3.89354
G1 X72.967 Y34.644 E4.03948
G1 X127.033 Y34.644 E6.43757
G1 X130.211 Y35.496 E6.58351
G1 X182.172 Y65.496 E9.24478
G1 X183.888 Y66.945 E9.3444
G1 X184.993 Y68.9 E9.44401
G1 X185.35 Y71 E9.53849
G1 X185.35 Y125 E11.93365
G1 X184.953 Y127.211 E12.03329
G1 X183.812 Y129.145 E12.13289
G1 X182.172 Y130.504 E12.22736
G1 X140.603 Y154.504 E14.35638
G1 X137.425 Y155.356 E14.50232
G1 X62.575 Y155.356 E17.82228
G1 X59.397 Y154.504 E17.96822
G1 X17.828 Y130.504 E20.09724
G1 X16.112 Y129.055 E20.19686
G1 X15.007 Y127.1 E20.29647
G1 X14.65 Y125 E20.39095
G1 X14.65 Y71 E22.78611
G1 X15.047 Y68.789 E22.88575
G1 X16.188 Y66.855 E22.98535
G1 X17.828 Y65.496 E23.07982
G1 X32.766 Y56.872 E23.84488
; printing object Evil_Puzzle_-_With_2x3mm_Magnets.stl id:0 copy 0
EXCLUDE_OBJECT_START NAME=Evil_Puzzle___With_2x3mm_Magnets_stl_id_0_copy_0
G1 E21.84488 F2400
G92 E0
G1 X93.275 Y101.257 F7800
G1 E2 F2400
;TYPE:Perimeter
;WIDTH:0.42
G1 F1800
G1 X93.425 Y101.288 E2.00679
G1 X100.039 Y101.288 E2.30015
G1 X100.052 Y108.406 E2.61587
G1 X100.006 Y109.713 E2.67388
G1 X99.982 Y114.09 E2.86802
G1 X93.425 Y114.09 E3.15885
G1 X93.069 Y114.164 E3.17498
G1 X92.802 Y114.344 E3.18926
G1 X92.604 Y114.637 E3.20495
G1 X92.536 Y114.979 E3.22042
G1 X92.536 Y130.292 E3.89962
G1 X62.575 Y147.59 E5.43412
G1 X22.227 Y124.295 E7.5006
G1 X22.227 Y71.705 E9.83322
G1 X72.967 Y42.41 E12.43195
G1 X92.536 Y53.708 E13.4342
G1 X92.536 Y69.021 E14.1134
G1 X92.589 Y69.324 E14.12704
G1 X92.778 Y69.631 E14.14303
G1 X93.077 Y69.839 E14.15919
G1 X93.425 Y69.91 E14.17494
G1 X100.083 Y69.91 E14.47025
G1 X100.074 Y71.384 E14.53563
G1 X99.891 Y82.712 E15.03815
G1 X93.425 Y82.712 E15.32495
G1 X93.077 Y82.783 E15.3407
G1 X92.811 Y82.958 E15.35482
G1 X92.607 Y83.251 E15.37066
G1 X92.536 Y83.601 E15.3865
G1 X92.536 Y100.399 E16.13157
G1 X92.586 Y100.695 E16.14489
G1 X92.77 Y101 E16.16069
G1 X93.069 Y101.214 E16.177
G1 X93.217 Y101.245 E16.18371
G1 X93.343 Y100.912 F7800
G1 F1800
G1 X93.425 Y100.933 E16.18746
G1 X100.394 Y100.933 E16.49657
G1 X100.408 Y108.412 E16.8283
G1 X100.362 Y109.714 E16.88609
G1 X100.336 Y114.445 E17.09594
G1 X93.378 Y114.447 E17.40456
G1 X93.133 Y114.532 E17.41606
G1 X92.962 Y114.714 E17.42714
G1 X92.891 Y114.979 E17.43931
G1 X92.891 Y130.497 E18.12761
G1 X62.575 Y148 E19.68029
G1 X21.872 Y124.5 E21.76496
G1 X21.872 Y71.5 E24.11576
G1 X72.967 Y42 E26.73267
G1 X92.891 Y53.503 E27.7531
G1 X92.891 Y69.021 E28.4414
G1 X92.973 Y69.305 E28.45451
G1 X93.175 Y69.492 E28.46672
G1 X93.425 Y69.555 E28.47816
G1 X100.441 Y69.555 E28.78935
G1 X100.429 Y71.388 E28.87065
G1 X100.241 Y83.067 E29.38874
G1 X93.368 Y83.07 E29.69359
G1 X93.138 Y83.151 E29.70441
G1 X92.958 Y83.342 E29.71605
G1 X92.891 Y83.601 E29.72792
G1 X92.892 Y100.412 E30.47357
G1 X92.97 Y100.677 E30.48582
G1 X93.169 Y100.868 E30.49805
G1 X93.285 Y100.897 E30.50335
G1 X93.425 Y100.577 F7800
;TYPE:External perimeter
G1 F1800
G1 X100.749 Y100.577 E30.8282
G1 X100.763 Y108.418 E31.17599
G1 X100.718 Y109.716 E31.2336
G1 X100.69 Y114.801 E31.45915
G1 X93.425 Y114.801 E31.78139
G1 X93.317 Y114.837 E31.78644
G1 X93.247 Y114.979 E31.79346
G1 X93.247 Y130.703 E32.49089
G1 X62.575 Y148.411 E34.06179
G1 X21.516 Y124.706 E36.16468
G1 X21.516 Y71.294 E38.53376
G1 X72.967 Y41.589 E41.16889
G1 X93.247 Y53.297 E42.20755
G1 X93.247 Y69.021 E42.90498
G1 X93.285 Y69.131 E42.91014
G1 X93.425 Y69.199 E42.91704
G1 X100.799 Y69.199 E43.24411
G1 X100.785 Y71.392 E43.34138
G1 X100.591 Y83.423 E43.87508
G1 X93.425 Y83.423 E44.19293
G1 X93.31 Y83.465 E44.19836
G1 X93.247 Y83.601 E44.20501
G1 X93.247 Y100.399 E44.95008
G1 X93.284 Y100.507 E44.95514
G1 X93.371 Y100.55 E44.95944
G1 X93.528 Y100.963 F7800
G1 E42.95944 F2400
G92 E0
G1 X92.429 Y54.498 F7800
G1 E2 F2400
;TYPE:Solid infill
;WIDTH:0.42076
G1 F1800
G1 X91.144 Y53.212 E2.08081
G1 X89.951 Y52.524 E2.14202
G1 X92.269 Y54.841 E2.2877
G1 X92.269 Y55.345 E2.3101
G1 X88.759 Y51.835 E2.53074
G1 X87.566 Y51.147 E2.59195
G1 X92.269 Y55.849 E2.88755
G1 X92.269 Y56.353 E2.90995
G1 X86.374 Y50.458 E3.28052
G1 X85.182 Y49.77 E3.3417
G1 X92.269 Y56.857 E3.7872
G1 X92.269 Y57.361 E3.8096
G1 X83.989 Y49.082 E4.33006
G1 X82.797 Y48.393 E4.39126
G1 X92.269 Y57.865 E4.98668
G1 X92.269 Y58.369 E5.00908
G1 X81.604 Y47.705 E5.67946
G1 X80.412 Y47.016 E5.74066
G1 X92.269 Y58.873 E6.486
G1 X92.269 Y59.377 E6.5084
G1 X79.219 Y46.328 E7.32871
G1 X78.027 Y45.639 E7.38991
G1 X92.269 Y59.881 E8.28518
G1 X92.269 Y60.385 E8.30758
G1 X76.834 Y44.951 E9.27781
G1 X75.642 Y44.263 E9.33899
G1 X92.269 Y60.889 E10.38415
G1 X92.269 Y61.393 E10.40655
G1 X74.45 Y43.574 E11.52667
G1 X73.257 Y42.886 E11.58788
G1 X92.269 Y61.897 E12.78297
G1 X92.269 Y62.401 E12.80537
G1 X72.725 Y42.858 E14.0339
G1 X72.406 Y43.042 E14.05027
G1 X92.269 Y62.905 E15.29888
G1 X92.269 Y63.409 E15.32128
G1 X72.086 Y43.227 E16.58998
G1 X71.767 Y43.411 E16.60635
G1 X92.269 Y63.913 E17.89513
G1 X92.269 Y64.417 E17.91753
G1 X71.447 Y43.596 E19.22639
G1 X71.128 Y43.78 E19.24276
G1 X92.269 Y64.921 E20.57171
G1 X92.269 Y65.425 E20.59411
G1 X70.808 Y43.965 E21.94314
G1 X70.489 Y44.149 E21.95951
G1 X92.269 Y65.929 E23.32863
G1 X92.269 Y66.433 E23.35103
G1 X70.169 Y44.334 E24.74023
G1 X69.85 Y44.518 E24.7566
G1 X92.269 Y66.937 E26.16588
G1 X92.269 Y67.441 E26.18828
G1 X69.53 Y44.702 E27.61768
G1 X69.211 Y44.887 E27.63407
G1 X92.269 Y67.945 E29.08352
G1 X92.269 Y68.449 E29.10592
G1 X68.891 Y45.071 E30.57549
G1 X68.571 Y45.256 E30.59192
G1 X92.438 Y69.123 E32.09223
G1 E30.09223 F2400
G92 E0
G1 X99.38 Y70.016 F7800
G1 E2 F2400
G1 F1800
G1 X99.81 Y70.446 E2.02703
G1 X99.802 Y70.943 E2.04912
G1 X99.036 Y70.176 E2.0973
G1 X98.531 Y70.176 E2.11975
G1 X99.795 Y71.439 E2.19918
G1 X99.787 Y71.936 E2.22127
G1 X98.027 Y70.175 E2.33194
G1 X97.522 Y70.175 E2.35439
G1 X99.78 Y72.432 E2.4963
G1 X99.772 Y72.929 E2.51839
G1 X97.018 Y70.174 E2.69154
G1 X96.513 Y70.174 E2.71399
G1 X99.765 Y73.425 E2.91838
G1 X99.757 Y73.922 E2.94047
G1 X96.009 Y70.173 E3.17611
G1 X95.505 Y70.173 E3.19851
G1 X99.75 Y74.418 E3.46536
G1 X99.742 Y74.915 E3.48745
G1 X95 Y70.173 E3.78554
G1 X94.496 Y70.172 E3.80794
G1 X99.735 Y75.411 E4.13727
G1 X99.727 Y75.908 E4.15936
G1 X93.991 Y70.172 E4.51993
G1 X93.487 Y70.171 E4.54233
G1 X99.72 Y76.404 E4.93414
G1 X99.712 Y76.901 E4.95623
G1 X68.252 Y45.44 E6.93387
G1 X67.932 Y45.625 E6.9503
G1 X99.705 Y77.397 E8.94756
G1 X99.697 Y77.894 E8.96965
G1 X67.613 Y45.809 E10.98652
G1 X67.293 Y45.994 E11.00295
G1 X99.69 Y78.39 E13.03943
G1 X99.682 Y78.887 E13.06152
G1 X66.974 Y46.178 E15.11761
G1 X66.654 Y46.363 E15.13404
G1 X99.675 Y79.383 E17.20975
G1 X99.667 Y79.88 E17.23184
G1 X66.335 Y46.547 E19.32716
G1 X66.015 Y46.732 E19.34359
G1 X99.66 Y80.376 E21.45852
G1 X99.652 Y80.873 E21.48061
G1 X65.696 Y46.916 E23.61516
G1 X65.376 Y47.101 E23.63159
G1 X99.645 Y81.369 E25.78575
G1 X99.637 Y81.866 E25.80784
G1 X65.057 Y47.285 E27.98161
G1 X64.737 Y47.47 E27.99804
G1 X99.63 Y82.362 E30.19142
G1 X99.629 Y82.445 E30.19511
G1 X99.209 Y82.446 E30.21378
G1 X64.418 Y47.654 E32.40081
G1 X64.098 Y47.839 E32.41724
G1 X98.706 Y82.446 E34.59271
G1 X98.202 Y82.446 E34.61511
G1 X63.779 Y48.023 E36.77898
G1 X63.459 Y48.208 E36.79541
G1 X97.699 Y82.447 E38.94774
G1 X97.195 Y82.447 E38.97014
G1 X63.14 Y48.392 E41.11088
G1 X62.82 Y48.576 E41.12729
G1 X96.692 Y82.448 E43.25652
G1 X96.188 Y82.448 E43.27892
G1 X62.501 Y48.761 E45.39652
G1 X62.181 Y48.945 E45.41293
G1 X95.684 Y82.449 E47.519
G1 X95.181 Y82.449 E47.54136
G1 X61.862 Y49.13 E49.63583
G1 X61.542 Y49.314 E49.65224
G1 X94.677 Y82.45 E51.73518
G1 X94.174 Y82.45 E51.75754
G1 X61.223 Y49.499 E53.82888
G1 X60.903 Y49.683 E53.84529
G1 X93.67 Y82.451 E55.90509
G1 X93.303 Y82.451 E55.9214
G1 X93.19 Y82.475 E55.92653
G1 X60.583 Y49.868 E57.97624
G1 X60.264 Y50.052 E57.99261
G1 X92.827 Y82.615 E60.03956
G1 X92.735 Y82.673 E60.04439
G1 X92.554 Y82.846 E60.05552
G1 X59.944 Y50.237 E62.10539
G1 X59.625 Y50.421 E62.12176
G1 X92.36 Y83.156 E64.17952
G1 X92.288 Y83.388 E64.19032
G1 X92.271 Y83.572 E64.19853
G1 X59.305 Y50.606 E66.27081
G1 X58.986 Y50.79 E66.28718
G1 X92.269 Y84.073 E68.37939
G1 X92.269 Y84.577 E68.40179
G1 X58.666 Y50.975 E70.51408
G1 X58.347 Y51.159 E70.53045
G1 X92.269 Y85.081 E72.66283
G1 X92.269 Y85.585 E72.68523
G1 X58.027 Y51.344 E74.83769
G1 X57.708 Y51.528 E74.85406
G1 X92.269 Y86.089 E77.0266
G1 X92.269 Y86.593 E77.049
G1 X57.388 Y51.713 E79.24163
G1 X57.069 Y51.897 E79.258
G1 X92.269 Y87.097 E81.47071
G1 X92.269 Y87.601 E81.49311
G1 X56.749 Y52.082 E83.72591
G1 X56.43 Y52.266 E83.74228
G1 X92.269 Y88.105 E85.99516
G1 X92.269 Y88.609 E86.01756
G1 X56.11 Y52.45 E88.29056
G1 X55.791 Y52.635 E88.30695
G1 X92.269 Y89.113 E90.6
G1 X92.269 Y89.617 E90.6224
G1 X55.471 Y52.819 E92.93557
G1 X55.152 Y53.004 E92.95196
G1 X92.269 Y90.121 E95.28518
G1 X92.269 Y90.625 E95.30758
G1 X54.832 Y53.188 E97.66091
G1 X54.513 Y53.373 E97.6773
G1 X92.269 Y91.129 E100.05069
G1 X92.269 Y91.633 E100.07309
G1 X54.193 Y53.557 E102.46659
G1 X53.874 Y53.742 E102.48298
G1 X92.269 Y92.137 E104.89653
G1 X92.269 Y92.641 E104.91893
G1 X53.554 Y53.926 E107.3526
G1 X53.235 Y54.111 E107.36899
G1 X92.269 Y93.145 E109.82271
G1 X92.269 Y93.649 E109.84511
G1 X52.915 Y54.295 E112.31895
G1 X52.596 Y54.48 E112.33534
G1 X92.269 Y94.153 E114.82923
G1 X92.269 Y94.657 E114.85163
G1 X52.276 Y54.664 E117.36564
G1 X51.956 Y54.849 E117.38207
G1 X92.269 Y95.161 E119.91616
G1 X92.269 Y95.665 E119.93856
G1 X51.637 Y55.033 E122.49273
G1 X51.317 Y55.218 E122.50916
G1 X92.269 Y96.169 E125.08342
G1 X92.269 Y96.673 E125.10582
G1 X50.998 Y55.402 E127.70016
G1 X50.678 Y55.587 E127.71659
G1 X92.269 Y97.177 E130.33102
G1 X92.269 Y97.681 E130.35342
G1 X50.359 Y55.771 E132.98793
G1 X50.039 Y55.956 E133.00436
G1 X92.269 Y98.185 E135.65896
G1 X92.269 Y98.689 E135.68136
G1 X49.72 Y56.14 E138.35604
G1 X49.4 Y56.325 E138.37247
G1 X92.269 Y99.193 E141.06723
G1 X92.269 Y99.697 E141.08963
G1 X49.081 Y56.509 E143.80448
G1 X48.761 Y56.693 E143.82089
G1 X92.429 Y100.361 E146.56591
G1 E144.56591 F2400
G92 E0
G1 X99.51 Y101.395 F7800
G1 E2 F2400
G1 F1800
G1 X99.773 Y101.657 E2.0165
G1 X99.774 Y102.162 E2.03895
G1 X99.166 Y101.554 E2.07717
G1 X98.662 Y101.554 E2.09957
G1 X99.775 Y102.667 E2.16953
G1 X99.776 Y103.172 E2.19198
G1 X98.157 Y101.553 E2.29375
G1 X97.653 Y101.553 E2.31615
G1 X99.777 Y103.677 E2.44967
G1 X99.778 Y104.182 E2.47212
G1 X97.148 Y101.552 E2.63744
G1 X96.644 Y101.552 E2.65984
G1 X99.779 Y104.687 E2.85691
G1 X99.78 Y105.192 E2.87936
G1 X96.139 Y101.551 E3.10824
G1 X95.635 Y101.551 E3.13064
G1 X99.78 Y105.697 E3.39123
G1 X99.781 Y106.202 E3.41368
G1 X95.13 Y101.55 E3.70608
G1 X94.626 Y101.55 E3.72848
G1 X99.782 Y106.706 E4.05259
G1 X99.783 Y107.211 E4.07504
G1 X94.121 Y101.549 E4.43096
G1 X93.617 Y101.549 E4.45336
G1 X99.784 Y107.716 E4.84102
G1 X99.785 Y108.221 E4.86347
G1 X48.442 Y56.878 E8.09095
G1 X48.122 Y57.062 E8.10736
G1 X99.774 Y108.715 E11.3543
G1 X99.757 Y109.202 E11.37596
G1 X47.803 Y57.247 E14.64188
G1 X47.483 Y57.431 E14.65829
G1 X99.74 Y109.689 E17.94326
G1 X99.737 Y110.189 E17.96549
G1 X47.164 Y57.616 E21.27029
G1 X46.844 Y57.8 E21.2867
G1 X99.734 Y110.69 E24.61143
G1 X99.731 Y111.192 E24.63374
G1 X46.525 Y57.985 E27.97836
G1 X46.205 Y58.169 E27.99477
G1 X99.729 Y111.693 E31.35935
G1 X99.726 Y112.194 E31.38162
G1 X45.886 Y58.354 E34.76607
G1 X45.566 Y58.538 E34.78248
G1 X99.723 Y112.695 E38.18685
G1 X99.72 Y113.197 E38.20916
G1 X45.247 Y58.723 E41.63343
G1 X44.927 Y58.907 E41.64984
G1 X99.718 Y113.698 E45.09407
G1 X99.717 Y113.823 E45.09963
G1 X99.339 Y113.823 E45.11643
G1 X44.608 Y59.092 E48.55688
G1 X44.288 Y59.276 E48.57329
G1 X98.836 Y113.824 E52.00224
G1 X98.332 Y113.824 E52.02464
G1 X43.968 Y59.461 E55.44199
G1 X43.649 Y59.645 E55.45836
G1 X97.828 Y113.824 E58.86411
G1 X97.325 Y113.825 E58.88647
G1 X43.329 Y59.83 E62.28069
G1 X43.01 Y60.014 E62.29706
G1 X96.821 Y113.825 E65.67968
G1 X96.317 Y113.825 E65.70208
G1 X42.69 Y60.199 E69.0731
G1 X42.371 Y60.383 E69.08947
G1 X95.813 Y113.826 E72.44893
G1 X95.31 Y113.826 E72.47129
G1 X42.051 Y60.567 E75.81921
G1 X41.732 Y60.752 E75.8356
G1 X94.806 Y113.826 E79.17189
G1 X94.302 Y113.827 E79.19429
G1 X41.412 Y60.936 E82.51905
G1 X41.093 Y61.121 E82.53544
G1 X93.799 Y113.827 E85.8486
G1 X93.3 Y113.832 E85.87078
G1 X40.773 Y61.305 E89.17269
G1 X40.454 Y61.49 E89.18908
G1 X92.915 Y113.952 E92.48687
G1 X92.791 Y114.011 E92.49297
G1 X92.622 Y114.162 E92.50304
G1 X40.134 Y61.674 E95.8025
G1 X39.815 Y61.859 E95.81889
G1 X92.404 Y114.448 E99.1247
G1 X92.295 Y114.732 E99.13822
G1 X92.284 Y114.832 E99.14269
G1 X39.495 Y62.043 E102.46107
G1 X39.176 Y62.228 E102.47746
G1 X92.269 Y115.321 E105.81495
G1 X92.269 Y115.825 E105.83735
G1 X38.856 Y62.412 E109.19495
G1 X38.537 Y62.597 E109.21134
G1 X92.269 Y116.329 E112.589
G1 X92.269 Y116.833 E112.6114
G1 X38.217 Y62.781 E116.00917
G1 X37.898 Y62.966 E116.02556
G1 X92.269 Y117.337 E119.44338
G1 X92.269 Y117.841 E119.46578
G1 X37.578 Y63.15 E122.90372
G1 X37.259 Y63.335 E122.92011
G1 X92.269 Y118.345 E126.3781
G1 X92.269 Y118.849 E126.4005
G1 X36.939 Y63.519 E129.87861
G1 X36.62 Y63.704 E129.895
G1 X92.269 Y119.353 E133.39316
G1 X92.269 Y119.857 E133.41556
G1 X36.3 Y63.888 E136.93384
G1 X35.98 Y64.073 E136.95027
G1 X92.269 Y120.361 E140.48863
G1 X92.269 Y120.865 E140.51103
G1 X35.661 Y64.257 E144.06947
G1 X35.341 Y64.441 E144.08588
G1 X92.269 Y121.369 E147.66444
G1 X92.269 Y121.873 E147.68684
G1 X35.022 Y64.626 E151.28545
G1 X34.702 Y64.81 E151.30186
G1 X92.269 Y122.377 E154.92059
G1 X92.269 Y122.881 E154.94299
G1 X34.383 Y64.995 E158.58177
G1 X34.063 Y65.179 E158.59818
G1 X92.269 Y123.385 E162.25708
G1 X92.269 Y123.889 E162.27948
G1 X33.744 Y65.364 E165.95843
G1 X33.424 Y65.548 E165.97484
G1 X92.269 Y124.393 E169.67391
G1 X92.269 Y124.897 E169.69631
G1 X33.105 Y65.733 E173.41543
G1 X32.785 Y65.917 E173.43184
G1 X92.269 Y125.401 E177.17107
G1 X92.269 Y125.905 E177.19347
G1 X32.466 Y66.102 E180.95276
G1 X32.146 Y66.286 E180.96917
G1 X92.269 Y126.409 E184.74857
G1 X92.269 Y126.913 E184.77097
G1 X31.827 Y66.471 E188.57042
G1 X31.507 Y66.655 E188.58683
G1 X92.269 Y127.417 E192.4064
G1 X92.269 Y127.921 E192.4288
G1 X31.188 Y66.84 E196.26842
G1 X30.868 Y67.024 E196.28483
G1 X92.269 Y128.425 E200.14457
G1 X92.269 Y128.929 E200.16697
G1 X30.549 Y67.209 E204.04676
G1 X30.229 Y67.393 E204.06317
G1 X92.269 Y129.433 E207.96308
G1 X92.269 Y129.937 E207.98548
G1 X29.91 Y67.578 E211.90544
G1 X29.59 Y67.762 E211.92185
G1 X92.077 Y130.249 E215.84986
G1 X91.757 Y130.433 E215.86627
G1 X29.271 Y67.947 E219.79421
G1 X28.951 Y68.131 E219.81062
G1 X91.438 Y130.618 E223.73863
G1 X91.118 Y130.802 E223.75504
G1 X28.632 Y68.315 E227.68301
G1 X28.312 Y68.5 E227.69944
G1 X90.799 Y130.987 E231.62745
G1 X90.479 Y131.171 E231.64386
G1 X27.993 Y68.684 E235.57183
G1 X27.673 Y68.869 E235.58826
G1 X90.16 Y131.356 E239.51627
G1 X89.84 Y131.54 E239.53268
G1 X27.353 Y69.053 E243.46069
G1 X27.034 Y69.238 E243.47708
G1 X89.521 Y131.725 E247.40509
G1 X89.201 Y131.909 E247.4215
G1 X26.714 Y69.422 E251.34951
G1 X26.395 Y69.607 E251.3659
G1 X88.882 Y132.094 E255.29391
