; generated by PrusaSlicer 2.6.1+win64 on 2023-10-25 at 17:13:01 UTC

; 

; external perimeters extrusion width = 0.45mm
; perimeters extrusion width = 0.45mm
; infill extrusion width = 0.45mm
; solid infill extrusion width = 0.45mm
; top infill extrusion width = 0.40mm
; first layer extrusion width = 0.42mm

M190 S60 ; set bed temperature and wait for it to be reached


; Pre-Processed for Cancel-Object support by preprocess_cancellation v0.2.0
; 1 known objects
EXCLUDE_OBJECT_DEFINE NAME=Extrusion_Cover_120mm_STL_id_0_copy_0 CENTER=99.989,95.097 POLYGON=[[96.826,32.652],[96.826,157.275],[103.174,157.275],[103.174,32.652]]
M104 S200 ; set temperature
;TYPE:Custom
START_PRINT
M109 S200 ; set temperature and wait for it to be reached
G21 ; set units to millimeters
G90 ; use absolute coordinates
M82 ; use absolute distances for extrusion
G92 E0
; Filament gcode
M107
;LAYER_CHANGE
;Z:0.3
;HEIGHT:0.3
G1 Z.3 F7800
G1 E-2 F2400
G92 E0
G1 X90.433 Y30.289 F7800
G1 E2 F2400
;TYPE:Skirt/Brim
;WIDTH:0.42
G1 F1800
G1 X91.574 Y28.355 E2.0996
G1 X93.317 Y26.938 E2.19923
G1 X96.392 Y26.144 E2.34009
G1 X103.608 Y26.144 E2.66015
G1 X105.819 Y26.541 E2.75979
G1 X107.754 Y27.682 E2.85943
G1 X109.17 Y29.425 E2.95904
G1 X109.964 Y32.5 E3.0999
G1 X109.964 Y157.5 E8.64425
G1 X109.567 Y159.711 E8.74389
G1 X108.426 Y161.645 E8.84349
G1 X106.683 Y163.062 E8.94312
G1 X103.608 Y163.856 E9.08398
G1 X96.392 Y163.856 E9.40404
G1 X94.181 Y163.459 E9.50368
G1 X92.246 Y162.318 E9.60332
G1 X90.83 Y160.575 E9.70293
G1 X90.036 Y157.5 E9.84379
G1 X90.036 Y32.5 E15.38814
G1 X90.422 Y30.348 E15.48511
; printing object Extrusion_Cover_120mm.STL id:0 copy 0
EXCLUDE_OBJECT_START NAME=Extrusion_Cover_120mm_STL_id_0_copy_0
G1 E13.48511 F2400
G92 E0
G1 X102.387 Y156.279 F7800
G1 E2 F2400
;TYPE:Perimeter
;WIDTH:0.42
G1 F1800
G1 X97.613 Y156.279 E2.21175
G1 X97.613 Y33.721 E7.64778
G1 X102.387 Y33.721 E7.85953
G1 X102.387 Y156.219 E13.2929
G1 X102.743 Y156.634 F7800
G1 F1800
G1 X97.257 Y156.634 E13.53623
G1 X97.257 Y33.366 E19.00375
G1 X102.743 Y33.366 E19.24708
G1 X102.743 Y156.574 E24.71194
G1 X103.098 Y156.99 F7800
;TYPE:External perimeter
G1 F1800
G1 X96.902 Y156.99 E24.98676
G1 X96.902 Y33.01 E30.48586
G1 X103.098 Y33.01 E30.76068
G1 X103.098 Y156.93 E36.25712
G1 X102.749 Y156.796 F7800
G1 E34.25712 F2400
G92 E0
G1 X102.28 Y34.548 F7800
G1 E2 F2400
;TYPE:Solid infill
;WIDTH:0.420673
G1 F1800
G1 X101.72 Y33.988 E2.03519
G1 X101.216 Y33.988 E2.05759
G1 X102.12 Y34.892 E2.1144
G1 X102.12 Y35.396 E2.1368
G1 X100.712 Y33.988 E2.22529
G1 X100.209 Y33.988 E2.24764
G1 X102.12 Y35.9 E2.36777
G1 X102.12 Y36.404 E2.39017
G1 X99.705 Y33.988 E2.54197
G1 X99.201 Y33.988 E2.56437
G1 X102.12 Y36.908 E2.74785
G1 X102.12 Y37.411 E2.7702
G1 X98.697 Y33.988 E2.98532
G1 X98.193 Y33.988 E3.00772
G1 X102.12 Y37.915 E3.25452
G1 X102.12 Y38.419 E3.27692
G1 X97.88 Y34.178 E3.54342
G1 X97.88 Y34.682 E3.56582
G1 X102.12 Y38.923 E3.83232
G1 X102.12 Y39.427 E3.85472
G1 X97.88 Y35.186 E4.12122
G1 X97.88 Y35.69 E4.14362
G1 X102.12 Y39.931 E4.41012
G1 X102.12 Y40.435 E4.43252
G1 X97.88 Y36.194 E4.69902
G1 X97.88 Y36.698 E4.72142
G1 X102.12 Y40.939 E4.98792
G1 X102.12 Y41.442 E5.01027
G1 X97.88 Y37.202 E5.27674
G1 X97.88 Y37.706 E5.29914
G1 X102.12 Y41.946 E5.56561
G1 X102.12 Y42.45 E5.58801
G1 X97.88 Y38.209 E5.85451
G1 X97.88 Y38.713 E5.87691
G1 X102.12 Y42.954 E6.14341
G1 X102.12 Y43.458 E6.16581
G1 X97.88 Y39.217 E6.43231
G1 X97.88 Y39.721 E6.45471
G1 X102.12 Y43.962 E6.72121
G1 X102.12 Y44.466 E6.74361
G1 X97.88 Y40.225 E7.01011
G1 X97.88 Y40.729 E7.03251
G1 X102.12 Y44.97 E7.29901
G1 X102.12 Y45.473 E7.32136
G1 X97.88 Y41.233 E7.58783
G1 X97.88 Y41.737 E7.61023
G1 X102.12 Y45.977 E7.8767
G1 X102.12 Y46.481 E7.8991
G1 X97.88 Y42.24 E8.1656
G1 X97.88 Y42.744 E8.188
G1 X102.12 Y46.985 E8.4545
G1 X102.12 Y47.489 E8.4769
G1 X97.88 Y43.248 E8.7434
G1 X97.88 Y43.752 E8.7658
G1 X102.12 Y47.993 E9.0323
G1 X102.12 Y48.497 E9.0547
G1 X97.88 Y44.256 E9.3212
G1 X97.88 Y44.76 E9.3436
G1 X102.12 Y49.001 E9.6101
G1 X102.12 Y49.504 E9.63245
G1 X97.88 Y45.264 E9.89892
G1 X97.88 Y45.768 E9.92132
G1 X102.12 Y50.008 E10.18779
G1 X102.12 Y50.512 E10.21019
G1 X97.88 Y46.271 E10.47669
G1 X97.88 Y46.775 E10.49909
G1 X102.12 Y51.016 E10.76559
G1 X102.12 Y51.52 E10.78799
G1 X97.88 Y47.279 E11.05449
G1 X97.88 Y47.783 E11.07689
G1 X102.12 Y52.024 E11.34339
G1 X102.12 Y52.528 E11.36579
G1 X97.88 Y48.287 E11.63229
G1 X97.88 Y48.791 E11.65469
G1 X102.12 Y53.032 E11.92119
G1 X102.12 Y53.535 E11.94354
G1 X97.88 Y49.295 E12.21001
G1 X97.88 Y49.798 E12.23236
G1 X102.12 Y54.039 E12.49886
G1 X102.12 Y54.543 E12.52126
G1 X97.88 Y50.302 E12.78776
G1 X97.88 Y50.806 E12.81016
G1 X102.12 Y55.047 E13.07666
G1 X102.12 Y55.551 E13.09906
G1 X97.88 Y51.31 E13.36556
G1 X97.88 Y51.814 E13.38796
G1 X102.12 Y56.055 E13.65446
G1 X102.12 Y56.559 E13.67686
G1 X97.88 Y52.318 E13.94336
G1 X97.88 Y52.822 E13.96576
G1 X102.12 Y57.062 E14.23223
G1 X102.12 Y57.566 E14.25463
G1 X97.88 Y53.326 E14.5211
G1 X97.88 Y53.829 E14.54345
G1 X102.12 Y58.07 E14.80995
G1 X102.12 Y58.574 E14.83235
G1 X97.88 Y54.333 E15.09885
G1 X97.88 Y54.837 E15.12125
G1 X102.12 Y59.078 E15.38775
G1 X102.12 Y59.582 E15.41015
G1 X97.88 Y55.341 E15.67665
G1 X97.88 Y55.845 E15.69905
G1 X102.12 Y60.086 E15.96555
G1 X102.12 Y60.59 E15.98795
G1 X97.88 Y56.349 E16.25445
G1 X97.88 Y56.853 E16.27685
G1 X102.12 Y61.093 E16.54332
G1 X102.12 Y61.597 E16.56572
G1 X97.88 Y57.357 E16.83219
G1 X97.88 Y57.86 E16.85454
G1 X102.12 Y62.101 E17.12104
G1 X102.12 Y62.605 E17.14344
G1 X97.88 Y58.364 E17.40994
G1 X97.88 Y58.868 E17.43234
G1 X102.12 Y63.109 E17.69884
G1 X102.12 Y63.613 E17.72124
G1 X97.88 Y59.372 E17.98774
G1 X97.88 Y59.876 E18.01014
G1 X102.12 Y64.117 E18.27664
G1 X102.12 Y64.621 E18.29904
G1 X97.88 Y60.38 E18.56554
G1 X97.88 Y60.884 E18.58794
G1 X102.12 Y65.124 E18.85441
G1 X102.12 Y65.628 E18.87681
G1 X97.88 Y61.388 E19.14328
G1 X97.88 Y61.891 E19.16563
G1 X102.12 Y66.132 E19.43213
G1 X102.12 Y66.636 E19.45453
G1 X97.88 Y62.395 E19.72103
G1 X97.88 Y62.899 E19.74343
G1 X102.12 Y67.14 E20.00993
G1 X102.12 Y67.644 E20.03233
G1 X97.88 Y63.403 E20.29883
G1 X97.88 Y63.907 E20.32123
G1 X102.12 Y68.148 E20.58773
G1 X102.12 Y68.652 E20.61013
G1 X97.88 Y64.411 E20.87663
G1 X97.88 Y64.915 E20.89903
G1 X102.12 Y69.155 E21.1655
G1 X102.12 Y69.659 E21.1879
G1 X97.88 Y65.419 E21.45437
G1 X97.88 Y65.922 E21.47672
G1 X102.12 Y70.163 E21.74322
G1 X102.12 Y70.667 E21.76562
G1 X97.88 Y66.426 E22.03212
G1 X97.88 Y66.93 E22.05452
G1 X102.12 Y71.171 E22.32102
G1 X102.12 Y71.675 E22.34342
G1 X97.88 Y67.434 E22.60992
G1 X97.88 Y67.938 E22.63232
G1 X102.12 Y72.179 E22.89882
G1 X102.12 Y72.683 E22.92122
G1 X97.88 Y68.442 E23.18772
G1 X97.88 Y68.946 E23.21012
G1 X102.12 Y73.186 E23.47659
G1 X102.12 Y73.69 E23.49899
G1 X97.88 Y69.45 E23.76546
G1 X97.88 Y69.953 E23.78781
G1 X102.12 Y74.194 E24.05431
G1 X102.12 Y74.698 E24.07671
G1 X97.88 Y70.457 E24.34321
G1 X97.88 Y70.961 E24.36561
G1 X102.12 Y75.202 E24.63211
G1 X102.12 Y75.706 E24.65451
G1 X97.88 Y71.465 E24.92101
G1 X97.88 Y71.969 E24.94341
G1 X102.12 Y76.21 E25.20991
G1 X102.12 Y76.714 E25.23231
G1 X97.88 Y72.473 E25.49881
G1 X97.88 Y72.977 E25.52121
G1 X102.12 Y77.217 E25.78768
G1 X102.12 Y77.721 E25.81008
G1 X97.88 Y73.481 E26.07655
G1 X97.88 Y73.984 E26.0989
G1 X102.12 Y78.225 E26.3654
G1 X102.12 Y78.729 E26.3878
G1 X97.88 Y74.488 E26.6543
G1 X97.88 Y74.992 E26.6767
G1 X102.12 Y79.233 E26.9432
G1 X102.12 Y79.737 E26.9656
G1 X97.88 Y75.496 E27.2321
G1 X97.88 Y76 E27.2545
G1 X102.12 Y80.241 E27.521
G1 X102.12 Y80.745 E27.5434
G1 X97.88 Y76.504 E27.8099
G1 X97.88 Y77.008 E27.8323
G1 X102.12 Y81.248 E28.09877
G1 X102.12 Y81.752 E28.12117
G1 X97.88 Y77.512 E28.38764
G1 X97.88 Y78.015 E28.40999
G1 X102.12 Y82.256 E28.67649
G1 X102.12 Y82.76 E28.69889
G1 X97.88 Y78.519 E28.96539
G1 X97.88 Y79.023 E28.98779
G1 X102.12 Y83.264 E29.25429
G1 X102.12 Y83.768 E29.27669
G1 X97.88 Y79.527 E29.54319
G1 X97.88 Y80.031 E29.56559
G1 X102.12 Y84.272 E29.83209
G1 X102.12 Y84.776 E29.85449
G1 X97.88 Y80.535 E30.12099
G1 X97.88 Y81.039 E30.14339
G1 X102.12 Y85.279 E30.40986
G1 X102.12 Y85.783 E30.43226
G1 X97.88 Y81.542 E30.69876
G1 X97.88 Y82.046 E30.72116
G1 X102.12 Y86.287 E30.98766
G1 X102.12 Y86.791 E31.01006
G1 X97.88 Y82.55 E31.27656
G1 X97.88 Y83.054 E31.29896
G1 X102.12 Y87.295 E31.56546
G1 X102.12 Y87.799 E31.58786
G1 X97.88 Y83.558 E31.85436
G1 X97.88 Y84.062 E31.87676
G1 X102.12 Y88.303 E32.14326
G1 X102.12 Y88.806 E32.16561
G1 X97.88 Y84.566 E32.43208
G1 X97.88 Y85.07 E32.45448
G1 X102.12 Y89.31 E32.72095
G1 X102.12 Y89.814 E32.74335
G1 X97.88 Y85.573 E33.00985
G1 X97.88 Y86.077 E33.03225
G1 X102.12 Y90.318 E33.29875
G1 X102.12 Y90.822 E33.32115
G1 X97.88 Y86.581 E33.58765
G1 X97.88 Y87.085 E33.61005
G1 X102.12 Y91.326 E33.87655
G1 X102.12 Y91.83 E33.89895
G1 X97.88 Y87.589 E34.16545
G1 X97.88 Y88.093 E34.18785
G1 X102.12 Y92.334 E34.45435
G1 X102.12 Y92.837 E34.4767
G1 X97.88 Y88.597 E34.74317
G1 X97.88 Y89.101 E34.76557
G1 X102.12 Y93.341 E35.03204
G1 X102.12 Y93.845 E35.05444
G1 X97.88 Y89.604 E35.32094
G1 X97.88 Y90.108 E35.34334
G1 X102.12 Y94.349 E35.60984
G1 X102.12 Y94.853 E35.63224
G1 X97.88 Y90.612 E35.89874
G1 X97.88 Y91.116 E35.92114
G1 X102.12 Y95.357 E36.18764
G1 X102.12 Y95.861 E36.21004
G1 X97.88 Y91.62 E36.47654
G1 X97.88 Y92.124 E36.49894
G1 X102.12 Y96.365 E36.76544
G1 X102.12 Y96.868 E36.78779
G1 X97.88 Y92.628 E37.05426
G1 X97.88 Y93.132 E37.07666
G1 X102.12 Y97.372 E37.34313
G1 X102.12 Y97.876 E37.36553
G1 X97.88 Y93.635 E37.63203
G1 X97.88 Y94.139 E37.65443
G1 X102.12 Y98.38 E37.92093
G1 X102.12 Y98.884 E37.94333
G1 X97.88 Y94.643 E38.20983
G1 X97.88 Y95.147 E38.23223
G1 X102.12 Y99.388 E38.49873
G1 X102.12 Y99.892 E38.52113
G1 X97.88 Y95.651 E38.78763
G1 X97.88 Y96.155 E38.81003
G1 X102.12 Y100.396 E39.07653
G1 X102.12 Y100.899 E39.09888
G1 X97.88 Y96.659 E39.36535
G1 X97.88 Y97.163 E39.38775
G1 X102.12 Y101.403 E39.65422
G1 X102.12 Y101.907 E39.67662
G1 X97.88 Y97.666 E39.94312
G1 X97.88 Y98.17 E39.96552
G1 X102.12 Y102.411 E40.23202
G1 X102.12 Y102.915 E40.25442
G1 X97.88 Y98.674 E40.52092
G1 X97.88 Y99.178 E40.54332
G1 X102.12 Y103.419 E40.80982
G1 X102.12 Y103.923 E40.83222
G1 X97.88 Y99.682 E41.09872
G1 X97.88 Y100.186 E41.12112
G1 X102.12 Y104.427 E41.38762
G1 X102.12 Y104.93 E41.40997
G1 X97.88 Y100.69 E41.67644
G1 X97.88 Y101.194 E41.69884
G1 X102.12 Y105.434 E41.96531
G1 X102.12 Y105.938 E41.98771
G1 X97.88 Y101.697 E42.25421
G1 X97.88 Y102.201 E42.27661
G1 X102.12 Y106.442 E42.54311
G1 X102.12 Y106.946 E42.56551
G1 X97.88 Y102.705 E42.83201
G1 X97.88 Y103.209 E42.85441
G1 X102.12 Y107.45 E43.12091
G1 X102.12 Y107.954 E43.14331
G1 X97.88 Y103.713 E43.40981
G1 X97.88 Y104.217 E43.43221
G1 X102.12 Y108.458 E43.69871
G1 X102.12 Y108.961 E43.72106
G1 X97.88 Y104.721 E43.98753
G1 X97.88 Y105.225 E44.00993
G1 X102.12 Y109.465 E44.2764
G1 X102.12 Y109.969 E44.2988
G1 X97.88 Y105.728 E44.5653
G1 X97.88 Y106.232 E44.5877
G1 X102.12 Y110.473 E44.8542
G1 X102.12 Y110.977 E44.8766
G1 X97.88 Y106.736 E45.1431
G1 X97.88 Y107.24 E45.1655
G1 X102.12 Y111.481 E45.432
G1 X102.12 Y111.985 E45.4544
G1 X97.88 Y107.744 E45.7209
G1 X97.88 Y108.248 E45.7433
G1 X102.12 Y112.489 E46.0098
G1 X102.12 Y112.992 E46.03215
G1 X97.88 Y108.752 E46.29862
G1 X97.88 Y109.256 E46.32102
G1 X102.12 Y113.496 E46.58749
G1 X102.12 Y114 E46.60989
G1 X97.88 Y109.759 E46.87639
G1 X97.88 Y110.263 E46.89879
G1 X102.12 Y114.504 E47.16529
G1 X102.12 Y115.008 E47.18769
G1 X97.88 Y110.767 E47.45419
G1 X97.88 Y111.271 E47.47659
G1 X102.12 Y115.512 E47.74309
G1 X102.12 Y116.016 E47.76549
G1 X97.88 Y111.775 E48.03199
G1 X97.88 Y112.279 E48.05439
G1 X102.12 Y116.52 E48.32089
G1 X102.12 Y117.023 E48.34324
G1 X97.88 Y112.783 E48.60971
G1 X97.88 Y113.286 E48.63206
G1 X102.12 Y117.527 E48.89856
G1 X102.12 Y118.031 E48.92096
G1 X97.88 Y113.79 E49.18746
G1 X97.88 Y114.294 E49.20986
G1 X102.12 Y118.535 E49.47636
G1 X102.12 Y119.039 E49.49876
G1 X97.88 Y114.798 E49.76526
G1 X97.88 Y115.302 E49.78766
G1 X102.12 Y119.543 E50.05416
G1 X102.12 Y120.047 E50.07656
G1 X97.88 Y115.806 E50.34306
G1 X97.88 Y116.31 E50.36546
G1 X102.12 Y120.55 E50.63193
G1 X102.12 Y121.054 E50.65433
G1 X97.88 Y116.814 E50.9208
G1 X97.88 Y117.317 E50.94315
G1 X102.12 Y121.558 E51.20965
G1 X102.12 Y122.062 E51.23205
G1 X97.88 Y117.821 E51.49855
G1 X97.88 Y118.325 E51.52095
G1 X102.12 Y122.566 E51.78745
G1 X102.12 Y123.07 E51.80985
G1 X97.88 Y118.829 E52.07635
G1 X97.88 Y119.333 E52.09875
G1 X102.12 Y123.574 E52.36525
G1 X102.12 Y124.078 E52.38765
G1 X97.88 Y119.837 E52.65415
G1 X97.88 Y120.341 E52.67655
G1 X102.12 Y124.581 E52.94302
G1 X102.12 Y125.085 E52.96542
G1 X97.88 Y120.845 E53.23189
G1 X97.88 Y121.348 E53.25424
G1 X102.12 Y125.589 E53.52074
G1 X102.12 Y126.093 E53.54314
G1 X97.88 Y121.852 E53.80964
G1 X97.88 Y122.356 E53.83204
G1 X102.12 Y126.597 E54.09854
G1 X102.12 Y127.101 E54.12094
G1 X97.88 Y122.86 E54.38744
G1 X97.88 Y123.364 E54.40984
G1 X102.12 Y127.605 E54.67634
G1 X102.12 Y128.109 E54.69874
G1 X97.88 Y123.868 E54.96524
G1 X97.88 Y124.372 E54.98764
G1 X102.12 Y128.612 E55.25411
G1 X102.12 Y129.116 E55.27651
G1 X97.88 Y124.876 E55.54298
G1 X97.88 Y125.379 E55.56533
G1 X102.12 Y129.62 E55.83183
G1 X102.12 Y130.124 E55.85423
G1 X97.88 Y125.883 E56.12073
G1 X97.88 Y126.387 E56.14313
G1 X102.12 Y130.628 E56.40963
G1 X102.12 Y131.132 E56.43203
G1 X97.88 Y126.891 E56.69853
G1 X97.88 Y127.395 E56.72093
G1 X102.12 Y131.636 E56.98743
G1 X102.12 Y132.14 E57.00983
G1 X97.88 Y127.899 E57.27633
G1 X97.88 Y128.403 E57.29873
G1 X102.12 Y132.643 E57.5652
G1 X102.12 Y133.147 E57.5876
G1 X97.88 Y128.907 E57.85407
G1 X97.88 Y129.41 E57.87642
G1 X102.12 Y133.651 E58.14292
G1 X102.12 Y134.155 E58.16532
G1 X97.88 Y129.914 E58.43182
G1 X97.88 Y130.418 E58.45422
G1 X102.12 Y134.659 E58.72072
G1 X102.12 Y135.163 E58.74312
G1 X97.88 Y130.922 E59.00962
G1 X97.88 Y131.426 E59.03202
G1 X102.12 Y135.667 E59.29852
G1 X102.12 Y136.171 E59.32092
G1 X97.88 Y131.93 E59.58742
G1 X97.88 Y132.434 E59.60982
G1 X102.12 Y136.674 E59.87629
G1 X102.12 Y137.178 E59.89869
G1 X97.88 Y132.938 E60.16516
G1 X97.88 Y133.441 E60.18751
G1 X102.12 Y137.682 E60.45401
G1 X102.12 Y138.186 E60.47641
G1 X97.88 Y133.945 E60.74291
G1 X97.88 Y134.449 E60.76531
G1 X102.12 Y138.69 E61.03181
G1 X102.12 Y139.194 E61.05421
G1 X97.88 Y134.953 E61.32071
G1 X97.88 Y135.457 E61.34311
G1 X102.12 Y139.698 E61.60961
G1 X102.12 Y140.202 E61.63201
G1 X97.88 Y135.961 E61.89851
G1 X97.88 Y136.465 E61.92091
G1 X102.12 Y140.705 E62.18738
G1 X102.12 Y141.209 E62.20978
G1 X97.88 Y136.969 E62.47625
G1 X97.88 Y137.472 E62.4986
G1 X102.12 Y141.713 E62.7651
G1 X102.12 Y142.217 E62.7875
G1 X97.88 Y137.976 E63.054
G1 X97.88 Y138.48 E63.0764
G1 X102.12 Y142.721 E63.3429
G1 X102.12 Y143.225 E63.3653
G1 X97.88 Y138.984 E63.6318
G1 X97.88 Y139.488 E63.6542
G1 X102.12 Y143.729 E63.9207
G1 X102.12 Y144.233 E63.9431
G1 X97.88 Y139.992 E64.2096
G1 X97.88 Y140.496 E64.232
G1 X102.12 Y144.736 E64.49847
G1 X102.12 Y145.24 E64.52087
G1 X97.88 Y141 E64.78734
G1 X97.88 Y141.503 E64.80969
G1 X102.12 Y145.744 E65.07619
G1 X102.12 Y146.248 E65.09859
G1 X97.88 Y142.007 E65.36509
G1 X97.88 Y142.511 E65.38749
G1 X102.12 Y146.752 E65.65399
G1 X102.12 Y147.256 E65.67639
G1 X97.88 Y143.015 E65.94289
G1 X97.88 Y143.519 E65.96529
G1 X102.12 Y147.76 E66.23179
G1 X102.12 Y148.264 E66.25419
G1 X97.88 Y144.023 E66.52069
G1 X97.88 Y144.527 E66.54309
G1 X102.12 Y148.767 E66.80956
G1 X102.12 Y149.271 E66.83196
G1 X97.88 Y145.03 E67.09846
G1 X97.88 Y145.534 E67.12086
G1 X102.12 Y149.775 E67.38736
G1 X102.12 Y150.279 E67.40976
G1 X97.88 Y146.038 E67.67626
G1 X97.88 Y146.542 E67.69866
G1 X102.12 Y150.783 E67.96516
G1 X102.12 Y151.287 E67.98756
G1 X97.88 Y147.046 E68.25406
G1 X97.88 Y147.55 E68.27646
G1 X102.12 Y151.791 E68.54296
G1 X102.12 Y152.294 E68.56531
G1 X97.88 Y148.054 E68.83178
G1 X97.88 Y148.558 E68.85418
G1 X102.12 Y152.798 E69.12065
G1 X102.12 Y153.302 E69.14305
G1 X97.88 Y149.061 E69.40955
G1 X97.88 Y149.565 E69.43195
G1 X102.12 Y153.806 E69.69845
G1 X102.12 Y154.31 E69.72085
