; generated by PrusaSlicer 2.6.1+win64 on 2023-10-20 at 11:21:30 UTC

; 

; external perimeters extrusion width = 0.45mm
; perimeters extrusion width = 0.45mm
; infill extrusion width = 0.45mm
; solid infill extrusion width = 0.45mm
; top infill extrusion width = 0.40mm
; first layer extrusion width = 0.42mm

; external perimeters extrusion width = 0.45mm
; perimeters extrusion width = 0.45mm
; infill extrusion width = 0.45mm
; solid infill extrusion width = 0.45mm
; top infill extrusion width = 0.40mm
; first layer extrusion width = 0.42mm

; external perimeters extrusion width = 0.45mm
; perimeters extrusion width = 0.45mm
; infill extrusion width = 0.45mm
; solid infill extrusion width = 0.45mm
; top infill extrusion width = 0.40mm
; first layer extrusion width = 0.42mm

; external perimeters extrusion width = 0.45mm
; perimeters extrusion width = 0.45mm
; infill extrusion width = 0.45mm
; solid infill extrusion width = 0.45mm
; top infill extrusion width = 0.40mm
; first layer extrusion width = 0.42mm

; external perimeters extrusion width = 0.45mm
; perimeters extrusion width = 0.45mm
; infill extrusion width = 0.45mm
; solid infill extrusion width = 0.45mm
; top infill extrusion width = 0.40mm
; first layer extrusion width = 0.42mm

; external perimeters extrusion width = 0.45mm
; perimeters extrusion width = 0.45mm
; infill extrusion width = 0.45mm
; solid infill extrusion width = 0.45mm
; top infill extrusion width = 0.40mm
; first layer extrusion width = 0.42mm

; external perimeters extrusion width = 0.45mm
; perimeters extrusion width = 0.45mm
; infill extrusion width = 0.45mm
; solid infill extrusion width = 0.45mm
; top infill extrusion width = 0.40mm
; first layer extrusion width = 0.42mm

; external perimeters extrusion width = 0.45mm
; perimeters extrusion width = 0.45mm
; infill extrusion width = 0.45mm
; solid infill extrusion width = 0.45mm
; top infill extrusion width = 0.40mm
; first layer extrusion width = 0.42mm

; external perimeters extrusion width = 0.45mm
; perimeters extrusion width = 0.45mm
; infill extrusion width = 0.45mm
; solid infill extrusion width = 0.45mm
; top infill extrusion width = 0.40mm
; first layer extrusion width = 0.42mm

M190 S60 ; set bed temperature and wait for it to be reached


; Pre-Processed for Cancel-Object support by preprocess_cancellation v0.2.0
; 9 known objects
EXCLUDE_OBJECT_DEFINE NAME=First_Layer_Patch_0_2mm_stl_id_4_copy_0 CENTER=68.940,126.063 POLYGON=[[57.01,114.01],[57.01,137.99],[80.99,137.99],[80.99,114.01]]
EXCLUDE_OBJECT_DEFINE NAME=First_Layer_Patch_0_2mm_stl_id_7_copy_0 CENTER=99.940,64.063 POLYGON=[[88.01,52.01],[88.01,75.99],[111.99,75.99],[111.99,52.01]]
EXCLUDE_OBJECT_DEFINE NAME=First_Layer_Patch_0_2mm_stl_id_6_copy_0 CENTER=68.940,64.063 POLYGON=[[57.01,52.01],[57.01,75.99],[80.99,75.99],[80.99,52.01]]
EXCLUDE_OBJECT_DEFINE NAME=First_Layer_Patch_0_2mm_stl_id_5_copy_0 CENTER=68.940,95.063 POLYGON=[[57.01,83.01],[57.01,106.99],[80.99,106.99],[80.99,83.01]]
EXCLUDE_OBJECT_DEFINE NAME=First_Layer_Patch_0_2mm_stl_id_3_copy_0 CENTER=99.940,95.063 POLYGON=[[88.01,83.01],[88.01,106.99],[111.99,106.99],[111.99,83.01]]
EXCLUDE_OBJECT_DEFINE NAME=First_Layer_Patch_0_2mm_stl_id_1_copy_0 CENTER=99.940,126.063 POLYGON=[[88.01,114.01],[88.01,137.99],[111.99,137.99],[111.99,114.01]]
EXCLUDE_OBJECT_DEFINE NAME=First_Layer_Patch_0_2mm_stl_id_0_copy_0 CENTER=130.940,126.063 POLYGON=[[119.01,114.01],[119.01,137.99],[142.99,137.99],[142.99,114.01]]
EXCLUDE_OBJECT_DEFINE NAME=First_Layer_Patch_0_2mm_stl_id_2_copy_0 CENTER=130.940,95.063 POLYGON=[[119.01,83.01],[119.01,106.99],[142.99,106.99],[142.99,83.01]]
EXCLUDE_OBJECT_DEFINE NAME=First_Layer_Patch_0_2mm_stl_id_8_copy_0 CENTER=130.940,64.063 POLYGON=[[119.01,52.01],[119.01,75.99],[142.99,75.99],[142.99,52.01]]
M104 S200 ; set temperature
;TYPE:Custom
START_PRINT
M109 S200 ; set temperature and wait for it to be reached
G21 ; set units to millimeters
G90 ; use absolute coordinates
M82 ; use absolute distances for extrusion
G92 E0
; Filament gcode
M107
;LAYER_CHANGE
;Z:0.2
;HEIGHT:0.2
G1 Z.2 F7800
G1 E-2 F2400
G92 E0
G1 X51.661 Y47.347 F7800
G1 E2 F2400
;TYPE:Skirt/Brim
;WIDTH:0.42
G1 F1800
G1 X53.404 Y45.925 E2.07053
G1 X56.5 Y45.123 E2.17081
G1 X143.5 Y45.123 E4.89863
G1 X145.715 Y45.52 E4.96919
G1 X147.653 Y46.661 E5.0397
G1 X149.075 Y48.404 E5.11023
G1 X149.877 Y51.5 E5.21051
G1 X149.877 Y138.5 E7.93833
G1 X149.48 Y140.715 E8.00889
G1 X148.339 Y142.653 E8.0794
G1 X146.596 Y144.075 E8.14993
G1 X143.5 Y144.877 E8.25021
G1 X56.5 Y144.877 E10.97803
G1 X54.285 Y144.48 E11.04859
G1 X52.347 Y143.339 E11.1191
G1 X50.925 Y141.596 E11.18963
G1 X50.123 Y138.5 E11.28991
G1 X50.123 Y51.5 E14.01773
G1 X50.52 Y49.285 E14.08829
G1 X51.631 Y47.398 E14.15695
; printing object First_Layer_Patch-0.2mm.stl id:4 copy 0
EXCLUDE_OBJECT_START NAME=First_Layer_Patch_0_2mm_stl_id_4_copy_0
G1 E12.15695 F2400
G92 E0
G1 X80.236 Y137.236 F7800
G1 E2 F2400
;TYPE:Perimeter
;WIDTH:0.419999
G1 F1800
G1 X57.764 Y137.236 E2.70459
G1 X57.764 Y114.764 E3.40918
G1 X80.236 Y114.764 E4.11377
G1 X80.236 Y137.176 E4.81648
G1 X80.613 Y137.613 F7800
G1 F1800
G1 X57.387 Y137.613 E5.54471
G1 X57.387 Y114.387 E6.27294
G1 X80.613 Y114.387 E7.00117
G1 X80.613 Y137.553 E7.72752
G1 X80.99 Y137.99 F7800
;TYPE:External perimeter
G1 F1800
G1 X57.01 Y137.99 E8.47939
G1 X57.01 Y114.01 E9.23126
G1 X80.99 Y114.01 E9.98313
G1 X80.99 Y137.93 E10.73312
G1 X80.604 Y137.886 F7800
G1 E8.73312 F2400
G92 E0
G1 X79.355 Y114.877 F7800
G1 E2 F2400
;TYPE:Solid infill
;WIDTH:0.422596
G1 F1800
G1 X79.953 Y115.475 E2.0267
G1 X79.953 Y116.012 E2.04365
G1 X78.988 Y115.047 E2.08673
G1 X78.451 Y115.047 E2.10368
G1 X79.953 Y116.549 E2.17074
G1 X79.953 Y117.086 E2.18769
G1 X77.914 Y115.047 E2.27873
G1 X77.377 Y115.047 E2.29568
G1 X79.953 Y117.623 E2.41069
G1 X79.953 Y118.16 E2.42764
G1 X76.84 Y115.047 E2.56663
G1 X76.303 Y115.047 E2.58358
G1 X79.953 Y118.697 E2.74654
G1 X79.953 Y119.234 E2.76349
G1 X75.766 Y115.047 E2.95043
G1 X75.229 Y115.047 E2.96738
G1 X79.953 Y119.771 E3.17829
G1 X79.953 Y120.308 E3.19524
G1 X74.692 Y115.047 E3.43013
G1 X74.155 Y115.047 E3.44708
G1 X79.953 Y120.845 E3.70594
G1 X79.953 Y121.382 E3.72289
G1 X73.618 Y115.047 E4.00573
G1 X73.081 Y115.047 E4.02268
G1 X79.953 Y121.919 E4.32949
G1 X79.953 Y122.456 E4.34644
G1 X72.544 Y115.047 E4.67723
G1 X72.007 Y115.047 E4.69418
G1 X79.953 Y122.993 E5.04894
G1 X79.953 Y123.53 E5.06589
G1 X71.47 Y115.047 E5.44463
G1 X70.934 Y115.047 E5.46155
G1 X79.953 Y124.066 E5.86422
G1 X79.953 Y124.603 E5.88117
G1 X70.397 Y115.047 E6.30782
G1 X69.86 Y115.047 E6.32477
G1 X79.953 Y125.14 E6.77539
G1 X79.953 Y125.677 E6.79234
G1 X69.323 Y115.047 E7.26694
G1 X68.786 Y115.047 E7.28389
G1 X79.953 Y126.214 E7.78246
G1 X79.953 Y126.751 E7.79941
G1 X68.249 Y115.047 E8.32196
G1 X67.712 Y115.047 E8.33891
G1 X79.953 Y127.288 E8.88543
G1 X79.953 Y127.825 E8.90238
G1 X67.175 Y115.047 E9.47288
G1 X66.638 Y115.047 E9.48983
G1 X79.953 Y128.362 E10.0843
G1 X79.953 Y128.899 E10.10125
G1 X66.101 Y115.047 E10.7197
G1 X65.564 Y115.047 E10.73665
G1 X79.953 Y129.436 E11.37908
G1 X79.953 Y129.973 E11.39603
G1 X65.027 Y115.047 E12.06243
G1 X64.49 Y115.047 E12.07938
G1 X79.953 Y130.51 E12.76976
G1 X79.953 Y131.047 E12.78671
G1 X63.953 Y115.047 E13.50106
G1 X63.416 Y115.047 E13.51801
G1 X79.953 Y131.584 E14.25634
G1 X79.953 Y132.121 E14.27329
G1 X62.879 Y115.047 E15.03559
G1 X62.342 Y115.047 E15.05254
G1 X79.953 Y132.658 E15.83882
G1 X79.953 Y133.194 E15.85574
G1 X61.806 Y115.047 E16.66595
G1 X61.269 Y115.047 E16.6829
G1 X79.953 Y133.731 E17.51708
G1 X79.953 Y134.268 E17.53403
G1 X60.732 Y115.047 E18.39219
G1 X60.195 Y115.047 E18.40914
G1 X79.953 Y134.805 E19.29128
G1 X79.953 Y135.342 E19.30823
G1 X59.658 Y115.047 E20.21434
G1 X59.121 Y115.047 E20.23129
G1 X79.953 Y135.879 E21.16138
G1 X79.953 Y136.416 E21.17833
G1 X58.584 Y115.047 E22.13239
G1 X58.047 Y115.047 E22.14934
G1 X79.953 Y136.953 E23.12738
G1 X79.416 Y136.953 E23.14433
G1 X58.047 Y115.584 E24.09839
G1 X58.047 Y116.121 E24.11534
G1 X78.879 Y136.953 E25.04543
G1 X78.342 Y136.953 E25.06238
G1 X58.047 Y116.658 E25.96849
G1 X58.047 Y117.195 E25.98544
G1 X77.805 Y136.953 E26.86758
G1 X77.268 Y136.953 E26.88453
G1 X58.047 Y117.732 E27.74269
G1 X58.047 Y118.269 E27.75964
G1 X76.731 Y136.953 E28.59382
G1 X76.194 Y136.953 E28.61077
G1 X58.047 Y118.806 E29.42098
G1 X58.047 Y119.343 E29.43793
G1 X75.657 Y136.953 E30.22416
G1 X75.12 Y136.953 E30.24111
G1 X58.047 Y119.88 E31.00337
G1 X58.047 Y120.416 E31.02029
G1 X74.584 Y136.953 E31.75862
G1 X74.047 Y136.953 E31.77557
G1 X58.047 Y120.953 E32.48992
G1 X58.047 Y121.49 E32.50687
G1 X73.51 Y136.953 E33.19725
G1 X72.973 Y136.953 E33.2142
G1 X58.047 Y122.027 E33.8806
G1 X58.047 Y122.564 E33.89755
G1 X72.436 Y136.953 E34.53998
G1 X71.899 Y136.953 E34.55693
G1 X58.047 Y123.101 E35.17538
G1 X58.047 Y123.638 E35.19233
G1 X71.362 Y136.953 E35.7868
G1 X70.825 Y136.953 E35.80375
G1 X58.047 Y124.175 E36.37425
G1 X58.047 Y124.712 E36.3912
G1 X70.288 Y136.953 E36.93772
G1 X69.751 Y136.953 E36.95467
G1 X58.047 Y125.249 E37.47722
G1 X58.047 Y125.786 E37.49417
G1 X69.214 Y136.953 E37.99274
G1 X68.677 Y136.953 E38.00969
G1 X58.047 Y126.323 E38.48429
G1 X58.047 Y126.86 E38.50124
G1 X68.14 Y136.953 E38.95186
G1 X67.603 Y136.953 E38.96881
G1 X58.047 Y127.397 E39.39546
G1 X58.047 Y127.934 E39.41241
G1 X67.066 Y136.953 E39.81508
G1 X66.529 Y136.953 E39.83203
G1 X58.047 Y128.471 E40.21073
G1 X58.047 Y129.008 E40.22768
G1 X65.992 Y136.953 E40.5824
G1 X65.456 Y136.953 E40.59932
G1 X58.047 Y129.544 E40.93011
G1 X58.047 Y130.081 E40.94706
G1 X64.919 Y136.953 E41.25387
G1 X64.382 Y136.953 E41.27082
G1 X58.047 Y130.618 E41.55366
G1 X58.047 Y131.155 E41.57061
G1 X63.845 Y136.953 E41.82947
G1 X63.308 Y136.953 E41.84642
G1 X58.047 Y131.692 E42.08131
G1 X58.047 Y132.229 E42.09826
G1 X62.771 Y136.953 E42.30917
G1 X62.234 Y136.953 E42.32612
G1 X58.047 Y132.766 E42.51306
G1 X58.047 Y133.303 E42.53001
G1 X61.697 Y136.953 E42.69297
G1 X61.16 Y136.953 E42.70992
G1 X58.047 Y133.84 E42.84891
G1 X58.047 Y134.377 E42.86586
G1 X60.623 Y136.953 E42.98087
G1 X60.086 Y136.953 E42.99782
G1 X58.047 Y134.914 E43.08886
G1 X58.047 Y135.451 E43.10581
G1 X59.549 Y136.953 E43.17287
G1 X59.012 Y136.953 E43.18982
G1 X58.047 Y135.988 E43.2329
G1 X58.047 Y136.525 E43.24985
G1 X58.645 Y137.123 E43.27655
; stop printing object First_Layer_Patch-0.2mm.stl id:4 copy 0
EXCLUDE_OBJECT_END NAME=First_Layer_Patch_0_2mm_stl_id_4_copy_0
; printing object First_Layer_Patch-0.2mm.stl id:7 copy 0
EXCLUDE_OBJECT_START NAME=First_Layer_Patch_0_2mm_stl_id_7_copy_0
G1 E41.27655 F2400
G92 E0
G1 X111.236 Y75.236 F7800
G1 E2 F2400
;TYPE:Perimeter
;WIDTH:0.419999
G1 F1800
G1 X88.764 Y75.236 E2.70459
G1 X88.764 Y52.764 E3.40918
G1 X111.236 Y52.764 E4.11377
G1 X111.236 Y75.176 E4.81648
G1 X111.613 Y75.613 F7800
G1 F1800
G1 X88.387 Y75.613 E5.54471
G1 X88.387 Y52.387 E6.27294
G1 X111.613 Y52.387 E7.00117
G1 X111.613 Y75.553 E7.72752
G1 X111.99 Y75.99 F7800
;TYPE:External perimeter
G1 F1800
G1 X88.01 Y75.99 E8.47939
G1 X88.01 Y52.01 E9.23126
G1 X111.99 Y52.01 E9.98313
G1 X111.99 Y75.93 E10.73312
G1 X111.604 Y75.886 F7800
G1 E8.73312 F2400
G92 E0
G1 X110.355 Y52.877 F7800
G1 E2 F2400
;TYPE:Solid infill
;WIDTH:0.422596
G1 F1800
G1 X110.953 Y53.475 E2.0267
G1 X110.953 Y54.012 E2.04365
G1 X109.988 Y53.047 E2.08673
G1 X109.451 Y53.047 E2.10368
G1 X110.953 Y54.549 E2.17074
G1 X110.953 Y55.086 E2.18769
G1 X108.914 Y53.047 E2.27873
G1 X108.377 Y53.047 E2.29568
G1 X110.953 Y55.623 E2.41069
G1 X110.953 Y56.16 E2.42764
G1 X107.84 Y53.047 E2.56663
G1 X107.303 Y53.047 E2.58358
G1 X110.953 Y56.697 E2.74654
G1 X110.953 Y57.234 E2.76349
G1 X106.766 Y53.047 E2.95043
G1 X106.229 Y53.047 E2.96738
G1 X110.953 Y57.771 E3.17829
G1 X110.953 Y58.308 E3.19524
G1 X105.692 Y53.047 E3.43013
G1 X105.155 Y53.047 E3.44708
G1 X110.953 Y58.845 E3.70594
G1 X110.953 Y59.382 E3.72289
G1 X104.618 Y53.047 E4.00573
G1 X104.081 Y53.047 E4.02268
G1 X110.953 Y59.919 E4.32949
G1 X110.953 Y60.456 E4.34644
G1 X103.544 Y53.047 E4.67723
G1 X103.007 Y53.047 E4.69418
G1 X110.953 Y60.993 E5.04894
G1 X110.953 Y61.53 E5.06589
G1 X102.47 Y53.047 E5.44463
G1 X101.934 Y53.047 E5.46155
G1 X110.953 Y62.066 E5.86422
G1 X110.953 Y62.603 E5.88117
G1 X101.397 Y53.047 E6.30782
G1 X100.86 Y53.047 E6.32477
G1 X110.953 Y63.14 E6.77539
G1 X110.953 Y63.677 E6.79234
G1 X100.323 Y53.047 E7.26694
G1 X99.786 Y53.047 E7.28389
G1 X110.953 Y64.214 E7.78246
G1 X110.953 Y64.751 E7.79941
G1 X99.249 Y53.047 E8.32196
G1 X98.712 Y53.047 E8.33891
G1 X110.953 Y65.288 E8.88543
G1 X110.953 Y65.825 E8.90238
G1 X98.175 Y53.047 E9.47288
G1 X97.638 Y53.047 E9.48983
G1 X110.953 Y66.362 E10.0843
G1 X110.953 Y66.899 E10.10125
G1 X97.101 Y53.047 E10.7197
G1 X96.564 Y53.047 E10.73665
G1 X110.953 Y67.436 E11.37908
G1 X110.953 Y67.973 E11.39603
G1 X96.027 Y53.047 E12.06243
G1 X95.49 Y53.047 E12.07938
G1 X110.953 Y68.51 E12.76976
G1 X110.953 Y69.047 E12.78671
G1 X94.953 Y53.047 E13.50106
G1 X94.416 Y53.047 E13.51801
G1 X110.953 Y69.584 E14.25634
G1 X110.953 Y70.121 E14.27329
G1 X93.879 Y53.047 E15.03559
G1 X93.342 Y53.047 E15.05254
G1 X110.953 Y70.658 E15.83882
G1 X110.953 Y71.194 E15.85574
G1 X92.806 Y53.047 E16.66595
G1 X92.269 Y53.047 E16.6829
G1 X110.953 Y71.731 E17.51708
G1 X110.953 Y72.268 E17.53403
G1 X91.732 Y53.047 E18.39219
G1 X91.195 Y53.047 E18.40914
G1 X110.953 Y72.805 E19.29128
G1 X110.953 Y73.342 E19.30823
G1 X90.658 Y53.047 E20.21434
G1 X90.121 Y53.047 E20.23129
G1 X110.953 Y73.879 E21.16138
G1 X110.953 Y74.416 E21.17833
G1 X89.584 Y53.047 E22.13239
G1 X89.047 Y53.047 E22.14934
G1 X110.953 Y74.953 E23.12738
G1 X110.416 Y74.953 E23.14433
G1 X89.047 Y53.584 E24.09839
G1 X89.047 Y54.121 E24.11534
G1 X109.879 Y74.953 E25.04543
G1 X109.342 Y74.953 E25.06238
G1 X89.047 Y54.658 E25.96849
G1 X89.047 Y55.195 E25.98544
G1 X108.805 Y74.953 E26.86758
G1 X108.268 Y74.953 E26.88453
G1 X89.047 Y55.732 E27.74269
G1 X89.047 Y56.269 E27.75964
G1 X107.731 Y74.953 E28.59382
G1 X107.194 Y74.953 E28.61077
G1 X89.047 Y56.806 E29.42098
G1 X89.047 Y57.343 E29.43793
G1 X106.657 Y74.953 E30.22416
G1 X106.12 Y74.953 E30.24111
G1 X89.047 Y57.88 E31.00337
G1 X89.047 Y58.416 E31.02029
G1 X105.584 Y74.953 E31.75862
G1 X105.047 Y74.953 E31.77557
G1 X89.047 Y58.953 E32.48992
G1 X89.047 Y59.49 E32.50687
G1 X104.51 Y74.953 E33.19725
G1 X103.973 Y74.953 E33.2142
G1 X89.047 Y60.027 E33.8806
G1 X89.047 Y60.564 E33.89755
G1 X103.436 Y74.953 E34.53998
G1 X102.899 Y74.953 E34.55693
G1 X89.047 Y61.101 E35.17538
G1 X89.047 Y61.638 E35.19233
G1 X102.362 Y74.953 E35.7868
G1 X101.825 Y74.953 E35.80375
G1 X89.047 Y62.175 E36.37425
G1 X89.047 Y62.712 E36.3912
G1 X101.288 Y74.953 E36.93772
G1 X100.751 Y74.953 E36.95467
G1 X89.047 Y63.249 E37.47722
G1 X89.047 Y63.786 E37.49417
G1 X100.214 Y74.953 E37.99274
G1 X99.677 Y74.953 E38.00969
G1 X89.047 Y64.323 E38.48429
G1 X89.047 Y64.86 E38.50124
G1 X99.14 Y74.953 E38.95186
G1 X98.603 Y74.953 E38.96881
G1 X89.047 Y65.397 E39.39546
G1 X89.047 Y65.934 E39.41241
G1 X98.066 Y74.953 E39.81508
G1 X97.529 Y74.953 E39.83203
G1 X89.047 Y66.471 E40.21073
G1 X89.047 Y67.008 E40.22768
G1 X96.992 Y74.953 E40.5824
G1 X96.456 Y74.953 E40.59932
G1 X89.047 Y67.544 E40.93011
G1 X89.047 Y68.081 E40.94706
G1 X95.919 Y74.953 E41.25387
G1 X95.382 Y74.953 E41.27082
G1 X89.047 Y68.618 E41.55366
G1 X89.047 Y69.155 E41.57061
G1 X94.845 Y74.953 E41.82947
G1 X94.308 Y74.953 E41.84642
G1 X89.047 Y69.692 E42.08131
G1 X89.047 Y70.229 E42.09826
G1 X93.771 Y74.953 E42.30917
G1 X93.234 Y74.953 E42.32612
G1 X89.047 Y70.766 E42.51306
G1 X89.047 Y71.303 E42.53001
G1 X92.697 Y74.953 E42.69297
G1 X92.16 Y74.953 E42.70992
G1 X89.047 Y71.84 E42.84891
G1 X89.047 Y72.377 E42.86586
G1 X91.623 Y74.953 E42.98087
G1 X91.086 Y74.953 E42.99782
G1 X89.047 Y72.914 E43.08886
G1 X89.047 Y73.451 E43.10581
G1 X90.549 Y74.953 E43.17287
G1 X90.012 Y74.953 E43.18982
G1 X89.047 Y73.988 E43.2329
G1 X89.047 Y74.525 E43.24985
G1 X89.645 Y75.123 E43.27655
; stop printing object First_Layer_Patch-0.2mm.stl id:7 copy 0
