; generated by PrusaSlicer 2.6.1+win64 on 2023-10-20 at 09:11:18 UTC

; 

; external perimeters extrusion width = 0.45mm
; perimeters extrusion width = 0.45mm
; infill extrusion width = 0.45mm
; solid infill extrusion width = 0.45mm
; top infill extrusion width = 0.40mm
; first layer extrusion width = 0.42mm

M190 S60 ; set bed temperature and wait for it to be reached


; Pre-Processed for Cancel-Object support by preprocess_cancellation v0.2.0
; 1 known objects
EXCLUDE_OBJECT_DEFINE NAME=firstlayer60x60mm_stl_id_0_copy_0 CENTER=100.045,95.048 POLYGON=[[70.51,65.51],[70.51,124.49],[129.49,124.49],[129.49,65.51]]
M104 S200 ; set temperature
;TYPE:Custom
START_PRINT
M109 S200 ; set temperature and wait for it to be reached
G21 ; set units to millimeters
G90 ; use absolute coordinates
M82 ; use absolute distances for extrusion
G92 E0
; Filament gcode
M107
;LAYER_CHANGE
;Z:0.3
;HEIGHT:0.3
G1 Z.3 F7800
G1 E-2 F2400
G92 E0
G1 X67.105 Y61.853 F7800
G1 E2 F2400
;TYPE:Skirt/Brim
;WIDTH:0.42
G1 F1800
G1 X67.917 Y61.133 E2.04814
G1 X68.488 Y60.706 E2.07977
G1 X69.877 Y59.874 E2.15159
G1 X71.37 Y59.248 E2.2234
G1 X72.937 Y58.841 E2.29521
G1 X73.835 Y58.711 E2.33546
G1 X75 Y58.644 E2.38722
G1 X125.453 Y58.661 E4.62505
G1 X127.063 Y58.841 E4.69691
G1 X128.63 Y59.248 E4.76872
G1 X129.298 Y59.497 E4.80034
G1 X130.123 Y59.874 E4.84057
G1 X131.512 Y60.706 E4.91239
G1 X132.768 Y61.727 E4.98418
G1 X133.974 Y63.06 E5.06391
G1 X135.126 Y64.877 E5.15934
G1 X135.752 Y66.37 E5.23115
G1 X136.159 Y67.937 E5.30296
G1 X136.289 Y68.835 E5.34321
G1 X136.356 Y70 E5.39497
G1 X136.339 Y120.453 E7.6328
G1 X136.159 Y122.063 E7.70466
G1 X135.752 Y123.63 E7.77647
G1 X135.503 Y124.298 E7.80809
G1 X134.784 Y125.749 E7.87992
G1 X133.867 Y127.083 E7.95172
G1 X133.273 Y127.768 E7.99194
G1 X132.083 Y128.867 E8.06379
G1 X131.512 Y129.294 E8.09542
G1 X130.123 Y130.126 E8.16724
G1 X129.298 Y130.503 E8.20747
G1 X127.76 Y131.008 E8.27927
G1 X126.165 Y131.289 E8.35111
G1 X125 Y131.356 E8.40287
G1 X74.547 Y131.339 E10.6407
G1 X72.937 Y131.159 E10.71256
G1 X71.37 Y130.752 E10.78437
G1 X70.702 Y130.503 E10.81599
G1 X69.251 Y129.784 E10.88782
G1 X67.917 Y128.867 E10.95962
G1 X67.232 Y128.273 E10.99984
G1 X66.133 Y127.083 E11.07169
G1 X65.706 Y126.512 E11.10332
G1 X64.874 Y125.123 E11.17514
G1 X64.497 Y124.298 E11.21537
G1 X63.992 Y122.76 E11.28717
G1 X63.711 Y121.165 E11.35901
G1 X63.644 Y120 E11.41077
G1 X63.661 Y69.547 E13.6486
G1 X63.841 Y67.937 E13.72046
G1 X64.31 Y66.203 E13.80013
G1 X65.216 Y64.251 E13.89558
G1 X66.133 Y62.917 E13.96738
G1 X67.065 Y61.898 E14.02863
; printing object firstlayer60x60mm.stl id:0 copy 0
EXCLUDE_OBJECT_START NAME=firstlayer60x60mm_stl_id_0_copy_0
G1 E12.02863 F2400
G92 E0
G1 X73.432 Y66.566 F7800
G1 E2 F2400
;TYPE:Perimeter
;WIDTH:0.42
G1 F1800
G1 X73.936 Y66.377 E2.02387
G1 X74.463 Y66.263 E2.04779
G1 X75.044 Y66.221 E2.07363
G1 X124.989 Y66.233 E4.28893
G1 X125.537 Y66.263 E4.31327
G1 X126.064 Y66.377 E4.33719
G1 X126.568 Y66.566 E4.36106
G1 X127.041 Y66.824 E4.38496
G1 X127.473 Y67.147 E4.40888
G1 X127.853 Y67.527 E4.43272
G1 X128.176 Y67.959 E4.45664
G1 X128.434 Y68.432 E4.48054
G1 X128.623 Y68.936 E4.50441
G1 X128.737 Y69.463 E4.52833
G1 X128.779 Y70.185 E4.56041
G1 X128.779 Y119.956 E6.76799
G1 X128.737 Y120.537 E6.79383
G1 X128.623 Y121.064 E6.81775
G1 X128.434 Y121.568 E6.84162
G1 X128.176 Y122.041 E6.86552
G1 X127.853 Y122.473 E6.88944
G1 X127.473 Y122.853 E6.91328
G1 X127.041 Y123.176 E6.9372
G1 X126.568 Y123.434 E6.9611
G1 X126.064 Y123.623 E6.98497
G1 X125.537 Y123.737 E7.00889
G1 X124.956 Y123.779 E7.03473
G1 X75.044 Y123.779 E9.24856
G1 X74.463 Y123.737 E9.2744
G1 X73.936 Y123.623 E9.29832
G1 X73.432 Y123.434 E9.32219
G1 X72.959 Y123.176 E9.34609
G1 X72.527 Y122.853 E9.37001
G1 X72.147 Y122.473 E9.39385
G1 X71.824 Y122.041 E9.41777
G1 X71.566 Y121.568 E9.44167
G1 X71.377 Y121.064 E9.46554
G1 X71.263 Y120.537 E9.48946
G1 X71.221 Y119.956 E9.5153
G1 X71.221 Y70.044 E11.72913
G1 X71.263 Y69.463 E11.75497
G1 X71.377 Y68.936 E11.77889
G1 X71.566 Y68.432 E11.80276
G1 X71.824 Y67.959 E11.82666
G1 X72.147 Y67.527 E11.85058
G1 X72.527 Y67.147 E11.87442
G1 X72.959 Y66.824 E11.89834
G1 X73.379 Y66.594 E11.91958
G1 X73.283 Y66.241 F7800
G1 F1800
G1 X73.836 Y66.035 E11.94575
G1 X74.412 Y65.91 E11.97189
G1 X75.031 Y65.866 E11.99941
G1 X124.989 Y65.878 E14.21529
G1 X125.588 Y65.91 E14.2419
G1 X126.164 Y66.035 E14.26804
G1 X126.717 Y66.241 E14.29421
G1 X127.234 Y66.524 E14.32035
G1 X127.706 Y66.877 E14.34649
G1 X128.123 Y67.294 E14.37265
G1 X128.476 Y67.766 E14.39879
G1 X128.759 Y68.283 E14.42493
G1 X128.965 Y68.836 E14.4511
G1 X129.09 Y69.412 E14.47724
G1 X129.134 Y70.185 E14.51158
G1 X129.134 Y119.969 E16.71974
G1 X129.09 Y120.588 E16.74726
G1 X128.965 Y121.164 E16.7734
G1 X128.759 Y121.717 E16.79957
G1 X128.476 Y122.234 E16.82571
G1 X128.123 Y122.706 E16.85185
G1 X127.706 Y123.123 E16.87801
G1 X127.234 Y123.476 E16.90415
G1 X126.717 Y123.759 E16.93029
G1 X126.164 Y123.965 E16.95646
G1 X125.588 Y124.09 E16.9826
G1 X124.969 Y124.134 E17.01012
G1 X75.031 Y124.134 E19.22511
G1 X74.412 Y124.09 E19.25263
G1 X73.836 Y123.965 E19.27877
G1 X73.283 Y123.759 E19.30494
G1 X72.766 Y123.476 E19.33108
G1 X72.294 Y123.123 E19.35722
G1 X71.877 Y122.706 E19.38338
G1 X71.524 Y122.234 E19.40952
G1 X71.241 Y121.717 E19.43566
G1 X71.035 Y121.164 E19.46183
G1 X70.91 Y120.588 E19.48797
G1 X70.866 Y119.969 E19.51549
G1 X70.866 Y70.031 E21.73048
G1 X70.91 Y69.412 E21.758
G1 X71.035 Y68.836 E21.78414
G1 X71.241 Y68.283 E21.81031
G1 X71.524 Y67.766 E21.83645
G1 X71.877 Y67.294 E21.86259
G1 X72.294 Y66.877 E21.88875
G1 X72.766 Y66.524 E21.91489
G1 X73.231 Y66.27 E21.93839
G1 X73.135 Y65.917 F7800
;TYPE:External perimeter
G1 F1800
G1 X73.735 Y65.693 E21.9668
G1 X74.361 Y65.557 E21.99521
G1 X75.018 Y65.51 E22.02443
G1 X124.828 Y65.522 E24.23374
G1 X125.319 Y65.534 E24.25552
G1 X125.952 Y65.625 E24.28389
G1 X126.565 Y65.805 E24.31223
G1 X127.146 Y66.07 E24.34055
G1 X127.683 Y66.416 E24.36888
G1 X128.166 Y66.834 E24.39721
G1 X128.584 Y67.317 E24.42554
G1 X128.93 Y67.854 E24.45387
G1 X129.195 Y68.435 E24.48219
G1 X129.375 Y69.048 E24.51053
G1 X129.466 Y69.681 E24.5389
G1 X129.49 Y70.185 E24.56128
G1 X129.49 Y119.982 E26.77001
G1 X129.443 Y120.639 E26.79923
G1 X129.307 Y121.265 E26.82764
G1 X129.083 Y121.865 E26.85605
G1 X128.776 Y122.427 E26.88445
G1 X128.392 Y122.939 E26.91284
G1 X127.939 Y123.392 E26.94126
G1 X127.427 Y123.776 E26.96965
G1 X126.865 Y124.083 E26.99805
G1 X126.265 Y124.307 E27.02646
G1 X125.639 Y124.443 E27.05487
G1 X124.982 Y124.49 E27.08409
G1 X75.018 Y124.49 E29.30023
G1 X74.361 Y124.443 E29.32945
G1 X73.735 Y124.307 E29.35786
G1 X73.135 Y124.083 E29.38627
G1 X72.573 Y123.776 E29.41467
G1 X72.061 Y123.392 E29.44306
G1 X71.608 Y122.939 E29.47148
G1 X71.224 Y122.427 E29.49987
G1 X70.917 Y121.865 E29.52827
G1 X70.693 Y121.265 E29.55668
G1 X70.557 Y120.639 E29.58509
G1 X70.51 Y119.982 E29.61431
G1 X70.51 Y70.018 E31.83045
G1 X70.557 Y69.361 E31.85967
G1 X70.693 Y68.735 E31.88808
G1 X70.917 Y68.135 E31.91649
G1 X71.224 Y67.573 E31.94489
G1 X71.608 Y67.061 E31.97328
G1 X72.061 Y66.608 E32.0017
G1 X72.573 Y66.224 E32.03009
G1 X73.083 Y65.946 E32.05585
G1 X73.461 Y66.149 F7800
G1 E30.05585 F2400
G92 E0
G1 X128.233 Y68.285 F7800
G1 E2 F2400
;TYPE:Solid infill
;WIDTH:0.420841
G1 F1800
G1 X127.295 Y67.347 E2.05898
G1 X126.897 Y67.049 E2.08109
G1 X126.457 Y66.809 E2.10337
G1 X126.131 Y66.687 E2.11885
G1 X128.313 Y68.869 E2.25604
G1 X128.366 Y69.012 E2.26282
G1 X128.475 Y69.535 E2.28657
G1 X125.465 Y66.525 E2.47583
G1 X124.936 Y66.5 E2.49938
G1 X128.512 Y70.076 E2.72422
G1 X128.512 Y70.58 E2.74663
G1 X124.431 Y66.5 E3.00319
G1 X123.927 Y66.5 E3.0256
G1 X128.512 Y71.085 E3.31388
G1 X128.512 Y71.589 E3.33629
G1 X123.423 Y66.499 E3.65629
G1 X122.919 Y66.499 E3.6787
G1 X128.512 Y72.093 E4.03039
G1 X128.512 Y72.597 E4.0528
G1 X122.414 Y66.499 E4.43621
G1 X121.91 Y66.499 E4.45862
G1 X128.512 Y73.101 E4.87372
G1 X128.512 Y73.605 E4.89613
G1 X121.406 Y66.499 E5.34292
G1 X120.902 Y66.499 E5.36533
G1 X128.512 Y74.109 E5.84381
G1 X128.512 Y74.613 E5.86622
G1 X120.398 Y66.499 E6.37639
G1 X119.893 Y66.499 E6.39884
G1 X128.512 Y75.117 E6.94073
G1 X128.512 Y75.621 E6.96314
G1 X119.389 Y66.499 E7.53672
G1 X118.885 Y66.498 E7.55913
G1 X128.512 Y76.126 E8.16446
G1 X128.512 Y76.63 E8.18687
G1 X118.381 Y66.498 E8.82389
G1 X117.876 Y66.498 E8.84634
G1 X128.512 Y77.134 E9.51508
G1 X128.512 Y77.638 E9.53749
G1 X117.372 Y66.498 E10.23792
G1 X116.868 Y66.498 E10.26033
G1 X128.512 Y78.142 E10.99245
G1 X128.512 Y78.646 E11.01486
G1 X116.364 Y66.498 E11.77867
G1 X115.859 Y66.498 E11.80112
G1 X128.512 Y79.15 E12.59665
G1 X128.512 Y79.654 E12.61906
G1 X115.355 Y66.498 E13.44628
G1 X114.851 Y66.497 E13.46869
G1 X128.512 Y80.158 E14.32763
G1 X128.512 Y80.663 E14.35008
G1 X114.347 Y66.497 E15.24074
G1 X113.843 Y66.497 E15.26315
G1 X128.512 Y81.167 E16.1855
G1 X128.512 Y81.671 E16.20791
G1 X113.338 Y66.497 E17.16198
G1 X112.834 Y66.497 E17.18439
G1 X128.512 Y82.175 E18.17015
G1 X128.512 Y82.679 E18.19256
G1 X112.33 Y66.497 E19.21001
G1 X111.826 Y66.497 E19.23242
G1 X128.512 Y83.183 E20.28156
G1 X128.512 Y83.687 E20.30397
G1 X111.321 Y66.497 E21.38483
G1 X110.817 Y66.496 E21.40724
G1 X128.512 Y84.191 E22.51982
G1 X128.512 Y84.695 E22.54223
G1 X110.313 Y66.496 E23.6865
G1 X109.809 Y66.496 E23.70891
G1 X128.512 Y85.2 E24.8849
G1 X128.512 Y85.704 E24.90731
G1 X109.304 Y66.496 E26.11502
G1 X108.8 Y66.496 E26.13743
G1 X128.512 Y86.208 E27.37683
G1 X128.512 Y86.712 E27.39924
G1 X108.296 Y66.496 E28.67033
G1 X107.792 Y66.496 E28.69274
G1 X128.512 Y87.216 E29.99552
G1 X128.512 Y87.72 E30.01793
G1 X107.288 Y66.496 E31.3524
G1 X106.783 Y66.496 E31.37485
G1 X128.512 Y88.224 E32.74104
G1 X128.512 Y88.728 E32.76345
G1 X106.279 Y66.495 E34.16136
G1 X105.775 Y66.495 E34.18377
G1 X128.512 Y89.232 E35.61337
G1 X128.512 Y89.737 E35.63582
G1 X105.271 Y66.495 E37.09714
G1 X104.766 Y66.495 E37.11959
G1 X128.512 Y90.241 E38.61263
G1 X128.512 Y90.745 E38.63504
G1 X104.262 Y66.495 E40.15977
G1 X103.758 Y66.495 E40.18218
G1 X128.512 Y91.249 E41.7386
G1 X128.512 Y91.753 E41.76101
G1 X103.254 Y66.495 E43.34912
G1 X102.749 Y66.495 E43.37157
G1 X128.512 Y92.257 E44.9914
G1 X128.512 Y92.761 E45.01381
G1 X102.245 Y66.494 E46.66536
G1 X101.741 Y66.494 E46.68777
G1 X128.512 Y93.265 E48.37101
G1 X128.512 Y93.769 E48.39342
G1 X101.237 Y66.494 E50.10835
G1 X100.733 Y66.494 E50.13076
G1 X128.512 Y94.274 E51.87741
G1 X128.512 Y94.778 E51.89982
G1 X100.228 Y66.494 E53.67819
G1 X99.724 Y66.494 E53.7006
G1 X128.512 Y95.282 E55.51066
G1 X128.512 Y95.786 E55.53307
G1 X99.22 Y66.494 E57.37482
G1 X98.716 Y66.494 E57.39723
G1 X128.512 Y96.29 E59.27067
G1 X128.512 Y96.794 E59.29308
G1 X98.211 Y66.493 E61.19827
G1 X97.707 Y66.493 E61.22068
G1 X128.512 Y97.298 E63.15756
G1 X128.512 Y97.802 E63.17997
G1 X97.203 Y66.493 E65.14854
G1 X96.699 Y66.493 E65.17095
G1 X128.512 Y98.306 E67.17121
G1 X128.512 Y98.811 E67.19366
G1 X96.194 Y66.493 E69.22567
G1 X95.69 Y66.493 E69.24808
G1 X128.512 Y99.315 E71.31178
G1 X128.512 Y99.819 E71.33419
G1 X95.186 Y66.493 E73.42958
G1 X94.682 Y66.493 E73.45199
G1 X128.512 Y100.323 E75.57907
G1 X128.512 Y100.827 E75.60148
G1 X94.178 Y66.493 E77.76025
G1 X93.673 Y66.492 E77.7827
G1 X128.512 Y101.331 E79.97322
G1 X128.512 Y101.835 E79.99563
G1 X93.169 Y66.492 E82.21784
G1 X92.665 Y66.492 E82.24025
G1 X128.512 Y102.339 E84.49415
G1 X128.512 Y102.843 E84.51656
G1 X92.161 Y66.492 E86.80215
G1 X91.656 Y66.492 E86.8246
G1 X128.512 Y103.348 E89.14194
G1 X128.512 Y103.852 E89.16435
G1 X91.152 Y66.492 E91.51338
G1 X90.648 Y66.492 E91.53579
G1 X128.512 Y104.356 E93.91651
G1 X128.512 Y104.86 E93.93892
G1 X90.144 Y66.492 E96.35133
G1 X89.639 Y66.491 E96.37378
G1 X128.512 Y105.364 E98.81794
G1 X128.512 Y105.868 E98.84035
G1 X89.135 Y66.491 E101.3162
G1 X88.631 Y66.491 E101.33861
G1 X128.512 Y106.372 E103.84615
G1 X128.512 Y106.876 E103.86856
G1 X88.127 Y66.491 E106.40778
G1 X87.623 Y66.491 E106.43019
G1 X128.512 Y107.38 E109.0011
G1 X128.512 Y107.885 E109.02355
G1 X87.118 Y66.491 E111.62622
G1 X86.614 Y66.491 E111.64863
G1 X128.512 Y108.389 E114.28299
G1 X128.512 Y108.893 E114.3054
G1 X86.11 Y66.491 E116.97144
G1 X85.606 Y66.49 E116.99385
G1 X128.512 Y109.397 E119.69162
G1 X128.512 Y109.901 E119.71403
G1 X85.101 Y66.49 E122.44352
G1 X84.597 Y66.49 E122.46593
G1 X128.512 Y110.405 E125.22711
G1 X128.512 Y110.909 E125.24952
G1 X84.093 Y66.49 E128.04238
G1 X83.589 Y66.49 E128.06479
G1 X128.512 Y111.413 E130.88934
G1 X128.512 Y111.917 E130.91175
G1 X83.084 Y66.49 E133.76802
G1 X82.58 Y66.49 E133.79043
G1 X128.512 Y112.422 E136.67843
G1 X128.512 Y112.926 E136.70084
G1 X82.076 Y66.49 E139.62052
G1 X81.572 Y66.49 E139.64293
G1 X128.512 Y113.43 E142.5943
G1 X128.512 Y113.934 E142.61671
G1 X81.068 Y66.489 E145.5998
G1 X80.563 Y66.489 E145.62225
G1 X128.512 Y114.438 E148.63706
G1 X128.512 Y114.942 E148.65947
G1 X80.059 Y66.489 E151.70597
G1 X79.555 Y66.489 E151.72838
G1 X128.512 Y115.446 E154.80657
G1 X128.512 Y115.95 E154.82898
G1 X79.051 Y66.489 E157.93886
G1 X78.546 Y66.489 E157.96131
G1 X128.512 Y116.454 E161.10291
G1 X128.512 Y116.959 E161.12536
G1 X78.042 Y66.489 E164.29868
G1 X77.538 Y66.489 E164.32109
G1 X128.512 Y117.463 E167.5261
G1 X128.512 Y117.967 E167.54851
G1 X77.034 Y66.488 E170.78524
G1 X76.529 Y66.488 E170.80769
G1 X128.512 Y118.471 E174.07614
G1 X128.512 Y118.975 E174.09855
G1 X76.025 Y66.488 E177.39869
G1 X75.521 Y66.488 E177.4211
G1 X128.512 Y119.479 E180.75293
G1 X128.51 Y119.981 E180.77525
G1 X75.026 Y66.497 E184.13808
G1 X74.549 Y66.525 E184.15932
G1 X128.476 Y120.451 E187.54997
G1 X128.392 Y120.871 E187.56901
G1 X74.129 Y66.608 E190.98082
G1 X73.748 Y66.732 E190.99863
G1 X128.268 Y121.252 E194.4266
G1 X128.191 Y121.457 E194.43634
G1 X128.113 Y121.601 E194.44362
G1 X73.399 Y66.887 E197.88379
G1 X73.077 Y67.069 E197.90023
G1 X127.931 Y121.923 E201.3492
G1 X127.716 Y122.212 E201.36521
G1 X72.788 Y67.284 E204.81883
G1 X72.526 Y67.526 E204.83469
G1 X127.474 Y122.474 E208.28957
G1 X127.297 Y122.651 E208.3007
G1 X127.212 Y122.716 E208.30546
G1 X72.284 Y67.788 E211.75908
G1 X72.069 Y68.077 E211.77509
G1 X126.923 Y122.931 E215.22406
G1 X126.601 Y123.113 E215.2405
G1 X71.887 Y68.399 E218.68067
G1 X71.809 Y68.543 E218.68795
G1 X71.732 Y68.748 E218.69769
G1 X126.252 Y123.268 E222.12566
G1 X125.871 Y123.392 E222.14347
G1 X71.608 Y69.129 E225.55528
G1 X71.524 Y69.549 E225.57432
G1 X125.451 Y123.476 E228.965
G1 X124.981 Y123.51 E228.98595
G1 X71.49 Y70.019 E232.34922
G1 X71.488 Y70.521 E232.37154
G1 X124.479 Y123.512 E235.70337
G1 X123.975 Y123.512 E235.72578
G1 X71.488 Y71.025 E239.02592
G1 X71.488 Y71.529 E239.04833
G1 X123.471 Y123.512 E242.31678
G1 X122.967 Y123.512 E242.33919
G1 X71.488 Y72.033 E245.57596
G1 X71.488 Y72.537 E245.59837
G1 X122.463 Y123.512 E248.80345
G1 X121.959 Y123.512 E248.82586
G1 X71.488 Y73.041 E251.99925
G1 X71.488 Y73.545 E252.02166
G1 X121.455 Y123.512 E255.16336
G1 X120.95 Y123.512 E255.18581
G1 X71.488 Y74.05 E258.29576
G1 X71.488 Y74.554 E258.31817
G1 X120.446 Y123.512 E261.39643
G1 X119.942 Y123.512 E261.41884
G1 X71.488 Y75.058 E264.46541
G1 X71.488 Y75.562 E264.48782
G1 X119.438 Y123.512 E267.5027
G1 X118.934 Y123.512 E267.52511
G1 X71.488 Y76.066 E270.5083
G1 X71.488 Y76.57 E270.53071
G1 X118.43 Y123.512 E273.48221
G1 X117.926 Y123.512 E273.50462
G1 X71.488 Y77.074 E276.42443
G1 X71.488 Y77.578 E276.44684
G1 X117.422 Y123.512 E279.33496
G1 X116.918 Y123.512 E279.35737
G1 X71.488 Y78.082 E282.2138
G1 X71.488 Y78.587 E282.23625
G1 X116.413 Y123.512 E285.06093
G1 X115.909 Y123.512 E285.08334
G1 X71.488 Y79.091 E287.87633
G1 X71.488 Y79.595 E287.89874
G1 X115.405 Y123.512 E290.66004
G1 X114.901 Y123.512 E290.68245
G1 X71.488 Y80.099 E293.41206
G1 X71.488 Y80.603 E293.43447
G1 X114.397 Y123.512 E296.13239
G1 X113.893 Y123.512 E296.1548
G1 X71.488 Y81.107 E298.82103
G1 X71.488 Y81.611 E298.84344
G1 X113.389 Y123.512 E301.47798
G1 X112.885 Y123.512 E301.50039
G1 X71.488 Y82.115 E304.10324
G1 X71.488 Y82.619 E304.12565
G1 X112.381 Y123.512 E306.69682
