; generated by PrusaSlicer 2.6.1+win64 on 2023-10-20 at 16:14:31 UTC

; 

; external perimeters extrusion width = 0.45mm
; perimeters extrusion width = 0.45mm
; infill extrusion width = 0.45mm
; solid infill extrusion width = 0.45mm
; top infill extrusion width = 0.40mm
; first layer extrusion width = 0.42mm

M190 S60 ; set bed temperature and wait for it to be reached


; Pre-Processed for Cancel-Object support by preprocess_cancellation v0.2.0
; 1 known objects
EXCLUDE_OBJECT_DEFINE NAME=Frame_2x3_ZackFreedman_stl_id_0_copy_0 CENTER=99.907,95.116 POLYGON=[[37.123,53.123],[37.123,136.877],[162.877,136.877],[162.877,53.123]]
M104 S200 ; set temperature
;TYPE:Custom
START_PRINT
M109 S200 ; set temperature and wait for it to be reached
G21 ; set units to millimeters
G90 ; use absolute coordinates
M82 ; use absolute distances for extrusion
G92 E0
; Filament gcode
M107
;LAYER_CHANGE
;Z:0.3
;HEIGHT:0.3
G1 Z.3 F7800
G1 E-2 F2400
G92 E0
G1 X34.746 Y48.761 F7800
G1 E2 F2400
;TYPE:Skirt/Brim
;WIDTH:0.42
G1 F1800
G1 X36.473 Y47.699 E2.08993
G1 X37.624 Y47.223 E2.14518
G1 X39.597 Y46.752 E2.23515
G1 X41 Y46.644 E2.29756
G1 X159.623 Y46.675 E7.55906
G1 X161.625 Y46.995 E7.64899
G1 X163.527 Y47.699 E7.73895
G1 X164.218 Y48.069 E7.77372
G1 X165.86 Y49.259 E7.86367
G1 X167.239 Y50.746 E7.95362
G1 X168.301 Y52.473 E8.04355
G1 X169.005 Y54.375 E8.13351
G1 X169.325 Y56.377 E8.22344
G1 X169.356 Y133 E11.62204
G1 X169.248 Y134.403 E11.68445
G1 X169.005 Y135.625 E11.73971
G1 X168.301 Y137.527 E11.82967
G1 X167.931 Y138.218 E11.86444
G1 X166.741 Y139.86 E11.95439
G1 X165.254 Y141.239 E12.04434
G1 X164.218 Y141.931 E12.0996
G1 X162.376 Y142.777 E12.18951
G1 X160.403 Y143.248 E12.27948
G1 X159 Y143.356 E12.34189
G1 X41 Y143.356 E17.57576
G1 X39.597 Y143.248 E17.63817
G1 X38.375 Y143.005 E17.69343
G1 X36.473 Y142.301 E17.78339
G1 X35.782 Y141.931 E17.81816
G1 X34.14 Y140.741 E17.90811
G1 X32.761 Y139.254 E17.99806
G1 X31.699 Y137.527 E18.08799
G1 X31.223 Y136.376 E18.14324
G1 X30.752 Y134.403 E18.23321
G1 X30.644 Y133 E18.29562
G1 X30.644 Y57 E21.66659
G1 X30.752 Y55.597 E21.729
G1 X30.995 Y54.375 E21.78426
G1 X31.699 Y52.473 E21.87422
G1 X32.761 Y50.746 E21.96415
G1 X33.259 Y50.14 E21.99894
G1 X34.702 Y48.802 E22.08622
; printing object Frame - 2x3 - ZackFreedman.stl id:0 copy 0
EXCLUDE_OBJECT_START NAME=Frame_2x3_ZackFreedman_stl_id_0_copy_0
G1 E20.08622 F2400
G92 E0
G1 X124.467 Y54.211 F7800
G1 E2 F2400
;TYPE:Perimeter
;WIDTH:0.39977
G1 F1800
G1 X124.978 Y54.196 E2.02139
;WIDTH:0.368807
G1 X158.944 Y54.197 E3.31107
;WIDTH:0.368657
G1 X159.036 Y54.203 E3.31457
;WIDTH:0.365311
G1 X159.6 Y54.27 E3.33589
;WIDTH:0.371484
G1 X160.084 Y54.423 E3.35533
G1 X160.566 Y54.683 E3.37631
;WIDTH:0.368658
G1 X160.99 Y55.031 E3.39713
;WIDTH:0.36531
G1 X161.355 Y55.494 E3.41926
;WIDTH:0.371484
G1 X161.589 Y55.944 E3.43869
G1 X161.746 Y56.469 E3.45968
;WIDTH:0.369175
G1 X161.804 Y57.066 E3.48248
G1 X161.804 Y91.022 E4.77334
;WIDTH:0.403557
G1 X161.787 Y91.606 E4.79806
;WIDTH:0.42
G1 X161.789 Y98.439 E5.10114
;WIDTH:0.400136
G1 X161.804 Y98.978 E5.12372
;WIDTH:0.369175
G1 X161.797 Y133.036 E6.41846
;WIDTH:0.365308
G1 X161.73 Y133.6 E6.43978
;WIDTH:0.371483
G1 X161.577 Y134.084 E6.45922
G1 X161.317 Y134.566 E6.4802
;WIDTH:0.368659
G1 X160.969 Y134.99 E6.50102
;WIDTH:0.365311
G1 X160.506 Y135.355 E6.52315
;WIDTH:0.371484
G1 X160.056 Y135.589 E6.54258
G1 X159.531 Y135.746 E6.56357
;WIDTH:0.369176
G1 X158.934 Y135.804 E6.58637
G1 X124.978 Y135.804 E7.87723
;WIDTH:0.400136
G1 X124.439 Y135.789 E7.89981
;WIDTH:0.42
G1 X117.561 Y135.789 E8.20488
;WIDTH:0.400136
G1 X117.022 Y135.804 E8.22746
;WIDTH:0.369176
G1 X82.978 Y135.804 E9.52167
;WIDTH:0.400137
G1 X82.439 Y135.789 E9.54425
;WIDTH:0.42
G1 X75.561 Y135.789 E9.84932
;WIDTH:0.400136
G1 X75.022 Y135.804 E9.8719
;WIDTH:0.369175
G1 X40.964 Y135.797 E11.16664
;WIDTH:0.36531
G1 X40.4 Y135.73 E11.18796
;WIDTH:0.371485
G1 X39.916 Y135.577 E11.2074
G1 X39.434 Y135.317 E11.22838
;WIDTH:0.36866
G1 X39.01 Y134.969 E11.2492
;WIDTH:0.365311
G1 X38.645 Y134.506 E11.27133
;WIDTH:0.371485
G1 X38.411 Y134.056 E11.29076
G1 X38.254 Y133.531 E11.31175
;WIDTH:0.369177
G1 X38.196 Y132.941 E11.33429
G1 X38.196 Y98.978 E12.62542
;WIDTH:0.400138
G1 X38.211 Y98.439 E12.648
;WIDTH:0.42
G1 X38.211 Y91.561 E12.95307
;WIDTH:0.400138
G1 X38.196 Y91.022 E12.97565
;WIDTH:0.369177
G1 X38.203 Y56.964 E14.27039
;WIDTH:0.36531
G1 X38.27 Y56.4 E14.29171
;WIDTH:0.371486
G1 X38.423 Y55.916 E14.31115
G1 X38.683 Y55.434 E14.33213
;WIDTH:0.368659
G1 X39.031 Y55.01 E14.35295
;WIDTH:0.365312
G1 X39.494 Y54.645 E14.37508
;WIDTH:0.371486
G1 X39.944 Y54.411 E14.39451
G1 X40.469 Y54.254 E14.4155
;WIDTH:0.369176
G1 X41.059 Y54.196 E14.43804
G1 X75.022 Y54.196 E15.72917
;WIDTH:0.399985
G1 X75.561 Y54.212 E15.75174
;WIDTH:0.42
G1 X82.439 Y54.212 E16.05681
;WIDTH:0.399956
G1 X82.978 Y54.196 E16.07938
;WIDTH:0.368992
G1 X117.022 Y54.196 E17.37281
;WIDTH:0.399801
G1 X117.561 Y54.212 E17.39537
;WIDTH:0.42
G1 X124.407 Y54.212 E17.69902
G1 E15.69902 F2400
G92 E0
G1 X161.596 Y55.276 F7800
G1 E2 F2400
G1 F1800
G1 X161.644 Y55.339 E2.00351
G1 X161.906 Y55.848 E2.0289
G1 X162.075 Y56.437 E2.05608
G1 X162.134 Y57.066 E2.0841
G1 X162.134 Y132.957 E5.45023
G1 X162.07 Y133.611 E5.47938
G1 X161.892 Y134.198 E5.50659
G1 X161.603 Y134.739 E5.5338
G1 X161.213 Y135.213 E5.56103
G1 X160.739 Y135.603 E5.58826
G1 X160.198 Y135.892 E5.61547
G1 X159.611 Y136.07 E5.64268
G1 X158.957 Y136.134 E5.67183
G1 X41.043 Y136.134 E10.90188
G1 X40.389 Y136.07 E10.93103
G1 X39.802 Y135.892 E10.95824
G1 X39.261 Y135.603 E10.98545
G1 X38.787 Y135.213 E11.01268
G1 X38.397 Y134.739 E11.03991
G1 X38.108 Y134.198 E11.06712
G1 X37.93 Y133.611 E11.09433
G1 X37.866 Y132.957 E11.12348
G1 X37.866 Y57.043 E14.49063
G1 X37.93 Y56.389 E14.51978
G1 X38.108 Y55.802 E14.54699
G1 X38.397 Y55.261 E14.5742
G1 X38.787 Y54.787 E14.60143
G1 X39.261 Y54.397 E14.62866
G1 X39.802 Y54.108 E14.65587
G1 X40.389 Y53.93 E14.68308
G1 X41.043 Y53.866 E14.71223
G1 X158.968 Y53.867 E19.94277
G1 X159.611 Y53.93 E19.97143
G1 X160.198 Y54.108 E19.99864
G1 X160.661 Y54.356 E20.02194
G1 X161.075 Y54.673 E20.04507
G1 X161.327 Y54.925 E20.06088
G1 X161.559 Y55.228 E20.07781
G1 X161.874 Y55.059 F7800
;TYPE:External perimeter
G1 F1800
G1 X161.958 Y55.171 E20.08402
G1 X162.246 Y55.745 E20.1125
G1 X162.429 Y56.402 E20.14275
G1 X162.49 Y57.066 E20.17233
G1 X162.49 Y132.975 E23.53926
G1 X162.421 Y133.68 E23.57068
G1 X162.222 Y134.335 E23.60104
G1 X161.9 Y134.938 E23.63136
G1 X161.466 Y135.466 E23.66168
G1 X160.938 Y135.9 E23.692
G1 X160.335 Y136.222 E23.72232
G1 X159.68 Y136.421 E23.75268
G1 X158.975 Y136.49 E23.7841
G1 X41.025 Y136.49 E29.01574
G1 X40.32 Y136.421 E29.04716
G1 X39.665 Y136.222 E29.07752
G1 X39.062 Y135.9 E29.10784
G1 X38.534 Y135.466 E29.13816
G1 X38.1 Y134.938 E29.16848
G1 X37.778 Y134.335 E29.1988
G1 X37.579 Y133.68 E29.22916
G1 X37.51 Y132.975 E29.26058
G1 X37.51 Y57.025 E32.62932
G1 X37.579 Y56.32 E32.66074
G1 X37.778 Y55.665 E32.6911
G1 X38.1 Y55.062 E32.72142
G1 X38.534 Y54.534 E32.75174
G1 X39.062 Y54.1 E32.78206
G1 X39.665 Y53.778 E32.81238
G1 X40.32 Y53.579 E32.84274
G1 X41.025 Y53.51 E32.87416
G1 X158.985 Y53.511 E38.10625
G1 X159.68 Y53.579 E38.13722
G1 X160.335 Y53.778 E38.16758
G1 X160.865 Y54.061 E38.19423
G1 X161.3 Y54.398 E38.21864
G1 X161.602 Y54.7 E38.23758
G1 X161.837 Y55.012 E38.25491
G1 X161.822 Y55.19 F7800
G1 E36.25491 F2400
G92 E0
G1 X124.433 Y54.57 F7800
G1 E2 F2400
;TYPE:Perimeter
;WIDTH:0.413088
G1 F1800
G1 X124.865 Y54.506 E2.01899
;WIDTH:0.373171
G1 X124.978 Y54.501 E2.02335
;WIDTH:0.368807
G1 X158.944 Y54.501 E3.31303
;WIDTH:0.368659
G1 X159.496 Y54.556 E3.33408
;WIDTH:0.371484
G1 X159.953 Y54.7 E3.35243
G1 X160.377 Y54.921 E3.37074
;WIDTH:0.368658
G1 X160.824 Y55.296 E3.39288
;WIDTH:0.362058
G1 X161.176 Y55.776 E3.41498
;WIDTH:0.360975
G1 X161.377 Y56.247 E3.43392
;WIDTH:0.362685
G1 X161.489 Y56.866 E3.45732
;WIDTH:0.369175
G1 X161.499 Y91.022 E4.75578
;WIDTH:0.400137
G1 X161.454 Y91.539 E4.77751
;WIDTH:0.42
G1 X161.24 Y92.16 E4.80664
G1 X160.864 Y92.7 E4.83583
G1 X160.361 Y93.124 E4.86501
G1 X159.764 Y93.404 E4.89426
G1 X159.022 Y93.525 E4.92761
G1 X124.978 Y93.525 E6.43762
G1 X124.46 Y93.464 E6.46075
G1 X123.84 Y93.24 E6.48999
G1 X123.3 Y92.864 E6.51918
G1 X122.876 Y92.361 E6.54836
G1 X122.596 Y91.764 E6.57761
G1 X122.475 Y91.022 E6.61096
G1 X122.475 Y56.978 E8.12097
G1 X122.536 Y56.46 E8.1441
G1 X122.76 Y55.84 E8.17334
G1 X123.136 Y55.3 E8.20253
G1 X123.639 Y54.876 E8.23171
G1 X124.237 Y54.599 E8.26094
;WIDTH:0.413088
G1 X124.374 Y54.579 E8.26696
G1 X124.485 Y54.906 F7800
;WIDTH:0.42
G1 F1800
G1 X124.978 Y54.831 E8.28908
G1 X159.022 Y54.831 E9.79909
G1 X159.579 Y54.907 E9.82402
G1 X160.071 Y55.11 E9.84763
G1 X160.483 Y55.418 E9.87045
G1 X160.817 Y55.824 E9.89377
G1 X161.076 Y56.372 E9.92065
G1 X161.165 Y56.909 E9.94479
G1 X161.169 Y57.066 E9.95176
G1 X161.169 Y91.022 E11.45787
G1 X161.076 Y91.628 E11.48506
G1 X160.842 Y92.144 E11.51019
G1 X160.483 Y92.582 E11.53531
G1 X160.023 Y92.912 E11.56042
G1 X159.536 Y93.104 E11.58364
G1 X159.022 Y93.169 E11.60662
G1 X124.978 Y93.169 E13.11663
G1 X124.435 Y93.097 E13.14093
G1 X123.909 Y92.878 E13.1662
G1 X123.488 Y92.558 E13.18966
G1 X123.158 Y92.144 E13.21314
G1 X122.924 Y91.628 E13.23827
G1 X122.831 Y91.022 E13.26546
G1 X122.831 Y56.978 E14.77547
G1 X122.896 Y56.464 E14.79845
G1 X123.088 Y55.977 E14.82167
G1 X123.418 Y55.517 E14.84678
G1 X123.856 Y55.158 E14.8719
G1 X124.372 Y54.924 E14.89703
G1 X124.426 Y54.915 E14.89946
G1 X124.695 Y55.223 F7800
;TYPE:External perimeter
G1 F1800
G1 X124.978 Y55.186 E14.91212
G1 X159.022 Y55.186 E16.42213
G1 X159.492 Y55.253 E16.44319
G1 X159.96 Y55.465 E16.46598
G1 X160.3 Y55.733 E16.48518
G1 X160.583 Y56.113 E16.5062
G1 X160.764 Y56.593 E16.52895
G1 X160.814 Y57.066 E16.55005
G1 X160.814 Y91.022 E18.05616
G1 X160.747 Y91.492 E18.07722
G1 X160.56 Y91.928 E18.09826
G1 X160.267 Y92.3 E18.11926
G1 X159.887 Y92.583 E18.14028
G1 X159.447 Y92.759 E18.1613
G1 X159.022 Y92.814 E18.18031
G1 X124.978 Y92.814 E19.69032
G1 X124.508 Y92.747 E19.71138
G1 X124.072 Y92.56 E19.73242
G1 X123.7 Y92.267 E19.75342
G1 X123.44 Y91.928 E19.77237
G1 X123.241 Y91.447 E19.79546
G1 X123.186 Y91.022 E19.81447
G1 X123.186 Y56.978 E21.32448
G1 X123.253 Y56.508 E21.34554
G1 X123.44 Y56.072 E21.36658
G1 X123.733 Y55.7 E21.38758
G1 X124.113 Y55.417 E21.4086
G1 X124.553 Y55.241 E21.42962
G1 X124.635 Y55.23 E21.43329
G1 X124.788 Y54.953 F7800
G1 E19.43329 F2400
G92 E0
G1 X82.296 Y135.397 F7800
G1 E2 F2400
;TYPE:Perimeter
G1 F1800
G1 X81.84 Y135.24 E2.02139
G1 X81.3 Y134.864 E2.05058
G1 X80.876 Y134.361 E2.07976
G1 X80.596 Y133.764 E2.10901
G1 X80.475 Y133.022 E2.14236
G1 X80.475 Y98.978 E3.65237
G1 X80.536 Y98.46 E3.6755
G1 X80.76 Y97.84 E3.70474
G1 X81.136 Y97.3 E3.73393
G1 X81.639 Y96.876 E3.76311
G1 X82.236 Y96.596 E3.79236
G1 X82.978 Y96.475 E3.82571
G1 X117.022 Y96.475 E5.33572
G1 X117.54 Y96.536 E5.35885
G1 X118.16 Y96.76 E5.38809
G1 X118.7 Y97.136 E5.41728
G1 X119.124 Y97.639 E5.44646
G1 X119.404 Y98.236 E5.47571
G1 X119.525 Y98.978 E5.50906
G1 X119.517 Y133.138 E7.02422
G1 X119.435 Y133.678 E7.04845
G1 X119.24 Y134.16 E7.07151
G1 X118.864 Y134.7 E7.1007
G1 X118.361 Y135.124 E7.12988
G1 X117.763 Y135.401 E7.15911
;WIDTH:0.413243
G1 X117.135 Y135.494 E7.18673
;WIDTH:0.373541
G1 X117.022 Y135.499 E7.19109
;WIDTH:0.369176
G1 X82.978 Y135.499 E8.4853
;WIDTH:0.400137
G1 X82.461 Y135.454 E8.50703
;WIDTH:0.42
G1 X82.353 Y135.417 E8.51209
G1 X82.44 Y135.086 F7800
G1 F1800
G1 X82.372 Y135.076 E8.51514
G1 X81.856 Y134.842 E8.54027
G1 X81.418 Y134.483 E8.56539
G1 X81.088 Y134.023 E8.5905
G1 X80.896 Y133.536 E8.61372
G1 X80.831 Y133.022 E8.6367
G1 X80.831 Y98.978 E10.14671
G1 X80.903 Y98.435 E10.17101
G1 X81.122 Y97.909 E10.19628
G1 X81.442 Y97.488 E10.21974
G1 X81.856 Y97.158 E10.24322
G1 X82.372 Y96.924 E10.26835
G1 X82.978 Y96.831 E10.29554
G1 X117.022 Y96.831 E11.80555
G1 X117.565 Y96.903 E11.82985
G1 X118.091 Y97.122 E11.85512
G1 X118.512 Y97.442 E11.87858
G1 X118.842 Y97.856 E11.90206
G1 X119.076 Y98.372 E11.92719
G1 X119.169 Y98.978 E11.95438
G1 X119.169 Y133.022 E13.46439
G1 X119.076 Y133.628 E13.49158
G1 X118.842 Y134.144 E13.51671
G1 X118.483 Y134.582 E13.54183
G1 X118.023 Y134.912 E13.56694
G1 X117.516 Y135.108 E13.59105
G1 X117.022 Y135.169 E13.61313
G1 X82.978 Y135.169 E15.12314
G1 X82.499 Y135.095 E15.14464
G1 X82.709 Y134.776 F7800
;TYPE:External perimeter
G1 F1800
G1 X82.508 Y134.747 E15.15365
G1 X82.072 Y134.56 E15.17469
G1 X81.7 Y134.267 E15.19569
G1 X81.417 Y133.887 E15.21671
G1 X81.241 Y133.447 E15.23773
G1 X81.186 Y133.022 E15.25674
G1 X81.186 Y98.978 E16.76675
G1 X81.253 Y98.508 E16.78781
G1 X81.44 Y98.072 E16.80885
G1 X81.733 Y97.7 E16.82985
G1 X82.113 Y97.417 E16.85087
G1 X82.553 Y97.241 E16.87189
G1 X82.978 Y97.186 E16.8909
G1 X117.022 Y97.186 E18.40091
G1 X117.492 Y97.253 E18.42197
G1 X117.928 Y97.44 E18.44301
G1 X118.3 Y97.733 E18.46401
G1 X118.583 Y98.113 E18.48503
G1 X118.759 Y98.553 E18.50605
G1 X118.814 Y98.978 E18.52506
G1 X118.814 Y133.022 E20.03507
G1 X118.747 Y133.492 E20.05613
G1 X118.56 Y133.928 E20.07717
G1 X118.267 Y134.3 E20.09817
G1 X117.887 Y134.583 E20.11919
G1 X117.447 Y134.759 E20.14021
G1 X117.022 Y134.814 E20.15922
G1 X82.978 Y134.814 E21.66923
G1 X82.769 Y134.784 E21.6786
G1 X82.592 Y134.942 F7800
G1 E19.6786 F2400
G92 E0
G1 X124.296 Y135.397 F7800
G1 E2 F2400
;TYPE:Perimeter
G1 F1800
G1 X123.84 Y135.24 E2.02139
G1 X123.3 Y134.864 E2.05058
G1 X122.876 Y134.361 E2.07976
G1 X122.596 Y133.764 E2.10901
G1 X122.475 Y133.022 E2.14236
G1 X122.475 Y98.978 E3.65237
G1 X122.536 Y98.46 E3.6755
G1 X122.76 Y97.84 E3.70474
G1 X123.136 Y97.3 E3.73393
G1 X123.639 Y96.876 E3.76311
G1 X124.236 Y96.596 E3.79236
G1 X124.978 Y96.475 E3.82571
G1 X159.022 Y96.475 E5.33572
G1 X159.54 Y96.536 E5.35885
G1 X160.16 Y96.76 E5.38809
G1 X160.7 Y97.136 E5.41728
G1 X161.124 Y97.639 E5.44646
G1 X161.401 Y98.237 E5.47569
;WIDTH:0.414066
G1 X161.494 Y98.865 E5.50338
;WIDTH:0.373539
G1 X161.499 Y98.978 E5.50774
;WIDTH:0.369175
G1 X161.499 Y132.934 E6.7986
G1 X161.444 Y133.496 E6.82007
;WIDTH:0.371483
G1 X161.3 Y133.953 E6.83842
G1 X161.176 Y134.224 E6.84984
;WIDTH:0.362328
G1 X160.841 Y134.682 E6.87093
;WIDTH:0.36866
G1 X160.377 Y135.079 E6.89411
;WIDTH:0.371484
G1 X159.953 Y135.3 E6.91242
G1 X159.496 Y135.444 E6.93077
;WIDTH:0.369174
G1 X158.934 Y135.499 E6.95224
G1 X124.978 Y135.499 E8.24309
;WIDTH:0.400136
G1 X124.461 Y135.454 E8.26482
;WIDTH:0.42
G1 X124.353 Y135.417 E8.26988
G1 X124.44 Y135.086 F7800
G1 F1800
G1 X124.372 Y135.076 E8.27293
G1 X123.856 Y134.842 E8.29806
G1 X123.418 Y134.483 E8.32318
G1 X123.088 Y134.023 E8.34829
G1 X122.896 Y133.536 E8.37151
G1 X122.831 Y133.022 E8.39449
G1 X122.831 Y98.978 E9.9045
G1 X122.903 Y98.435 E9.9288
G1 X123.122 Y97.909 E9.95407
G1 X123.442 Y97.488 E9.97753
G1 X123.856 Y97.158 E10.00101
G1 X124.372 Y96.924 E10.02614
G1 X124.978 Y96.831 E10.05333
G1 X159.022 Y96.831 E11.56334
G1 X159.536 Y96.896 E11.58632
G1 X160.023 Y97.088 E11.60954
G1 X160.483 Y97.418 E11.63465
G1 X160.842 Y97.856 E11.65977
G1 X161.076 Y98.372 E11.6849
G1 X161.169 Y98.978 E11.71209
G1 X161.169 Y133.022 E13.2221
G1 X161.093 Y133.579 E13.24703
G1 X160.89 Y134.071 E13.27064
G1 X160.582 Y134.483 E13.29346
G1 X160.176 Y134.817 E13.31678
G1 X159.628 Y135.076 E13.34366
G1 X159.091 Y135.165 E13.3678
G1 X158.934 Y135.169 E13.37477
G1 X124.978 Y135.169 E14.88088
G1 X124.499 Y135.095 E14.90238
G1 X124.711 Y134.776 F7800
;TYPE:External perimeter
G1 F1800
G1 X124.508 Y134.747 E14.91148
G1 X124.072 Y134.56 E14.93252
G1 X123.7 Y134.267 E14.95352
G1 X123.417 Y133.887 E14.97454
G1 X123.241 Y133.447 E14.99556
G1 X123.186 Y133.022 E15.01457
G1 X123.186 Y98.978 E16.52458
G1 X123.253 Y98.508 E16.54564
G1 X123.44 Y98.072 E16.56668
G1 X123.733 Y97.7 E16.58768
G1 X124.113 Y97.417 E16.6087
G1 X124.553 Y97.241 E16.62972
G1 X124.978 Y97.186 E16.64873
G1 X159.022 Y97.186 E18.15874
G1 X159.492 Y97.253 E18.1798
G1 X159.928 Y97.44 E18.20084
G1 X160.3 Y97.733 E18.22184
G1 X160.583 Y98.113 E18.24286
G1 X160.759 Y98.553 E18.26388
