; generated by PrusaSlicer 2.6.1+win64 on 2023-10-24 at 12:02:49 UTC

; 

; external perimeters extrusion width = 0.45mm
; perimeters extrusion width = 0.45mm
; infill extrusion width = 0.45mm
; solid infill extrusion width = 0.45mm
; top infill extrusion width = 0.40mm
; first layer extrusion width = 0.42mm

M190 S60 ; set bed temperature and wait for it to be reached


; Pre-Processed for Cancel-Object support by preprocess_cancellation v0.2.0
; 1 known objects
EXCLUDE_OBJECT_DEFINE NAME=GRIDFINITY_DTNBASE3x2_NoGrip_STL_id_0_copy_0 CENTER=101.364,96.308 POLYGON=[[36.398,52.398],[36.398,137.6],[163.6,137.6],[163.6,52.398]]
M104 S200 ; set temperature
;TYPE:Custom
START_PRINT
M109 S200 ; set temperature and wait for it to be reached
G21 ; set units to millimeters
G90 ; use absolute coordinates
M82 ; use absolute distances for extrusion
G92 E0
; Filament gcode
M107
;LAYER_CHANGE
;Z:0.3
;HEIGHT:0.3
G1 Z.3 F7800
G1 E-2 F2400
G92 E0
G1 X34.453 Y47.555 F7800
G1 E2 F2400
;TYPE:Skirt/Brim
;WIDTH:0.42
G1 F1800
G1 X35.872 Y46.766 E2.07201
G1 X37.397 Y46.209 E2.14402
G1 X38.991 Y45.897 E2.21606
G1 X40.151 Y45.821 E2.26762
G1 X158.674 Y45.839 E7.52469
G1 X160.86 Y46.182 E7.62284
G1 X162.423 Y46.739 E7.69644
G1 X163.312 Y47.192 E7.7407
G1 X164.654 Y48.106 E7.81272
G1 X166.229 Y49.678 E7.91142
G1 X167.126 Y50.986 E7.98177
G1 X167.828 Y52.451 E8.05382
G1 X169.815 Y58.193 E8.32332
G1 X170.16 Y59.869 E8.39922
G1 X170.16 Y128.481 E11.44249
G1 X169.816 Y130.155 E11.51829
G1 X167.611 Y136.423 E11.81301
G1 X167.158 Y137.312 E11.85727
G1 X166.244 Y138.654 E11.92929
G1 X165.131 Y139.836 E12.0013
G1 X163.895 Y140.796 E12.07072
G1 X163.342 Y141.139 E12.09958
G1 X161.843 Y141.851 E12.17319
G1 X156.155 Y143.816 E12.44011
G1 X155.566 Y143.987 E12.46731
G1 X153.965 Y144.181 E12.53884
G1 X44.385 Y144.181 E17.39924
G1 X42.784 Y143.987 E17.47077
G1 X42.195 Y143.816 E17.49797
G1 X35.927 Y141.611 E17.79269
G1 X34.503 Y140.83 E17.86473
G1 X33.696 Y140.244 E17.90897
G1 X32.514 Y139.131 E17.98098
G1 X31.555 Y137.897 E18.0503
G1 X30.765 Y136.476 E18.12241
G1 X30.191 Y134.895 E18.19701
G1 X29.897 Y133.359 E18.26638
G1 X29.821 Y132.199 E18.31794
G1 X29.819 Y56.175 E21.68997
G1 X29.886 Y55.074 E21.73889
G1 X30.182 Y53.49 E21.81036
G1 X30.499 Y52.507 E21.85617
G1 X31.164 Y51.092 E21.92552
G1 X32.474 Y49.265 E22.02523
G1 X33.175 Y48.556 E22.06945
G1 X34.406 Y47.592 E22.1388
; printing object GRIDFINITY DTNBASE3x2-NoGrip.STL id:0 copy 0
EXCLUDE_OBJECT_START NAME=GRIDFINITY_DTNBASE3x2_NoGrip_STL_id_0_copy_0
G1 E20.1388 F2400
G92 E0
G1 X37.377 Y100.646 F7800
G1 E2 F2400
;TYPE:Perimeter
;WIDTH:0.380455
G1 F1800
G1 X37.373 Y100.179 E2.01841
;WIDTH:0.37358
G1 X37.372 Y98.165 E2.09608
;WIDTH:0.377088
G1 X37.375 Y98 E2.10252
;WIDTH:0.419539
G1 X37.397 Y97.163 E2.13961
;WIDTH:0.42
G1 X37.396 Y90.848 E2.41971
;WIDTH:0.416181
G1 X37.373 Y90.188 E2.44869
;WIDTH:0.372554
G1 X37.375 Y88.171 E2.52622
;WIDTH:0.379405
G1 X37.378 Y87.704 E2.54457
G1 X37.703 Y87.741 E2.55742
G1 X37.683 Y88.172 E2.57437
;WIDTH:0.372554
G1 X37.679 Y90.188 E2.65186
;WIDTH:0.416181
G1 X37.746 Y90.82 E2.67975
;WIDTH:0.41954
G1 X37.83 Y91.083 E2.69198
;WIDTH:0.42
G1 X38.062 Y91.539 E2.71467
G1 X38.225 Y91.764 E2.72699
G1 X38.586 Y92.125 E2.74963
G1 X38.811 Y92.288 E2.76195
G1 X39.267 Y92.52 E2.78464
G1 X39.529 Y92.606 E2.79687
G1 X40.162 Y92.696 E2.82523
G1 X74.188 Y92.696 E4.33445
G1 X74.821 Y92.606 E4.36281
G1 X75.083 Y92.52 E4.37504
G1 X75.539 Y92.288 E4.39773
G1 X75.764 Y92.125 E4.41005
G1 X76.125 Y91.764 E4.43269
G1 X76.288 Y91.539 E4.44501
G1 X76.52 Y91.083 E4.4677
G1 X76.606 Y90.821 E4.47993
G1 X76.696 Y90.188 E4.50829
G1 X76.696 Y56.162 E6.01751
G1 X76.606 Y55.529 E6.04587
G1 X76.52 Y55.267 E6.0581
G1 X76.288 Y54.811 E6.08079
G1 X76.125 Y54.586 E6.09311
G1 X75.764 Y54.225 E6.11575
G1 X75.539 Y54.062 E6.12807
G1 X75.083 Y53.83 E6.15076
;WIDTH:0.419539
G1 X74.82 Y53.746 E6.16299
;WIDTH:0.416753
G1 X74.188 Y53.678 E6.19093
;WIDTH:0.373581
G1 X72.172 Y53.683 E6.26868
;WIDTH:0.380454
G1 X71.741 Y53.703 E6.28569
G1 X71.704 Y53.377 E6.29862
G1 X72.171 Y53.373 E6.31703
;WIDTH:0.373581
G1 X74.185 Y53.372 E6.3947
;WIDTH:0.377089
G1 X74.35 Y53.375 E6.40114
;WIDTH:0.419539
G1 X75.187 Y53.397 E6.43823
;WIDTH:0.42
G1 X81.502 Y53.396 E6.71833
;WIDTH:0.416181
G1 X82.162 Y53.373 E6.74731
;WIDTH:0.372554
G1 X84.179 Y53.375 E6.82484
;WIDTH:0.379404
G1 X84.646 Y53.378 E6.84319
G1 X84.609 Y53.703 E6.85604
G1 X84.178 Y53.683 E6.87299
;WIDTH:0.372554
G1 X82.162 Y53.679 E6.95048
;WIDTH:0.416181
G1 X81.53 Y53.746 E6.97837
;WIDTH:0.41954
G1 X81.267 Y53.83 E6.9906
;WIDTH:0.42
G1 X80.811 Y54.062 E7.01329
G1 X80.586 Y54.225 E7.02561
G1 X80.225 Y54.586 E7.04825
G1 X80.062 Y54.811 E7.06057
G1 X79.83 Y55.267 E7.08326
G1 X79.744 Y55.529 E7.09549
G1 X79.654 Y56.162 E7.12385
G1 X79.654 Y90.188 E8.63307
G1 X79.744 Y90.821 E8.66143
G1 X79.83 Y91.083 E8.67366
G1 X80.062 Y91.539 E8.69635
G1 X80.225 Y91.764 E8.70867
G1 X80.586 Y92.125 E8.73131
G1 X80.811 Y92.288 E8.74363
G1 X81.267 Y92.52 E8.76632
G1 X81.529 Y92.606 E8.77855
G1 X82.162 Y92.696 E8.80691
G1 X116.188 Y92.696 E10.31613
G1 X116.821 Y92.606 E10.34449
G1 X117.083 Y92.52 E10.35672
G1 X117.539 Y92.288 E10.37941
G1 X117.764 Y92.125 E10.39173
G1 X118.125 Y91.764 E10.41437
G1 X118.288 Y91.539 E10.42669
G1 X118.52 Y91.083 E10.44938
G1 X118.606 Y90.821 E10.46161
G1 X118.696 Y90.188 E10.48997
G1 X118.696 Y56.162 E11.99919
G1 X118.606 Y55.529 E12.02755
G1 X118.52 Y55.267 E12.03978
G1 X118.288 Y54.811 E12.06247
G1 X118.125 Y54.586 E12.07479
G1 X117.764 Y54.225 E12.09743
G1 X117.539 Y54.062 E12.10975
G1 X117.083 Y53.83 E12.13244
;WIDTH:0.419539
G1 X116.82 Y53.746 E12.14467
;WIDTH:0.416755
G1 X116.188 Y53.678 E12.17261
;WIDTH:0.373581
G1 X114.172 Y53.683 E12.25036
;WIDTH:0.380455
G1 X113.741 Y53.703 E12.26737
G1 X113.704 Y53.377 E12.2803
G1 X114.171 Y53.373 E12.29871
;WIDTH:0.373581
G1 X116.185 Y53.372 E12.37638
;WIDTH:0.377088
G1 X116.35 Y53.375 E12.38282
;WIDTH:0.419539
G1 X117.187 Y53.397 E12.41991
;WIDTH:0.42
G1 X123.502 Y53.396 E12.70001
;WIDTH:0.416181
G1 X124.162 Y53.373 E12.72899
;WIDTH:0.372554
G1 X126.179 Y53.375 E12.80652
;WIDTH:0.379404
G1 X126.646 Y53.378 E12.82487
G1 X126.609 Y53.703 E12.83772
G1 X126.178 Y53.683 E12.85467
;WIDTH:0.372554
G1 X124.162 Y53.679 E12.93216
;WIDTH:0.416181
G1 X123.53 Y53.746 E12.96005
;WIDTH:0.41954
G1 X123.267 Y53.83 E12.97228
;WIDTH:0.42
G1 X122.811 Y54.062 E12.99497
G1 X122.586 Y54.225 E13.00729
G1 X122.225 Y54.586 E13.02993
G1 X122.062 Y54.811 E13.04225
G1 X121.83 Y55.267 E13.06494
G1 X121.744 Y55.529 E13.07717
G1 X121.654 Y56.162 E13.10553
G1 X121.654 Y90.188 E14.61475
G1 X121.744 Y90.821 E14.64311
G1 X121.83 Y91.083 E14.65534
G1 X122.062 Y91.539 E14.67803
G1 X122.225 Y91.764 E14.69035
G1 X122.586 Y92.125 E14.71299
G1 X122.811 Y92.288 E14.72531
G1 X123.267 Y92.52 E14.748
G1 X123.529 Y92.606 E14.76023
G1 X124.162 Y92.696 E14.78859
G1 X158.188 Y92.696 E16.29781
G1 X158.821 Y92.606 E16.32617
G1 X159.083 Y92.52 E16.3384
G1 X159.539 Y92.288 E16.36109
G1 X159.764 Y92.125 E16.37341
G1 X160.125 Y91.764 E16.39605
G1 X160.288 Y91.539 E16.40837
G1 X160.52 Y91.083 E16.43106
;WIDTH:0.41986
G1 X160.605 Y90.82 E16.44331
;WIDTH:0.417958
G1 X160.672 Y90.188 E16.47134
;WIDTH:0.371666
G1 X160.672 Y86.016 E16.63124
;WIDTH:0.378289
G1 X160.675 Y85.842 E16.63805
;WIDTH:0.42
G1 X160.696 Y85.258 E16.66397
G1 X160.693 Y81.914 E16.81229
;WIDTH:0.413591
G1 X160.673 Y81.407 E16.83439
;WIDTH:0.373758
G1 X160.672 Y65.016 E17.46687
;WIDTH:0.378302
G1 X160.675 Y64.842 E17.47368
;WIDTH:0.42
G1 X160.696 Y64.258 E17.4996
G1 X160.696 Y61.374 E17.62752
G1 X160.672 Y60.336 E17.67357
;WIDTH:0.370953
G1 X160.667 Y56.094 E17.83577
;WIDTH:0.368272
G1 X160.581 Y55.534 E17.85724
;WIDTH:0.378393
G1 X160.386 Y55.048 E17.87775
G1 X160.107 Y54.605 E17.89825
;WIDTH:0.368356
G1 X159.745 Y54.243 E17.91766
;WIDTH:0.378393
G1 X159.302 Y53.964 E17.93816
G1 X158.816 Y53.769 E17.95867
;WIDTH:0.371038
G1 X158.122 Y53.678 E17.98544
;WIDTH:0.373726
G1 X156.172 Y53.682 E18.06068
;WIDTH:0.380573
G1 X155.741 Y53.702 E18.0777
G1 X155.704 Y53.377 E18.0906
G1 X156.171 Y53.373 E18.10902
;WIDTH:0.373726
G1 X158.122 Y53.372 E18.1843
;WIDTH:0.371038
G1 X158.361 Y53.389 E18.19346
;WIDTH:0.368438
G1 X158.952 Y53.489 E18.21619
;WIDTH:0.378393
G1 X159.455 Y53.69 E18.2374
G1 X159.952 Y54.02 E18.26077
;WIDTH:0.368353
G1 X160.382 Y54.459 E18.28407
;WIDTH:0.378393
G1 X160.671 Y54.917 E18.30528
G1 X160.878 Y55.474 E18.32855
;WIDTH:0.370953
G1 X160.978 Y56.222 E18.35741
G1 X160.978 Y60.336 E18.51472
;WIDTH:0.412147
G1 X161.046 Y60.79 E18.53463
;WIDTH:0.42
G1 X161.242 Y61.164 E18.55336
G1 X161.417 Y61.357 E18.56492
G1 X161.861 Y61.642 E18.58832
G1 X162.212 Y61.723 E18.6043
G1 X162.602 Y61.696 E18.62164
G1 X162.599 Y63.643 E18.708
G1 X162.24 Y63.624 E18.72395
G1 X161.984 Y63.673 E18.73551
G1 X161.654 Y63.809 E18.75134
G1 X161.26 Y64.163 E18.77483
G1 X161.12 Y64.382 E18.78636
G1 X161.007 Y64.713 E18.80187
;WIDTH:0.391653
G1 X160.978 Y65.015 E18.81425
;WIDTH:0.373758
G1 X160.982 Y81.407 E19.44677
;WIDTH:0.413591
G1 X161.064 Y81.853 E19.46652
;WIDTH:0.42
G1 X161.243 Y82.165 E19.48247
G1 X161.417 Y82.358 E19.494
G1 X161.861 Y82.642 E19.51738
G1 X162.212 Y82.723 E19.53336
G1 X162.602 Y82.696 E19.5507
G1 X162.599 Y84.64 E19.63693
G1 X162.313 Y84.613 E19.64967
G1 X161.951 Y84.673 E19.66595
G1 X161.571 Y84.869 E19.68491
G1 X161.259 Y85.165 E19.70399
G1 X161.12 Y85.382 E19.71542
G1 X161.007 Y85.713 E19.73093
;WIDTH:0.391622
G1 X160.978 Y86.016 E19.74335
;WIDTH:0.371666
G1 X160.979 Y90.188 E19.90325
;WIDTH:0.37817
G1 X160.976 Y90.35 E19.90959
;WIDTH:0.41986
G1 X160.956 Y91.188 E19.94676
;WIDTH:0.42
G1 X160.958 Y97.501 E20.22677
;WIDTH:0.419105
G1 X160.981 Y98.162 E20.25603
;WIDTH:0.373757
G1 X160.982 Y102.407 E20.41983
;WIDTH:0.381491
G1 X160.992 Y102.557 E20.42578
;WIDTH:0.42
G1 X161.135 Y102.997 E20.4463
G1 X161.465 Y103.408 E20.46968
G1 X161.861 Y103.642 E20.49008
G1 X162.212 Y103.723 E20.50606
G1 X162.602 Y103.696 E20.5234
G1 X162.599 Y105.643 E20.60976
G1 X162.24 Y105.624 E20.62571
G1 X161.984 Y105.673 E20.63727
G1 X161.654 Y105.809 E20.6531
G1 X161.302 Y106.103 E20.67344
G1 X161.051 Y106.549 E20.69614
;WIDTH:0.406922
G1 X160.979 Y106.998 E20.71557
;WIDTH:0.371562
G1 X160.978 Y123.336 E21.34153
;WIDTH:0.412149
G1 X161.046 Y123.79 E21.36144
;WIDTH:0.42
G1 X161.242 Y124.164 E21.38017
G1 X161.417 Y124.357 E21.39173
G1 X161.86 Y124.642 E21.41509
G1 X162.212 Y124.723 E21.43111
G1 X162.599 Y124.697 E21.44831
G1 X162.602 Y126.64 E21.53449
G1 X162.313 Y126.613 E21.54736
G1 X161.863 Y126.708 E21.56776
G1 X161.466 Y126.941 E21.58818
G1 X161.166 Y127.289 E21.60856
G1 X161.007 Y127.712 E21.6286
;WIDTH:0.39171
G1 X160.978 Y128.015 E21.64103
;WIDTH:0.370953
G1 X160.978 Y132.122 E21.79807
;WIDTH:0.378128
G1 X160.934 Y132.624 E21.81779
G1 X160.773 Y133.199 E21.84116
;WIDTH:0.368354
G1 X160.489 Y133.744 E21.86446
;WIDTH:0.378396
G1 X160.143 Y134.16 E21.88565
G1 X159.675 Y134.53 E21.90902
;WIDTH:0.368356
G1 X159.125 Y134.804 E21.93232
;WIDTH:0.37813
G1 X158.624 Y134.934 E21.95257
G1 X158.128 Y134.978 E21.97206
;WIDTH:0.370953
G1 X154.014 Y134.978 E22.12937
;WIDTH:0.412137
G1 X153.56 Y135.046 E22.14928
;WIDTH:0.42
G1 X153.186 Y135.242 E22.16801
G1 X152.992 Y135.417 E22.1796
G1 X152.708 Y135.861 E22.20298
G1 X152.627 Y136.212 E22.21896
G1 X152.654 Y136.602 E22.2363
G1 X150.71 Y136.599 E22.32253
G1 X150.737 Y136.313 E22.33527
G1 X150.677 Y135.951 E22.35155
G1 X150.481 Y135.571 E22.37051
G1 X150.185 Y135.258 E22.38962
G1 X149.968 Y135.12 E22.40103
G1 X149.637 Y135.007 E22.41654
;WIDTH:0.391642
G1 X149.335 Y134.978 E22.42892
;WIDTH:0.373765
G1 X132.943 Y134.983 E23.06146
;WIDTH:0.413572
G1 X132.497 Y135.064 E23.0812
;WIDTH:0.42
G1 X132.185 Y135.243 E23.09715
G1 X131.992 Y135.417 E23.10868
G1 X131.708 Y135.861 E23.13206
G1 X131.627 Y136.212 E23.14804
G1 X131.654 Y136.602 E23.16538
G1 X129.707 Y136.599 E23.25174
G1 X129.726 Y136.24 E23.26769
G1 X129.677 Y135.985 E23.27921
G1 X129.541 Y135.654 E23.29508
G1 X129.187 Y135.26 E23.31857
G1 X128.968 Y135.12 E23.3301
G1 X128.638 Y135.007 E23.34557
;WIDTH:0.39171
G1 X128.335 Y134.978 E23.358
;WIDTH:0.37167
G1 X124.162 Y134.979 E23.51794
;WIDTH:0.378174
G1 X124 Y134.976 E23.52428
;WIDTH:0.419713
G1 X123.162 Y134.956 E23.56143
;WIDTH:0.42
G1 X116.849 Y134.958 E23.84144
;WIDTH:0.419114
G1 X116.188 Y134.981 E23.8707
;WIDTH:0.373765
G1 X111.943 Y134.983 E24.03451
;WIDTH:0.3815
G1 X111.793 Y134.992 E24.04045
;WIDTH:0.42
G1 X111.353 Y135.135 E24.06097
G1 X111.06 Y135.34 E24.07683
G1 X110.781 Y135.703 E24.09714
G1 X110.632 Y136.138 E24.11753
G1 X110.64 Y136.602 E24.13811
G1 X108.71 Y136.599 E24.22371
G1 X108.737 Y136.313 E24.23645
G1 X108.677 Y135.951 E24.25273
G1 X108.481 Y135.571 E24.27169
G1 X108.109 Y135.196 E24.29512
G1 X107.79 Y135.048 E24.31072
;WIDTH:0.407171
G1 X107.336 Y134.978 E24.33036
;WIDTH:0.373765
G1 X90.943 Y134.983 E24.96293
;WIDTH:0.3815
G1 X90.793 Y134.992 E24.96887
;WIDTH:0.42
G1 X90.353 Y135.135 E24.98939
G1 X89.942 Y135.465 E25.01277
G1 X89.708 Y135.861 E25.03317
G1 X89.627 Y136.212 E25.04915
G1 X89.654 Y136.602 E25.06649
G1 X87.707 Y136.599 E25.15285
G1 X87.726 Y136.24 E25.1688
G1 X87.677 Y135.985 E25.18032
G1 X87.541 Y135.654 E25.19619
G1 X87.186 Y135.259 E25.21975
G1 X86.968 Y135.12 E25.23122
G1 X86.636 Y135.007 E25.24678
;WIDTH:0.391568
G1 X86.334 Y134.978 E25.25916
;WIDTH:0.370954
G1 X82.162 Y134.978 E25.41869
;WIDTH:0.377425
G1 X82 Y134.975 E25.42502
;WIDTH:0.419593
G1 X81.163 Y134.954 E25.46211
;WIDTH:0.42
G1 X74.848 Y134.955 E25.74221
;WIDTH:0.417131
G1 X74.188 Y134.978 E25.77127
;WIDTH:0.370954
G1 X70.014 Y134.978 E25.93087
;WIDTH:0.412139
G1 X69.56 Y135.046 E25.95078
;WIDTH:0.42
G1 X69.186 Y135.242 E25.96951
G1 X68.992 Y135.417 E25.9811
G1 X68.708 Y135.861 E26.00448
G1 X68.627 Y136.212 E26.02046
G1 X68.653 Y136.599 E26.03766
G1 X66.71 Y136.602 E26.12384
G1 X66.737 Y136.314 E26.13667
G1 X66.677 Y135.951 E26.15299
G1 X66.481 Y135.57 E26.17199
G1 X66.246 Y135.301 E26.18783
G1 X65.853 Y135.067 E26.20812
;WIDTH:0.409526
G1 X65.407 Y134.983 E26.22766
;WIDTH:0.373771
G1 X49.014 Y134.978 E26.86025
;WIDTH:0.412138
G1 X48.56 Y135.046 E26.88016
;WIDTH:0.42
G1 X48.186 Y135.242 E26.89889
G1 X47.992 Y135.417 E26.91048
G1 X47.708 Y135.861 E26.93386
G1 X47.627 Y136.212 E26.94984
G1 X47.653 Y136.599 E26.96704
G1 X45.71 Y136.602 E27.05322
G1 X45.737 Y136.314 E27.06605
G1 X45.642 Y135.863 E27.08649
G1 X45.409 Y135.466 E27.10691
G1 X45.061 Y135.166 E27.12729
G1 X44.639 Y135.007 E27.14729
;WIDTH:0.391766
G1 X44.335 Y134.978 E27.15976
;WIDTH:0.370953
G1 X40.228 Y134.978 E27.3168
G1 X39.989 Y134.961 E27.32596
;WIDTH:0.368441
G1 X39.398 Y134.861 E27.34869
;WIDTH:0.378395
G1 X38.895 Y134.66 E27.3699
G1 X38.398 Y134.33 E27.39327
;WIDTH:0.368358
G1 X37.968 Y133.891 E27.41657
;WIDTH:0.378396
G1 X37.679 Y133.433 E27.43778
G1 X37.472 Y132.876 E27.46105
;WIDTH:0.370998
G1 X37.372 Y132.129 E27.48987
;WIDTH:0.371837
G1 X37.376 Y130.171 E27.56495
;WIDTH:0.378482
G1 X37.38 Y129.704 E27.58325
G1 X37.704 Y129.741 E27.59603
G1 X37.683 Y130.172 E27.61294
;WIDTH:0.371837
G1 X37.678 Y132.123 E27.68776
;WIDTH:0.370998
G1 X37.683 Y132.256 E27.69285
;WIDTH:0.368274
G1 X37.769 Y132.816 E27.71432
;WIDTH:0.378396
G1 X37.964 Y133.302 E27.73483
G1 X38.243 Y133.745 E27.75533
;WIDTH:0.368358
G1 X38.605 Y134.107 E27.77474
;WIDTH:0.378395
G1 X39.048 Y134.386 E27.79524
G1 X39.534 Y134.581 E27.81575
;WIDTH:0.370953
G1 X40.228 Y134.672 E27.84251
G1 X44.335 Y134.672 E27.99955
;WIDTH:0.391766
G1 X44.666 Y134.682 E28.01307
;WIDTH:0.42
G1 X47.976 Y134.696 E28.15989
G1 X49.014 Y134.672 E28.20594
;WIDTH:0.373771
G1 X65.407 Y134.673 E28.83853
;WIDTH:0.401351
G1 X65.742 Y134.687 E28.85262
;WIDTH:0.42
G1 X68.976 Y134.696 E28.99606
G1 X70.014 Y134.672 E29.04211
;WIDTH:0.370954
G1 X74.188 Y134.672 E29.20171
;WIDTH:0.417131
G1 X74.82 Y134.605 E29.22967
;WIDTH:0.419715
G1 X75.083 Y134.52 E29.24192
;WIDTH:0.42
G1 X75.539 Y134.288 E29.26461
G1 X75.764 Y134.125 E29.27693
G1 X76.125 Y133.764 E29.29957
G1 X76.288 Y133.539 E29.31189
G1 X76.52 Y133.083 E29.33458
G1 X76.606 Y132.821 E29.34681
G1 X76.696 Y132.188 E29.37517
