; generated by PrusaSlicer 2.6.1+win64 on 2023-10-20 at 18:23:25 UTC

; 

; external perimeters extrusion width = 0.45mm
; perimeters extrusion width = 0.45mm
; infill extrusion width = 0.45mm
; solid infill extrusion width = 0.45mm
; top infill extrusion width = 0.40mm
; support material extrusion width = 0.35mm
; first layer extrusion width = 0.42mm

M190 S60 ; set bed temperature and wait for it to be reached
M104 S200 ; set temperature
;TYPE:Custom
START_PRINT
M109 S200 ; set temperature and wait for it to be reached
G21 ; set units to millimeters
G90 ; use absolute coordinates
M82 ; use absolute distances for extrusion
G92 E0
; Filament gcode
M107
;LAYER_CHANGE
;Z:0.35
;HEIGHT:0.35
G1 Z.35 F7800
G1 E-2 F2400
G92 E0
G1 X38.093 Y87.253 F7800
G1 E2 F2400
;TYPE:Perimeter
;WIDTH:0.42
G1 F1800
G1 X38.032 Y87.64 E2.01966
G1 X38.001 Y88.172 E2.0464
G1 X37.995 Y90.187 E2.14752
G1 X38.132 Y90.924 E2.18514
G1 X38.463 Y91.519 E2.21931
G1 X38.962 Y91.982 E2.25347
G1 X39.579 Y92.268 E2.2876
G1 X40.162 Y92.355 E2.31718
G1 X74.188 Y92.355 E4.0248
G1 X74.924 Y92.218 E4.06237
G1 X75.519 Y91.887 E4.09654
G1 X75.982 Y91.388 E4.1307
G1 X76.268 Y90.771 E4.16483
G1 X76.355 Y90.188 E4.19441
G1 X76.348 Y56.08 E5.90615
G1 X76.218 Y55.426 E5.93961
G1 X75.887 Y54.831 E5.97378
G1 X75.388 Y54.368 E6.00794
G1 X74.771 Y54.082 E6.04207
G1 X74.188 Y53.995 E6.07165
G1 X72.172 Y54.001 E6.17283
G1 X71.235 Y54.098 E6.22011
G1 X71.383 Y53.809 E6.2364
G1 X71.402 Y53.587 E6.24758
G1 X71.197 Y53.03 E6.27737
G1 X85.152 Y53.032 E6.97771
G1 X84.98 Y53.463 E7.001
G1 X84.953 Y53.754 E7.01567
G1 X85.097 Y54.093 E7.03415
G1 X84.71 Y54.032 E7.05381
G1 X84.178 Y54.001 E7.08055
G1 X82.08 Y54.002 E7.18584
G1 X81.426 Y54.132 E7.2193
G1 X80.831 Y54.463 E7.25347
G1 X80.368 Y54.962 E7.28763
G1 X80.082 Y55.579 E7.32176
G1 X79.995 Y56.162 E7.35134
G1 X79.995 Y90.188 E9.05896
G1 X80.132 Y90.924 E9.09653
G1 X80.463 Y91.519 E9.1307
G1 X80.962 Y91.982 E9.16486
G1 X81.579 Y92.268 E9.19899
G1 X82.162 Y92.355 E9.22857
G1 X116.188 Y92.355 E10.93619
G1 X116.924 Y92.218 E10.97376
G1 X117.519 Y91.887 E11.00793
G1 X117.982 Y91.388 E11.04209
G1 X118.268 Y90.771 E11.07622
G1 X118.355 Y90.188 E11.1058
G1 X118.348 Y56.08 E12.81754
G1 X118.218 Y55.426 E12.851
G1 X117.887 Y54.831 E12.88517
G1 X117.388 Y54.368 E12.91933
G1 X116.771 Y54.082 E12.95346
G1 X116.188 Y53.995 E12.98304
G1 X114.172 Y54.001 E13.08422
G1 X113.235 Y54.098 E13.1315
G1 X113.383 Y53.809 E13.14779
G1 X113.402 Y53.587 E13.15897
G1 X113.197 Y53.03 E13.18876
G1 X127.152 Y53.032 E13.8891
G1 X126.98 Y53.463 E13.91239
G1 X126.953 Y53.754 E13.92706
G1 X127.097 Y54.093 E13.94554
G1 X126.71 Y54.032 E13.9652
G1 X126.178 Y54.001 E13.99194
G1 X124.08 Y54.002 E14.09723
G1 X123.426 Y54.132 E14.13069
G1 X122.831 Y54.463 E14.16486
G1 X122.368 Y54.962 E14.19902
G1 X122.082 Y55.579 E14.23315
G1 X121.995 Y56.162 E14.26273
G1 X121.995 Y90.188 E15.97035
G1 X122.132 Y90.924 E16.00792
G1 X122.463 Y91.519 E16.04209
G1 X122.962 Y91.982 E16.07625
G1 X123.579 Y92.268 E16.11038
G1 X124.162 Y92.355 E16.13996
G1 X158.188 Y92.355 E17.84758
G1 X158.924 Y92.218 E17.88515
G1 X159.519 Y91.887 E17.91932
G1 X159.982 Y91.388 E17.95348
G1 X160.268 Y90.771 E17.98761
G1 X160.355 Y90.188 E18.01719
G1 X160.348 Y56.08 E19.72893
G1 X160.218 Y55.426 E19.76239
G1 X159.887 Y54.831 E19.79656
G1 X159.388 Y54.368 E19.83072
G1 X158.771 Y54.082 E19.86485
G1 X158.187 Y53.995 E19.89448
G1 X156.172 Y54.001 E19.9956
G1 X155.235 Y54.098 E20.04288
G1 X155.383 Y53.809 E20.05917
G1 X155.402 Y53.587 E20.07035
G1 X155.197 Y53.03 E20.10014
G1 X158.122 Y53.03 E20.24693
G1 X158.628 Y53.068 E20.2724
G1 X159.033 Y53.159 E20.29323
G1 X159.566 Y53.36 E20.32182
G1 X159.923 Y53.572 E20.34266
G1 X160.368 Y53.928 E20.37126
G1 X160.642 Y54.24 E20.3921
G1 X160.953 Y54.713 E20.42051
G1 X161.149 Y55.169 E20.44542
G1 X161.279 Y55.683 E20.47203
G1 X161.32 Y56.209 E20.49851
G1 X161.32 Y60.337 E20.70568
G1 X161.459 Y60.819 E20.73086
G1 X161.717 Y61.142 E20.75161
G1 X162.07 Y61.331 E20.77171
G1 X162.482 Y61.363 E20.79245
G1 X162.749 Y61.295 E20.80628
G1 X162.969 Y61.17 E20.81898
G1 X162.965 Y64.154 E20.96873
G1 X162.551 Y63.996 E20.99097
G1 X162.175 Y63.996 E21.00984
G1 X161.975 Y64.061 E21.02039
G1 X161.592 Y64.327 E21.04379
G1 X161.397 Y64.65 E21.06273
G1 X161.32 Y65.013 E21.08135
G1 X161.326 Y81.407 E21.9041
G1 X161.353 Y81.571 E21.91244
G1 X161.514 Y81.918 E21.93164
G1 X161.857 Y82.237 E21.95515
G1 X162.07 Y82.331 E21.96683
G1 X162.482 Y82.363 E21.98757
G1 X162.749 Y82.295 E22.0014
G1 X162.969 Y82.17 E22.0141
G1 X162.965 Y85.154 E22.16385
G1 X162.551 Y84.996 E22.18609
G1 X162.176 Y84.996 E22.20491
G1 X161.976 Y85.061 E22.21546
G1 X161.592 Y85.327 E22.2389
G1 X161.397 Y85.65 E22.25784
G1 X161.32 Y86.013 E22.27646
G1 X161.326 Y102.407 E23.09921
G1 X161.353 Y102.571 E23.10755
G1 X161.514 Y102.918 E23.12675
G1 X161.857 Y103.237 E23.15026
G1 X162.07 Y103.331 E23.16194
G1 X162.482 Y103.363 E23.18268
G1 X162.749 Y103.295 E23.19651
G1 X162.969 Y103.17 E23.20921
G1 X162.965 Y106.154 E23.35896
G1 X162.551 Y105.996 E23.3812
G1 X162.175 Y105.996 E23.40007
G1 X161.975 Y106.061 E23.41062
G1 X161.592 Y106.327 E23.43402
G1 X161.399 Y106.644 E23.45265
G1 X161.321 Y106.997 E23.47079
G1 X161.32 Y123.337 E24.29083
G1 X161.397 Y123.7 E24.30945
G1 X161.513 Y123.917 E24.3218
G1 X161.857 Y124.237 E24.34538
G1 X162.07 Y124.331 E24.35706
G1 X162.482 Y124.363 E24.3778
G1 X162.749 Y124.295 E24.39163
G1 X162.965 Y124.173 E24.40408
G1 X162.969 Y127.156 E24.55378
G1 X162.556 Y126.996 E24.57601
G1 X162.176 Y126.996 E24.59508
G1 X161.856 Y127.114 E24.6122
G1 X161.589 Y127.33 E24.62944
G1 X161.407 Y127.617 E24.6465
G1 X161.32 Y128.015 E24.66695
G1 X161.32 Y132.122 E24.87306
G1 X161.282 Y132.628 E24.89853
G1 X161.191 Y133.033 E24.91936
G1 X160.99 Y133.566 E24.94795
G1 X160.778 Y133.923 E24.96879
G1 X160.422 Y134.368 E24.99739
G1 X160.11 Y134.642 E25.01823
G1 X159.635 Y134.955 E25.04678
G1 X159.184 Y135.148 E25.0714
G1 X158.666 Y135.279 E25.09821
G1 X158.141 Y135.32 E25.12464
G1 X154.013 Y135.32 E25.33181
G1 X153.649 Y135.397 E25.35048
G1 X153.432 Y135.514 E25.36285
G1 X153.113 Y135.858 E25.38639
G1 X153.019 Y136.07 E25.39803
G1 X152.987 Y136.482 E25.41877
G1 X153.055 Y136.749 E25.4326
G1 X153.18 Y136.969 E25.4453
G1 X150.196 Y136.965 E25.59505
G1 X150.354 Y136.551 E25.61729
G1 X150.366 Y136.306 E25.6296
G1 X150.317 Y136.05 E25.64268
G1 X150.237 Y135.859 E25.65307
G1 X150.025 Y135.593 E25.67014
G1 X149.701 Y135.397 E25.68914
G1 X149.337 Y135.32 E25.70781
G1 X132.853 Y135.334 E26.53507
G1 X132.464 Y135.487 E26.55605
G1 X132.187 Y135.752 E26.57529
G1 X132.019 Y136.071 E26.59338
G1 X131.987 Y136.482 E26.61407
G1 X132.055 Y136.749 E26.6279
G1 X132.18 Y136.969 E26.6406
G1 X129.196 Y136.965 E26.79035
G1 X129.354 Y136.551 E26.81259
G1 X129.354 Y136.177 E26.83136
G1 X129.29 Y135.977 E26.8419
G1 X129.024 Y135.592 E26.86538
G1 X128.701 Y135.397 E26.88432
G1 X128.337 Y135.32 E26.90299
G1 X111.943 Y135.326 E27.72574
G1 X111.779 Y135.353 E27.73408
G1 X111.432 Y135.514 E27.75328
G1 X111.113 Y135.857 E27.77679
G1 X111.019 Y136.07 E27.78847
G1 X110.987 Y136.482 E27.80921
G1 X111.055 Y136.749 E27.82304
G1 X111.18 Y136.969 E27.83574
G1 X108.196 Y136.965 E27.98549
G1 X108.284 Y136.788 E27.99541
G1 X108.372 Y136.348 E28.01793
G1 X108.331 Y136.069 E28.03208
G1 X108.16 Y135.748 E28.05033
G1 X107.987 Y135.567 E28.0629
G1 X107.576 Y135.354 E28.08613
G1 X107.334 Y135.32 E28.09839
G1 X90.943 Y135.326 E28.92099
G1 X90.779 Y135.353 E28.92933
G1 X90.432 Y135.514 E28.94853
G1 X90.113 Y135.857 E28.97204
G1 X90.019 Y136.07 E28.98372
G1 X89.987 Y136.482 E29.00446
G1 X90.055 Y136.749 E29.01829
G1 X90.18 Y136.969 E29.03099
G1 X87.196 Y136.965 E29.18074
G1 X87.354 Y136.553 E29.20288
G1 X87.366 Y136.309 E29.21514
G1 X87.318 Y136.053 E29.22821
G1 X87.237 Y135.858 E29.23881
G1 X87.023 Y135.592 E29.25594
G1 X86.7 Y135.397 E29.27488
G1 X86.337 Y135.32 E29.2935
G1 X69.943 Y135.326 E30.11625
G1 X69.779 Y135.353 E30.12459
G1 X69.432 Y135.514 E30.14379
G1 X69.113 Y135.857 E30.1673
G1 X69.019 Y136.07 E30.17898
G1 X68.987 Y136.482 E30.19972
G1 X69.055 Y136.749 E30.21355
G1 X69.18 Y136.969 E30.22625
G1 X66.196 Y136.965 E30.376
G1 X66.354 Y136.551 E30.39824
G1 X66.354 Y136.175 E30.41711
G1 X66.289 Y135.975 E30.42766
G1 X66.022 Y135.591 E30.45113
G1 X65.698 Y135.396 E30.47011
G1 X65.337 Y135.32 E30.48862
G1 X49.013 Y135.32 E31.30785
G1 X48.65 Y135.397 E31.32647
G1 X48.433 Y135.513 E31.33882
G1 X48.113 Y135.857 E31.3624
G1 X48.019 Y136.07 E31.37408
G1 X47.987 Y136.482 E31.39482
G1 X48.055 Y136.749 E31.40865
G1 X48.177 Y136.965 E31.4211
G1 X45.194 Y136.969 E31.5708
G1 X45.354 Y136.556 E31.59303
G1 X45.354 Y136.176 E31.6121
G1 X45.236 Y135.856 E31.62922
G1 X45.02 Y135.589 E31.64646
G1 X44.733 Y135.407 E31.66352
G1 X44.335 Y135.32 E31.68397
G1 X40.228 Y135.32 E31.89008
G1 X39.722 Y135.282 E31.91555
G1 X39.317 Y135.191 E31.93638
G1 X38.784 Y134.99 E31.96497
G1 X38.427 Y134.778 E31.98581
G1 X37.982 Y134.422 E32.01441
G1 X37.708 Y134.11 E32.03525
G1 X37.395 Y133.634 E32.06384
G1 X37.201 Y133.181 E32.08857
G1 X37.071 Y132.667 E32.11518
G1 X37.03 Y132.142 E32.14161
G1 X37.036 Y129.2 E32.28926
G1 X37.463 Y129.37 E32.31233
G1 X37.754 Y129.397 E32.327
G1 X38.093 Y129.253 E32.34548
G1 X38.032 Y129.64 E32.36514
G1 X38.001 Y130.172 E32.39188
G1 X38.002 Y132.27 E32.49717
G1 X38.132 Y132.924 E32.53063
G1 X38.463 Y133.519 E32.5648
G1 X38.962 Y133.982 E32.59896
G1 X39.579 Y134.268 E32.63309
G1 X40.162 Y134.355 E32.66267
G1 X74.188 Y134.355 E34.37029
G1 X74.924 Y134.218 E34.40786
G1 X75.519 Y133.887 E34.44203
G1 X75.982 Y133.388 E34.47619
G1 X76.268 Y132.771 E34.51032
G1 X76.355 Y132.188 E34.5399
G1 X76.355 Y98.162 E36.24752
G1 X76.218 Y97.426 E36.28509
G1 X75.887 Y96.831 E36.31926
G1 X75.388 Y96.368 E36.35342
G1 X74.771 Y96.082 E36.38755
G1 X74.188 Y95.995 E36.41713
G1 X40.162 Y95.995 E38.12475
G1 X39.426 Y96.132 E38.16232
G1 X38.831 Y96.463 E38.19649
G1 X38.368 Y96.962 E38.23065
G1 X38.082 Y97.579 E38.26478
G1 X37.995 Y98.162 E38.29436
G1 X38.001 Y100.178 E38.39554
G1 X38.098 Y101.116 E38.44287
G1 X37.809 Y100.967 E38.45919
G1 X37.587 Y100.948 E38.47037
G1 X37.03 Y101.153 E38.50016
G1 X37.032 Y87.198 E39.2005
G1 X37.463 Y87.37 E39.22379
G1 X37.754 Y87.397 E39.23846
G1 X38.038 Y87.277 E39.25393
G1 E37.25393 F2400
G92 E0
G1 X159.928 Y96.905 F7800
G1 E2 F2400
G1 F1800
G1 X160.218 Y97.426 E2.02992
G1 X160.355 Y98.162 E2.06749
G1 X160.355 Y132.188 E3.77511
G1 X160.268 Y132.771 E3.80469
G1 X159.982 Y133.388 E3.83882
G1 X159.519 Y133.887 E3.87298
G1 X158.924 Y134.218 E3.90715
G1 X158.27 Y134.348 E3.94061
G1 X158.122 Y134.355 E3.94805
G1 X124.162 Y134.355 E5.65236
G1 X123.579 Y134.268 E5.68194
G1 X122.962 Y133.982 E5.71607
G1 X122.463 Y133.519 E5.75023
G1 X122.132 Y132.924 E5.7844
G1 X121.995 Y132.188 E5.82197
G1 X121.995 Y98.162 E7.52959
G1 X122.082 Y97.579 E7.55917
G1 X122.368 Y96.962 E7.5933
G1 X122.831 Y96.463 E7.62746
G1 X123.426 Y96.132 E7.66163
G1 X124.162 Y95.995 E7.6992
G1 X158.188 Y95.995 E9.40682
G1 X158.771 Y96.082 E9.4364
G1 X159.388 Y96.368 E9.47053
G1 X159.899 Y96.853 E9.50589
G1 X159.643 Y97.075 F7800
;TYPE:External perimeter
G1 F1800
G1 X159.911 Y97.583 E9.53471
G1 X160.01 Y98.162 E9.56419
G1 X160.01 Y132.188 E11.27181
G1 X159.927 Y132.716 E11.29863
G1 X159.675 Y133.231 E11.3274
G1 X159.275 Y133.643 E11.35622
G1 X158.767 Y133.911 E11.38504
G1 X158.122 Y134.01 E11.41779
G1 X124.162 Y134.01 E13.1221
G1 X123.634 Y133.927 E13.14892
G1 X123.119 Y133.675 E13.17769
G1 X122.707 Y133.275 E13.20651
G1 X122.439 Y132.767 E13.23533
G1 X122.34 Y132.188 E13.26481
G1 X122.34 Y98.162 E14.97243
G1 X122.423 Y97.634 E14.99925
G1 X122.675 Y97.119 E15.02802
G1 X123.075 Y96.707 E15.05684
G1 X123.583 Y96.439 E15.08566
G1 X124.162 Y96.34 E15.11514
G1 X158.188 Y96.34 E16.82276
G1 X158.716 Y96.423 E16.84958
G1 X159.231 Y96.675 E16.87835
G1 X159.6 Y97.033 E16.90415
G1 X160.04 Y97.028 F7800
G1 E14.90415 F2400
G92 E0
G1 X148.152 Y53.032 F7800
G1 E2 F2400
;TYPE:Perimeter
G1 F1800
G1 X147.98 Y53.463 E2.02329
G1 X147.953 Y53.754 E2.03796
G1 X148.097 Y54.093 E2.05644
G1 X147.71 Y54.032 E2.0761
G1 X147.179 Y54.001 E2.10279
G1 X146.178 Y53.995 E2.15303
G1 X135.174 Y54.001 E2.70528
G1 X134.234 Y54.098 E2.75271
G1 X134.383 Y53.809 E2.76903
G1 X134.402 Y53.587 E2.78021
G1 X134.197 Y53.03 E2.81
G1 X148.092 Y53.032 E3.50733
G1 E1.50733 F2400
G92 E0
G1 X159.231 Y54.675 F7800
G1 E2 F2400
;TYPE:External perimeter
G1 F1800
G1 X159.643 Y55.075 E2.02882
G1 X159.911 Y55.583 E2.05764
G1 X160.01 Y56.228 E2.09039
G1 X160.01 Y90.188 E3.7947
G1 X159.927 Y90.716 E3.82152
G1 X159.675 Y91.231 E3.85029
G1 X159.275 Y91.643 E3.87911
G1 X158.767 Y91.911 E3.90793
G1 X158.188 Y92.01 E3.93741
G1 X124.162 Y92.01 E5.64503
G1 X123.634 Y91.927 E5.67185
G1 X123.119 Y91.675 E5.70062
G1 X122.707 Y91.275 E5.72944
G1 X122.439 Y90.767 E5.75826
G1 X122.34 Y90.188 E5.78774
G1 X122.34 Y56.162 E7.49536
G1 X122.426 Y55.616 E7.5231
G1 X122.675 Y55.119 E7.551
G1 X123.075 Y54.707 E7.57982
G1 X123.583 Y54.439 E7.60864
G1 X124.162 Y54.34 E7.63812
G1 X126.177 Y54.346 E7.73924
G1 X126.69 Y54.376 E7.76503
G1 X127.848 Y54.552 E7.82381
;WIDTH:0.42025
G1 X133.536 Y54.548 E8.10947
;WIDTH:0.42
G1 X134.941 Y54.359 E8.18062
G1 X135.174 Y54.346 E8.19233
G1 X146.176 Y54.34 E8.74447
G1 X147.177 Y54.346 E8.79471
G1 X147.69 Y54.376 E8.8205
G1 X148.853 Y54.549 E8.87951
;WIDTH:0.416234
G1 X148.913 Y54.55 E8.88249
;WIDTH:0.42508
G1 X154.17 Y54.557 E9.1502
G1 X154.74 Y54.531 E9.17926
;WIDTH:0.422313
G1 X155.511 Y54.401 E9.21876
;WIDTH:0.42
G1 X156.173 Y54.346 E9.2521
G1 X158.188 Y54.34 E9.35322
G1 X158.716 Y54.423 E9.38004
G1 X159.177 Y54.649 E9.40581
G1 X159.595 Y54.509 F7800
G1 E7.40581 F2400
G92 E0
G1 X106.097 Y54.093 F7800
G1 E2 F2400
;TYPE:Perimeter
G1 F1800
G1 X105.71 Y54.032 E2.01966
G1 X105.179 Y54.001 E2.04635
G1 X104.178 Y53.995 E2.09659
G1 X93.174 Y54.001 E2.64884
G1 X92.234 Y54.098 E2.69627
G1 X92.383 Y53.809 E2.71259
G1 X92.402 Y53.587 E2.72377
G1 X92.197 Y53.03 E2.75356
G1 X106.152 Y53.032 E3.4539
G1 X105.98 Y53.463 E3.47719
G1 X105.953 Y53.754 E3.49186
G1 X106.073 Y54.038 E3.50733
G1 E1.50733 F2400
G92 E0
G1 X64.097 Y54.093 F7800
G1 E2 F2400
G1 F1800
G1 X63.71 Y54.032 E2.01966
G1 X63.179 Y54.001 E2.04635
G1 X62.178 Y53.995 E2.09659
G1 X51.174 Y54.001 E2.64884
G1 X50.234 Y54.098 E2.69627
G1 X50.383 Y53.809 E2.71259
G1 X50.402 Y53.587 E2.72377
G1 X50.197 Y53.03 E2.75356
G1 X64.152 Y53.032 E3.4539
G1 X63.98 Y53.463 E3.47719
G1 X63.953 Y53.754 E3.49186
G1 X64.073 Y54.038 E3.50733
G1 E1.50733 F2400
G92 E0
G1 X43.097 Y54.093 F7800
G1 E2 F2400
G1 F1800
G1 X42.71 Y54.032 E2.01966
G1 X42.178 Y54.001 E2.0464
G1 X40.08 Y54.002 E2.15169
G1 X39.426 Y54.132 E2.18515
G1 X38.831 Y54.463 E2.21932
G1 X38.368 Y54.962 E2.25348
G1 X38.082 Y55.579 E2.28761
G1 X37.995 Y56.163 E2.31724
G1 X38.001 Y58.178 E2.41836
G1 X38.093 Y59.097 E2.46471
G1 X37.881 Y58.995 E2.47652
G1 X37.588 Y58.947 E2.49142
G1 X37.036 Y59.15 E2.52094
G1 X37.03 Y56.227 E2.66763
G1 X37.068 Y55.722 E2.69305
G1 X37.159 Y55.317 E2.71388
G1 X37.36 Y54.784 E2.74247
G1 X37.572 Y54.427 E2.76331
G1 X37.928 Y53.982 E2.79191
G1 X38.24 Y53.708 E2.81275
G1 X38.715 Y53.395 E2.8413
G1 X39.169 Y53.201 E2.86608
G1 X39.683 Y53.071 E2.89269
G1 X40.208 Y53.03 E2.91912
G1 X43.152 Y53.032 E3.06687
G1 X42.98 Y53.463 E3.09016
G1 X42.953 Y53.754 E3.10483
G1 X43.073 Y54.038 E3.1203
G1 E1.1203 F2400
G92 E0
G1 X38.098 Y80.116 F7800
G1 E2 F2400
G1 F1800
G1 X37.809 Y79.967 E2.01632
G1 X37.587 Y79.948 E2.0275
G1 X37.03 Y80.153 E2.05729
G1 X37.03 Y66.197 E2.75768
G1 X37.462 Y66.37 E2.78103
G1 X37.754 Y66.397 E2.79575
G1 X38.098 Y66.235 E2.81483
G1 X38.032 Y66.64 E2.83542
G1 X38.001 Y67.171 E2.86211
G1 X37.995 Y68.172 E2.91235
G1 X38.001 Y79.176 E3.4646
G1 X38.091 Y80.056 E3.50899
G1 E1.50899 F2400
G92 E0
G1 X75.675 Y91.231 F7800
G1 E2 F2400
;TYPE:External perimeter
G1 F1800
G1 X75.275 Y91.643 E2.02882
G1 X74.767 Y91.911 E2.05764
G1 X74.188 Y92.01 E2.08712
G1 X40.162 Y92.01 E3.79474
G1 X39.634 Y91.927 E3.82156
G1 X39.119 Y91.675 E3.85033
G1 X38.707 Y91.275 E3.87915
G1 X38.439 Y90.767 E3.90797
G1 X38.34 Y90.188 E3.93745
