; generated by PrusaSlicer 2.6.1+win64 on 2023-10-20 at 21:20:38 UTC

; 

; external perimeters extrusion width = 0.45mm
; perimeters extrusion width = 0.45mm
; infill extrusion width = 0.45mm
; solid infill extrusion width = 0.45mm
; top infill extrusion width = 0.40mm
; support material extrusion width = 0.35mm
; first layer extrusion width = 0.42mm

M190 S60 ; set bed temperature and wait for it to be reached
M104 S200 ; set temperature
;TYPE:Custom
START_PRINT
M109 S200 ; set temperature and wait for it to be reached
G21 ; set units to millimeters
G90 ; use absolute coordinates
M82 ; use absolute distances for extrusion
G92 E0
; Filament gcode
M107
;LAYER_CHANGE
;Z:0.35
;HEIGHT:0.35
G1 Z.35 F7800
G1 E-2 F2400
G92 E0
G1 X108.903 Y123.866 F7800
G1 E2 F2400
;TYPE:Perimeter
;WIDTH:0.42
G1 F1800
G1 X108.992 Y124.751 E2.04464
G1 X109.25 Y125.542 E2.0864
G1 X109.663 Y126.262 E2.12806
G1 X110.212 Y126.885 E2.16973
G1 X110.874 Y127.384 E2.21133
G1 X111.624 Y127.741 E2.25302
G1 X112.431 Y127.939 E2.29472
G1 X113.261 Y127.97 E2.3364
G1 X114.079 Y127.833 E2.37802
G1 X114.854 Y127.535 E2.41969
G1 X115.552 Y127.088 E2.46129
G1 X116.147 Y126.508 E2.50299
G1 X116.613 Y125.82 E2.54469
G1 X116.93 Y125.053 E2.58634
;WIDTH:0.460039
G1 X117.098 Y124.347 E2.62699
G1 X117.12 Y125.072 E2.66762
;WIDTH:0.42
G1 X117.12 Y148.678 E3.85231
;WIDTH:0.464547
G1 X117.098 Y149.403 E3.89341
G1 X116.899 Y148.597 E3.94046
;WIDTH:0.42
G1 X116.562 Y147.838 E3.98214
G1 X116.079 Y147.163 E4.02379
G1 X115.469 Y146.599 E4.06548
G1 X114.76 Y146.169 E4.10709
G1 X113.978 Y145.891 E4.14874
G1 X113.156 Y145.775 E4.1904
G1 X112.327 Y145.827 E4.23209
G1 X111.624 Y146.009 E4.26853
G1 X110.786 Y146.421 E4.31539
G1 X110.136 Y146.937 E4.35704
G1 X109.604 Y147.573 E4.39865
G1 X109.209 Y148.306 E4.44044
G1 X108.971 Y149.1 E4.48204
G1 X108.897 Y149.928 E4.52376
G1 X108.992 Y150.751 E4.56534
G1 X109.25 Y151.542 E4.6071
G1 X109.663 Y152.262 E4.64876
G1 X110.212 Y152.885 E4.69043
G1 X110.874 Y153.384 E4.73203
G1 X111.624 Y153.741 E4.77372
;WIDTH:0.456692
G1 X111.971 Y153.85 E4.79392
;WIDTH:0.493385
G1 X112.318 Y153.958 E4.81604
G1 X111.955 Y153.977 E4.83816
;WIDTH:0.456692
G1 X111.592 Y153.995 E4.85834
;WIDTH:0.42
G1 X88.834 Y153.995 E6.00047
;WIDTH:0.466151
G1 X88.556 Y153.972 E6.01634
;WIDTH:0.512302
G1 X88.279 Y153.949 E6.03402
;WIDTH:0.558453
G1 X88.001 Y153.926 E6.05364
G1 X88.097 Y153.881 E6.0611
;WIDTH:0.521011
G1 X88.349 Y153.766 E6.07907
;WIDTH:0.48734
G1 X88.602 Y153.65 E6.09577
;WIDTH:0.45367
G1 X88.854 Y153.535 E6.11103
;WIDTH:0.42
G1 X89.552 Y153.088 E6.15263
G1 X90.147 Y152.508 E6.19433
G1 X90.613 Y151.82 E6.23603
G1 X90.93 Y151.053 E6.27768
G1 X91.087 Y150.238 E6.31933
G1 X91.076 Y149.408 E6.36099
G1 X90.899 Y148.597 E6.40265
G1 X90.562 Y147.838 E6.44433
G1 X90.079 Y147.163 E6.48598
G1 X89.469 Y146.599 E6.52767
G1 X88.76 Y146.169 E6.56928
G1 X87.978 Y145.891 E6.61093
G1 X87.156 Y145.775 E6.65259
G1 X86.327 Y145.827 E6.69428
G1 X85.525 Y146.046 E6.736
G1 X84.786 Y146.421 E6.77759
G1 X84.136 Y146.937 E6.81924
G1 X83.604 Y147.573 E6.86085
G1 X83.209 Y148.306 E6.90264
;WIDTH:0.46581
G1 X83.067 Y148.701 E6.9265
;WIDTH:0.511621
G1 X82.926 Y149.096 E6.95314
G1 X82.913 Y148.982 E6.96043
;WIDTH:0.485399
G1 X82.896 Y148.619 E6.98213
;WIDTH:0.452699
G1 X82.88 Y148.256 E7.00209
;WIDTH:0.42
G1 X82.88 Y125.494 E8.14442
;WIDTH:0.468602
G1 X82.904 Y125.095 E8.16731
;WIDTH:0.517205
G1 X82.928 Y124.695 E8.19309
G1 X82.954 Y124.763 E8.19777
;WIDTH:0.499222
G1 X83.102 Y125.152 E8.22346
;WIDTH:0.459611
G1 X83.25 Y125.542 E8.2468
;WIDTH:0.42
G1 X83.663 Y126.262 E8.28846
G1 X84.212 Y126.885 E8.33013
G1 X84.874 Y127.384 E8.37173
G1 X85.624 Y127.741 E8.41342
G1 X86.431 Y127.939 E8.45512
G1 X87.261 Y127.97 E8.4968
G1 X88.079 Y127.833 E8.53842
G1 X88.854 Y127.535 E8.58009
G1 X89.552 Y127.088 E8.62169
G1 X90.147 Y126.508 E8.66339
G1 X90.613 Y125.82 E8.70509
G1 X90.93 Y125.053 E8.74674
G1 X91.087 Y124.238 E8.78839
G1 X91.076 Y123.408 E8.83005
G1 X90.899 Y122.597 E8.87171
G1 X90.562 Y121.838 E8.91339
G1 X90.079 Y121.163 E8.95504
G1 X89.469 Y120.599 E8.99673
G1 X88.76 Y120.169 E9.03834
;WIDTH:0.465418
G1 X88.503 Y120.053 E9.05435
;WIDTH:0.510836
G1 X88.246 Y119.938 E9.0722
;WIDTH:0.556255
G1 X87.989 Y119.823 E9.09191
G1 X88.108 Y119.803 E9.10036
;WIDTH:0.515205
G1 X88.471 Y119.779 E9.12366
;WIDTH:0.467602
G1 X88.834 Y119.755 E9.14444
;WIDTH:0.42
G1 X111.592 Y119.756 E10.28657
;WIDTH:0.451447
G1 X111.977 Y119.772 E10.30767
;WIDTH:0.482895
G1 X112.362 Y119.787 E10.33053
G1 X112.32 Y119.8 E10.33314
;WIDTH:0.475938
G1 X111.923 Y119.923 E10.35738
;WIDTH:0.447969
G1 X111.525 Y120.046 E10.37998
;WIDTH:0.42
G1 X110.786 Y120.421 E10.42157
G1 X110.136 Y120.937 E10.46322
G1 X109.604 Y121.573 E10.50483
G1 X109.209 Y122.306 E10.54662
G1 X108.971 Y123.1 E10.58822
G1 X108.908 Y123.806 E10.62379
G1 E8.62379 F2400
G92 E0
G1 X113.989 Y119.824 F7800
G1 E2 F2400
;WIDTH:0.555311
G1 F1800
G1 X114.108 Y119.803 E2.00844
;WIDTH:0.514578
G1 X114.471 Y119.78 E2.0317
;WIDTH:0.467289
G1 X114.834 Y119.756 E2.05246
;WIDTH:0.42
G1 X116.938 Y119.756 E2.15805
G1 X117.094 Y119.829 E2.16669
G1 X117.12 Y119.969 E2.17384
G1 X117.12 Y122.678 E2.30979
;WIDTH:0.464547
G1 X117.098 Y123.403 E2.35089
G1 X116.899 Y122.597 E2.39794
;WIDTH:0.42
G1 X116.562 Y121.838 E2.43962
G1 X116.147 Y121.242 E2.47607
G1 X115.469 Y120.599 E2.52296
G1 X114.76 Y120.169 E2.56457
;WIDTH:0.465103
G1 X114.503 Y120.054 E2.58055
;WIDTH:0.510207
G1 X114.246 Y119.939 E2.59838
;WIDTH:0.555311
G1 X114.043 Y119.848 E2.61392
G1 E.61392 F2400
G92 E0
G1 X109.242 Y123.908 F7800
G1 E2 F2400
;TYPE:External perimeter
;WIDTH:0.42
G1 F1800
G1 X109.314 Y123.136 E2.03891
G1 X109.538 Y122.408 E2.07714
G1 X109.905 Y121.741 E2.11535
G1 X110.397 Y121.162 E2.15348
G1 X110.997 Y120.694 E2.19167
G1 X111.678 Y120.355 E2.22985
G1 X112.413 Y120.161 E2.268
G1 X113.173 Y120.119 E2.3062
G1 X113.926 Y120.231 E2.34441
G1 X114.64 Y120.492 E2.38256
G1 X115.287 Y120.891 E2.42071
G1 X115.864 Y121.439 E2.46065
G1 X116.279 Y122.035 E2.4971
G1 X116.582 Y122.733 E2.53529
G1 X116.738 Y123.477 E2.57344
G1 X116.742 Y124.238 E2.61163
G1 X116.593 Y124.983 E2.64976
G1 X116.296 Y125.684 E2.68797
G1 X115.864 Y126.311 E2.72618
G1 X115.314 Y126.837 E2.76437
G1 X114.671 Y127.243 E2.80253
G1 X113.96 Y127.51 E2.84065
G1 X113.208 Y127.629 E2.87886
G1 X112.448 Y127.594 E2.91704
G1 X111.71 Y127.407 E2.95525
G1 X111.026 Y127.075 E2.99341
G1 X110.423 Y126.613 E3.03153
G1 X109.925 Y126.037 E3.06974
G1 X109.552 Y125.374 E3.10792
G1 X109.321 Y124.648 E3.14615
G1 X109.248 Y123.968 E3.18047
G1 X108.894 Y123.71 F7800
G1 E1.18047 F2400
G92 E0
G1 X112.362 Y119.787 F7800
G1 E2 F2400
;TYPE:Perimeter
;WIDTH:0.482895
G1 F1800
G1 X113.156 Y119.765 E2.04713
;WIDTH:0.477637
G1 X113.433 Y119.785 E2.0634
;WIDTH:0.516474
G1 X113.711 Y119.804 E2.0813
;WIDTH:0.555311
G1 X113.989 Y119.824 E2.10078
G1 E.10078 F2400
G92 E0
G1 X117.098 Y123.403 F7800
G1 E2 F2400
;WIDTH:0.464547
G1 F1800
G1 X117.103 Y124.238 E2.04732
;WIDTH:0.461647
G1 X117.099 Y124.331 E2.05256
G1 E.05256 F2400
G92 E0
G1 X117.098 Y150.347 F7800
G1 E2 F2400
;WIDTH:0.460039
G1 F1800
G1 X117.12 Y151.072 E2.04063
;WIDTH:0.42
G1 X117.12 Y153.783 E2.17668
G1 X117.067 Y153.915 E2.18382
G1 X116.92 Y153.995 E2.19222
G1 X114.834 Y153.995 E2.29691
;WIDTH:0.466149
G1 X114.556 Y153.972 E2.31278
;WIDTH:0.512299
G1 X114.279 Y153.949 E2.33046
;WIDTH:0.558449
G1 X114.001 Y153.926 E2.35008
G1 X114.097 Y153.881 E2.35754
;WIDTH:0.521008
G1 X114.349 Y153.766 E2.37551
;WIDTH:0.487338
G1 X114.602 Y153.65 E2.39221
;WIDTH:0.453669
G1 X114.854 Y153.535 E2.40747
;WIDTH:0.42
G1 X115.552 Y153.088 E2.44907
G1 X116.147 Y152.508 E2.49077
G1 X116.613 Y151.82 E2.53247
G1 X116.93 Y151.053 E2.57412
;WIDTH:0.460039
G1 X117.084 Y150.405 E2.61143
G1 E.61143 F2400
G92 E0
G1 X113.173 Y146.119 F7800
G1 E2 F2400
;TYPE:External perimeter
;WIDTH:0.42
G1 F1800
G1 X113.926 Y146.231 E2.03821
G1 X114.64 Y146.492 E2.07636
G1 X115.287 Y146.891 E2.11451
G1 X115.841 Y147.413 E2.15271
G1 X116.279 Y148.035 E2.19089
G1 X116.582 Y148.733 E2.22908
G1 X116.738 Y149.477 E2.26723
G1 X116.742 Y150.238 E2.30542
G1 X116.593 Y150.983 E2.34355
G1 X116.296 Y151.684 E2.38176
G1 X115.864 Y152.311 E2.41997
G1 X115.314 Y152.837 E2.45816
G1 X114.671 Y153.243 E2.49632
G1 X113.96 Y153.51 E2.53444
G1 X113.208 Y153.629 E2.57265
G1 X112.448 Y153.594 E2.61083
G1 X111.71 Y153.407 E2.64904
G1 X111.026 Y153.075 E2.6872
G1 X110.423 Y152.613 E2.72532
G1 X109.925 Y152.037 E2.76353
G1 X109.552 Y151.374 E2.80171
G1 X109.321 Y150.648 E2.83994
G1 X109.24 Y149.893 E2.87805
G1 X109.314 Y149.136 E2.91622
G1 X109.538 Y148.408 E2.95445
G1 X109.905 Y147.741 E2.99266
G1 X110.397 Y147.162 E3.03079
G1 X110.997 Y146.694 E3.06898
G1 X111.678 Y146.355 E3.10716
G1 X112.413 Y146.161 E3.14531
G1 X113.113 Y146.123 E3.18049
G1 X113.389 Y145.782 F7800
G1 E1.18049 F2400
G92 E0
G1 X117.098 Y149.403 F7800
G1 E2 F2400
;TYPE:Perimeter
;WIDTH:0.464547
G1 F1800
G1 X117.103 Y150.238 E2.04732
;WIDTH:0.461647
G1 X117.099 Y150.331 E2.05256
G1 E.05256 F2400
G92 E0
G1 X114.001 Y153.926 F7800
G1 E2 F2400
;WIDTH:0.558449
G1 F1800
G1 X113.755 Y153.945 E2.01735
;WIDTH:0.520761
G1 X113.509 Y153.964 E2.03335
;WIDTH:0.483073
G1 X113.263 Y153.982 E2.04799
;WIDTH:0.476371
G1 X112.429 Y153.967 E2.09669
;WIDTH:0.493385
G1 X112.318 Y153.958 E2.10347
G1 E.10347 F2400
G92 E0
G1 X84.171 Y152.839 F7800
G1 E2 F2400
;WIDTH:0.42
G1 F1800
G1 X84.874 Y153.384 E2.04464
G1 X85.624 Y153.741 E2.08633
;WIDTH:0.456692
G1 X85.971 Y153.85 E2.10653
;WIDTH:0.493385
G1 X86.318 Y153.958 E2.12865
G1 X85.955 Y153.977 E2.15077
;WIDTH:0.456692
G1 X85.592 Y153.995 E2.17095
;WIDTH:0.42
G1 X83.134 Y153.995 E2.29431
G1 X82.924 Y153.941 E2.30519
G1 X82.88 Y153.817 E2.31179
G1 X82.88 Y151.494 E2.42837
;WIDTH:0.468602
G1 X82.904 Y151.095 E2.45126
;WIDTH:0.517205
G1 X82.928 Y150.695 E2.47704
G1 X82.954 Y150.763 E2.48172
;WIDTH:0.499222
G1 X83.102 Y151.152 E2.50741
;WIDTH:0.459611
G1 X83.25 Y151.542 E2.53075
;WIDTH:0.42
G1 X83.663 Y152.262 E2.57241
G1 X84.131 Y152.794 E2.60797
G1 X84.423 Y152.613 F7800
;TYPE:External perimeter
G1 F1800
G1 X83.925 Y152.037 E2.64618
G1 X83.552 Y151.374 E2.68436
G1 X83.321 Y150.648 E2.72259
G1 X83.24 Y149.893 E2.7607
G1 X83.314 Y149.136 E2.79887
G1 X83.538 Y148.408 E2.8371
G1 X83.905 Y147.741 E2.87531
G1 X84.397 Y147.162 E2.91344
G1 X84.997 Y146.694 E2.95163
G1 X85.678 Y146.355 E2.98981
G1 X86.413 Y146.161 E3.02796
G1 X87.173 Y146.119 E3.06616
G1 X87.926 Y146.231 E3.10437
G1 X88.64 Y146.492 E3.14252
G1 X89.287 Y146.891 E3.18067
G1 X89.841 Y147.413 E3.21887
G1 X90.279 Y148.035 E3.25705
G1 X90.582 Y148.733 E3.29524
G1 X90.738 Y149.477 E3.33339
G1 X90.742 Y150.238 E3.37158
G1 X90.593 Y150.983 E3.40971
G1 X90.296 Y151.684 E3.44792
G1 X89.864 Y152.311 E3.48613
G1 X89.314 Y152.837 E3.52432
G1 X88.671 Y153.243 E3.56248
G1 X87.96 Y153.51 E3.6006
G1 X87.208 Y153.629 E3.63881
G1 X86.448 Y153.594 E3.67699
G1 X85.71 Y153.407 E3.7152
G1 X85.026 Y153.075 E3.75336
G1 X84.47 Y152.649 E3.78851
G1 X84.04 Y152.728 F7800
G1 E1.78851 F2400
G92 E0
G1 X82.928 Y150.695 F7800
G1 E2 F2400
;TYPE:Perimeter
;WIDTH:0.517205
G1 F1800
G1 X82.909 Y150.312 E2.02467
;WIDTH:0.477359
G1 X82.889 Y149.929 E2.04712
;WIDTH:0.474567
G1 X82.907 Y149.512 E2.07138
;WIDTH:0.511621
G1 X82.926 Y149.096 E2.09783
G1 E.09783 F2400
G92 E0
G1 X88.001 Y153.926 F7800
G1 E2 F2400
;WIDTH:0.558453
G1 F1800
G1 X87.755 Y153.945 E2.01735
;WIDTH:0.520763
G1 X87.509 Y153.964 E2.03335
;WIDTH:0.483073
G1 X87.263 Y153.982 E2.04799
;WIDTH:0.476371
G1 X86.429 Y153.967 E2.09669
;WIDTH:0.493385
G1 X86.318 Y153.958 E2.10347
G1 E.10347 F2400
G92 E0
G1 X82.926 Y123.096 F7800
G1 E2 F2400
;WIDTH:0.511623
G1 F1800
G1 X82.913 Y122.982 E2.00729
;WIDTH:0.4854
G1 X82.896 Y122.619 E2.02899
;WIDTH:0.4527
G1 X82.88 Y122.256 E2.04895
;WIDTH:0.42
G1 X82.88 Y120.47 E2.13858
G1 X82.906 Y119.829 E2.17078
G1 X83.059 Y119.755 E2.17931
G1 X85.592 Y119.755 E2.30643
;WIDTH:0.451919
G1 X85.977 Y119.771 E2.32756
;WIDTH:0.483839
G1 X86.362 Y119.787 E2.35048
G1 X86.32 Y119.8 E2.35309
;WIDTH:0.476772
G1 X85.923 Y119.923 E2.37738
;WIDTH:0.448386
G1 X85.525 Y120.046 E2.40001
;WIDTH:0.42
G1 X84.786 Y120.421 E2.4416
G1 X84.136 Y120.937 E2.48325
G1 X83.604 Y121.573 E2.52486
G1 X83.209 Y122.306 E2.56665
;WIDTH:0.465811
G1 X83.067 Y122.701 E2.59051
;WIDTH:0.511623
G1 X82.946 Y123.039 E2.61331
G1 E.61331 F2400
G92 E0
G1 X85.026 Y127.075 F7800
G1 E2 F2400
;TYPE:External perimeter
;WIDTH:0.42
G1 F1800
G1 X84.423 Y126.613 E2.03812
G1 X83.925 Y126.037 E2.07633
G1 X83.552 Y125.374 E2.11451
G1 X83.321 Y124.648 E2.15274
G1 X83.24 Y123.893 E2.19085
G1 X83.314 Y123.136 E2.22902
G1 X83.538 Y122.408 E2.26725
G1 X83.905 Y121.741 E2.30546
G1 X84.397 Y121.162 E2.34359
G1 X84.997 Y120.694 E2.38178
G1 X85.678 Y120.355 E2.41996
G1 X86.413 Y120.161 E2.45811
G1 X87.173 Y120.119 E2.49631
G1 X87.926 Y120.231 E2.53452
G1 X88.64 Y120.492 E2.57267
G1 X89.287 Y120.891 E2.61082
G1 X89.841 Y121.413 E2.64902
G1 X90.279 Y122.035 E2.6872
G1 X90.582 Y122.733 E2.72539
G1 X90.738 Y123.477 E2.76354
G1 X90.742 Y124.238 E2.80173
G1 X90.593 Y124.983 E2.83986
G1 X90.296 Y125.684 E2.87807
G1 X89.864 Y126.311 E2.91628
G1 X89.314 Y126.837 E2.95447
G1 X88.671 Y127.243 E2.99263
G1 X87.96 Y127.51 E3.03075
G1 X87.208 Y127.629 E3.06896
G1 X86.448 Y127.594 E3.10714
G1 X85.71 Y127.407 E3.14535
G1 X85.08 Y127.101 E3.1805
G1 X84.674 Y127.264 F7800
G1 E1.1805 F2400
G92 E0
G1 X82.928 Y124.695 F7800
G1 E2 F2400
;TYPE:Perimeter
;WIDTH:0.517205
G1 F1800
G1 X82.909 Y124.312 E2.02467
;WIDTH:0.477359
G1 X82.889 Y123.929 E2.04712
;WIDTH:0.474568
G1 X82.907 Y123.512 E2.07138
;WIDTH:0.511623
G1 X82.926 Y123.096 E2.09783
G1 E.09783 F2400
G92 E0
G1 X86.362 Y119.787 F7800
G1 E2 F2400
;WIDTH:0.483839
G1 F1800
G1 X87.156 Y119.765 E2.04724
;WIDTH:0.478579
G1 X87.433 Y119.784 E2.06354
;WIDTH:0.517417
G1 X87.711 Y119.804 E2.08148
;WIDTH:0.556255
G1 X87.989 Y119.823 E2.10099
G1 E.10099 F2400
G92 E0
G1 X82.85 Y119.441 F7800
G1 E2 F2400
;TYPE:External perimeter
;WIDTH:0.42
G1 F1800
G1 X83.029 Y119.41 E2.00912
G1 X116.4 Y119.411 E3.68387
G1 X117.149 Y119.441 E3.72149
G1 X117.395 Y119.645 E3.73753
G1 X117.465 Y119.969 E3.75417
G1 X117.465 Y153.767 E5.45035
G1 X117.42 Y154.046 E5.46453
G1 X117.191 Y154.282 E5.48103
G1 X116.963 Y154.34 E5.49284
G1 X83.134 Y154.34 E7.19058
G1 X82.723 Y154.24 E7.21181
G1 X82.622 Y154.13 E7.2193
G1 X82.535 Y153.846 E7.23421
G1 X82.535 Y119.969 E8.93436
G1 X82.605 Y119.645 E8.951
G1 X82.804 Y119.48 E8.96397
G1 X83.001 Y119.542 F7800
G1 X84.316 Y119.858
;TYPE:Solid infill
;WIDTH:0.451394
G1 F1800
G1 X84.657 Y120.2 E8.99041
G1 X84.357 Y120.432 E9.01118
G1 X83.939 Y120.014 E9.04355
G1 X83.407 Y120.014 E9.07268
G1 X84.062 Y120.669 E9.1234
G1 X83.945 Y120.762 E9.13158
G1 X83.799 Y120.938 E9.1441
G1 X83.145 Y120.284 E9.19474
G1 X83.143 Y120.815 E9.22381
G1 X83.557 Y121.229 E9.25587
G1 X83.381 Y121.441 E9.27096
G1 X83.331 Y121.534 E9.27674
G1 X82.987 Y121.19 E9.30338
G1 E7.30338 F2400
G92 E0
G1 X110.378 Y119.859 F7800
G1 E2 F2400
;WIDTH:0.421028
G1 F1800
G1 X110.698 Y120.179 E2.02278
G1 X110.412 Y120.383 E2.04046
G1 X110.044 Y120.015 E2.06666
G1 X109.555 Y120.014 E2.09127
G1 X110.136 Y120.596 E2.13266
G1 X110.047 Y120.665 E2.13833
G1 X109.892 Y120.84 E2.1501
G1 X109.066 Y120.014 E2.2089
G1 X108.577 Y120.014 E2.23351
G1 X109.662 Y121.1 E2.31078
G1 X109.438 Y121.366 E2.32828
G1 X108.087 Y120.014 E2.42449
G1 X107.598 Y120.014 E2.4491
G1 X109.259 Y121.676 E2.56737
G1 X109.08 Y121.986 E2.58539
G1 X107.109 Y120.014 E2.72573
G1 X106.62 Y120.014 E2.75034
G1 X108.933 Y122.327 E2.91499
G1 X108.821 Y122.705 E2.93483
G1 X106.131 Y120.014 E3.12635
G1 X105.641 Y120.014 E3.15101
G1 X108.713 Y123.086 E3.36969
G1 X108.674 Y123.537 E3.39248
G1 X105.152 Y120.014 E3.64323
G1 X104.663 Y120.014 E3.66784
G1 X108.645 Y123.996 E3.9513
G1 X108.703 Y124.544 E3.97904
G1 X104.174 Y120.014 E4.30147
G1 X103.684 Y120.014 E4.32613
G1 X109.094 Y125.424 E4.71124
G1 E2.71124 F2400
G92 E0
G1 X116.582 Y126.064 F7800
G1 E2 F2400
G1 F1800
G1 X116.861 Y126.343 E2.01986
G1 X116.861 Y126.832 E2.04447
G1 X116.493 Y126.463 E2.0707
G1 X116.355 Y126.662 E2.08289
