
; ### Ellis' Pressure Advance / Linear Advance Calibration Tool ###
;
; Original Marlin linear advance calibration tool by Sineos [https://github.com/Sineos]
; Heavily modified/rewritten by Andrew Ellis [https://github.com/AndrewEllis93]
;
; -------------------------------------------
; Generated: Fri Oct 20 2023 15:26:51 GMT+0200 (Mitteleuropäische Sommerzeit)
; -------------------------------------------
;
; Advanced Mode: false
;
; Printer:
;  - Firmware: klipper
;  - Bed Shape: Rect
;  - Bed Size X: 200 mm
;  - Bed Size Y: 190 mm
;  - Origin Bed Center: false
;  - Travel Speed: 120 mm/s
;  - Nozzle Diameter: 0.4 mm
;  - Filament Diameter: 1.75 mm
;  - Extrusion Multiplier: 0.98
;
; Retraction / Z Hop:
;  - Retraction Distance: 0.5 mm
;  - Retract Speed: 35 mm/s
;  - Unretract Speed: 35 mm/s
;  - Z Hop Enable: true
;  - Z Hop Height: 0.1mm
;
; First Layer Settings:
;  - First Layer Height: 0.25 mm
;  - First Layer Printing Speed: 30 mm/s
;  - First Layer Fan Speed: 0%
;  - Anchor Option: anchor_frame
;
; Print Settings:
;  - Layer Height: 0.2 mm
;  - Print Speed: 100 mm/s
;  - Acceleration: Disabled
;  - Fan Speed: 100%
;
; Pressure Advance Stepping:
;  - PA Start Value: 0
;  - PA End Value: 0.08
;  - PA Increment: 0.005
;
; Start / End G-code:
;  - Hotend Temp: 200C
;  - Bed Temp: 60C
;  - Don't Add G28: false
;  - Don't Add Heating G-Codes: false
;
; Calculated Values:
;  - Print Size X: 84.72 mm
;  - Print Size Y: 53.99 mm
;  - Number of Patterns to Print: 17
;  - PA Values: 0, 0.005, 0.01, 0.015, 0.02, 0.025, 0.03, 0.035, 0.04, 0.045, 0.05, 0.055, 0.06, 0.065, 0.07, 0.075, 0.08
;
; Prepare printing
;
G28 ; Home all axes
M190 S60 ; Set & wait for bed temp
M109 S200 ; Set & wait for hotend temp
PRINT_START ; Start macro
; START_PRINT ; Start macro (alternate / official start macro name)
G21 ; Millimeter units
G90 ; Absolute XYZ
M83 ; Relative E
G92 E0 ; Reset extruder distance
;
;  Begin printing
;
M106 S0 ; Set fan speed
G1 E-0.5 F2100 ; Retract
G0 Z5 F7200 ; Z raise
G0 X57.6417 Y68.0068 F7200 ; Move to start position
G0 Z0.25 F7200 ; Move to start layer height
G1 E0.5 F2100 ; Un-retract
SET_PRESSURE_ADVANCE ADVANCE=0 ; Set pressure advance to start value
M117 PA 0
G1 X57.6417 Y110.4332 E2.1882 F1800 ; Draw perimeter (up)
G1 X142.3583 Y110.4332 E4.36937 F1800 ; Draw perimeter (right)
G1 X142.3583 Y68.0068 E2.1882 F1800 ; Draw perimeter (down)
G1 X57.6417 Y68.0068 E4.36937 F1800 ; Draw perimeter (left)
G0 X58.148 Y68.5131 F7200 ; Step inwards to print next perimeter
G1 X58.148 Y109.9269 E2.13597 F1800 ; Draw perimeter (up)
G1 X141.852 Y109.9269 E4.31714 F1800 ; Draw perimeter (right)
G1 X141.852 Y68.5131 E2.13597 F1800 ; Draw perimeter (down)
G1 X58.148 Y68.5131 E4.31714 F1800 ; Draw perimeter (left)
G0 X58.6544 Y69.0195 F7200 ; Step inwards to print next perimeter
G1 X58.6544 Y109.4205 E2.08374 F1800 ; Draw perimeter (up)
G1 X141.3456 Y109.4205 E4.26491 F1800 ; Draw perimeter (right)
G1 X141.3456 Y69.0195 E2.08374 F1800 ; Draw perimeter (down)
G1 X58.6544 Y69.0195 E4.26491 F1800 ; Draw perimeter (left)
G0 X59.1607 Y69.5258 F7200 ; Step inwards to print next perimeter
G1 X59.1607 Y108.9142 E2.0315 F1800 ; Draw perimeter (up)
G1 X140.8393 Y108.9142 E4.21268 F1800 ; Draw perimeter (right)
G1 X140.8393 Y69.5258 E2.0315 F1800 ; Draw perimeter (down)
G1 X59.1607 Y69.5258 E4.21268 F1800 ; Draw perimeter (left)
G1 E-0.5 F2100 ; Retract
G1 Z0.35 F7200 ; Z hop
G0 X57.6417 Y110.9396 F7200 ; Move to box start
G1 Z0.25 F7200 ; Z hop return
G1 E0.5 F2100 ; Un-retract
G1 X57.6417 Y122.4459 E0.59346 F1800 ; Draw perimeter (up)
G1 X121.8962 Y122.4459 E3.31401 F1800 ; Draw perimeter (right)
G1 X121.8962 Y110.9396 E0.59346 F1800 ; Draw perimeter (down)
G1 X57.6417 Y110.9396 E3.31401 F1800 ; Draw perimeter (left)
G0 X58.148 Y111.4459 F7200 ; Step inwards to print next perimeter
G1 X58.148 Y121.9396 E0.54122 F1800 ; Draw perimeter (up)
G1 X121.3898 Y121.9396 E3.26178 F1800 ; Draw perimeter (right)
G1 X121.3898 Y111.4459 E0.54122 F1800 ; Draw perimeter (down)
G1 X58.148 Y111.4459 E3.26178 F1800 ; Draw perimeter (left)
G0 X58.6544 Y111.9523 F7200 ; Step inwards to print next perimeter
G1 X58.6544 Y121.4332 E0.48899 F1800 ; Draw perimeter (up)
G1 X120.8835 Y121.4332 E3.20955 F1800 ; Draw perimeter (right)
G1 X120.8835 Y111.9523 E0.48899 F1800 ; Draw perimeter (down)
G1 X58.6544 Y111.9523 E3.20955 F1800 ; Draw perimeter (left)
G0 X59.1607 Y112.4586 F7200 ; Step inwards to print next perimeter
G1 X59.1607 Y120.9269 E0.43676 F1800 ; Draw perimeter (up)
G1 X120.3771 Y120.9269 E3.15732 F1800 ; Draw perimeter (right)
G1 X120.3771 Y112.4586 E0.43676 F1800 ; Draw perimeter (down)
G1 X59.1607 Y112.4586 E3.15732 F1800 ; Draw perimeter (left)
G0 X59.5341 Y112.8319 F7200 ; Move to fill start
G0 X60.2502 Y112.8319 F7200 ; Move
G1 X59.5341 Y113.548 E0.05223 F1800 ; Fill
G0 X59.5341 Y114.2641 F7200 ; Move
G1 X60.9663 Y112.8319 E0.10446 F1800 ; Fill
G0 X61.6823 Y112.8319 F7200 ; Move
G1 X59.5341 Y114.9802 E0.15669 F1800 ; Fill
G0 X59.5341 Y115.6963 F7200 ; Move
G1 X62.3984 Y112.8319 E0.20893 F1800 ; Fill
G0 X63.1145 Y112.8319 F7200 ; Move
G1 X59.5341 Y116.4124 E0.26116 F1800 ; Fill
G0 X59.5341 Y117.1285 F7200 ; Move
G1 X63.8306 Y112.8319 E0.31339 F1800 ; Fill
G0 X64.5467 Y112.8319 F7200 ; Move
G1 X59.5341 Y117.8445 E0.36562 F1800 ; Fill
G0 X59.5341 Y118.5606 F7200 ; Move
G1 X65.2628 Y112.8319 E0.41785 F1800 ; Fill
G0 X65.9789 Y112.8319 F7200 ; Move
G1 X59.5341 Y119.2767 E0.47008 F1800 ; Fill
G0 X59.5341 Y119.9928 F7200 ; Move
G1 X66.6949 Y112.8319 E0.52231 F1800 ; Fill
G0 X67.411 Y112.8319 F7200 ; Move
G1 X59.6894 Y120.5535 E0.56321 F1800 ; Fill
G0 X60.4055 Y120.5535 F7200 ; Move
G1 X68.1271 Y112.8319 E0.56321 F1800 ; Fill
G0 X68.8432 Y112.8319 F7200 ; Move
G1 X61.1216 Y120.5535 E0.56321 F1800 ; Fill
G0 X61.8377 Y120.5535 F7200 ; Move
G1 X69.5593 Y112.8319 E0.56321 F1800 ; Fill
G0 X70.2754 Y112.8319 F7200 ; Move
G1 X62.5538 Y120.5535 E0.56321 F1800 ; Fill
G0 X63.2699 Y120.5535 F7200 ; Move
G1 X70.9915 Y112.8319 E0.56321 F1800 ; Fill
G0 X71.7076 Y112.8319 F7200 ; Move
G1 X63.986 Y120.5535 E0.56321 F1800 ; Fill
G0 X64.7021 Y120.5535 F7200 ; Move
G1 X72.4236 Y112.8319 E0.56321 F1800 ; Fill
G0 X73.1397 Y112.8319 F7200 ; Move
G1 X65.4181 Y120.5535 E0.56321 F1800 ; Fill
G0 X66.1342 Y120.5535 F7200 ; Move
G1 X73.8558 Y112.8319 E0.56321 F1800 ; Fill
G0 X74.5719 Y112.8319 F7200 ; Move
G1 X66.8503 Y120.5535 E0.56321 F1800 ; Fill
G0 X67.5664 Y120.5535 F7200 ; Move
G1 X75.288 Y112.8319 E0.56321 F1800 ; Fill
G0 X76.0041 Y112.8319 F7200 ; Move
G1 X68.2825 Y120.5535 E0.56321 F1800 ; Fill
G0 X68.9986 Y120.5535 F7200 ; Move
G1 X76.7202 Y112.8319 E0.56321 F1800 ; Fill
G0 X77.4362 Y112.8319 F7200 ; Move
G1 X69.7147 Y120.5535 E0.56321 F1800 ; Fill
G0 X70.4307 Y120.5535 F7200 ; Move
G1 X78.1523 Y112.8319 E0.56321 F1800 ; Fill
G0 X78.8684 Y112.8319 F7200 ; Move
G1 X71.1468 Y120.5535 E0.56321 F1800 ; Fill
G0 X71.8629 Y120.5535 F7200 ; Move
G1 X79.5845 Y112.8319 E0.56321 F1800 ; Fill
G0 X80.3006 Y112.8319 F7200 ; Move
G1 X72.579 Y120.5535 E0.56321 F1800 ; Fill
G0 X73.2951 Y120.5535 F7200 ; Move
G1 X81.0167 Y112.8319 E0.56321 F1800 ; Fill
G0 X81.7328 Y112.8319 F7200 ; Move
G1 X74.0112 Y120.5535 E0.56321 F1800 ; Fill
G0 X74.7273 Y120.5535 F7200 ; Move
G1 X82.4488 Y112.8319 E0.56321 F1800 ; Fill
G0 X83.1649 Y112.8319 F7200 ; Move
G1 X75.4433 Y120.5535 E0.56321 F1800 ; Fill
G0 X76.1594 Y120.5535 F7200 ; Move
G1 X83.881 Y112.8319 E0.56321 F1800 ; Fill
G0 X84.5971 Y112.8319 F7200 ; Move
G1 X76.8755 Y120.5535 E0.56321 F1800 ; Fill
G0 X77.5916 Y120.5535 F7200 ; Move
G1 X85.3132 Y112.8319 E0.56321 F1800 ; Fill
G0 X86.0293 Y112.8319 F7200 ; Move
G1 X78.3077 Y120.5535 E0.56321 F1800 ; Fill
G0 X79.0238 Y120.5535 F7200 ; Move
G1 X86.7454 Y112.8319 E0.56321 F1800 ; Fill
G0 X87.4615 Y112.8319 F7200 ; Move
G1 X79.7399 Y120.5535 E0.56321 F1800 ; Fill
G0 X80.456 Y120.5535 F7200 ; Move
G1 X88.1775 Y112.8319 E0.56321 F1800 ; Fill
G0 X88.8936 Y112.8319 F7200 ; Move
G1 X81.172 Y120.5535 E0.56321 F1800 ; Fill
G0 X81.8881 Y120.5535 F7200 ; Move
G1 X89.6097 Y112.8319 E0.56321 F1800 ; Fill
G0 X90.3258 Y112.8319 F7200 ; Move
G1 X82.6042 Y120.5535 E0.56321 F1800 ; Fill
G0 X83.3203 Y120.5535 F7200 ; Move
G1 X91.0419 Y112.8319 E0.56321 F1800 ; Fill
G0 X91.758 Y112.8319 F7200 ; Move
G1 X84.0364 Y120.5535 E0.56321 F1800 ; Fill
G0 X84.7525 Y120.5535 F7200 ; Move
G1 X92.4741 Y112.8319 E0.56321 F1800 ; Fill
G0 X93.1901 Y112.8319 F7200 ; Move
G1 X85.4686 Y120.5535 E0.56321 F1800 ; Fill
G0 X86.1846 Y120.5535 F7200 ; Move
G1 X93.9062 Y112.8319 E0.56321 F1800 ; Fill
G0 X94.6223 Y112.8319 F7200 ; Move
G1 X86.9007 Y120.5535 E0.56321 F1800 ; Fill
G0 X87.6168 Y120.5535 F7200 ; Move
G1 X95.3384 Y112.8319 E0.56321 F1800 ; Fill
G0 X96.0545 Y112.8319 F7200 ; Move
G1 X88.3329 Y120.5535 E0.56321 F1800 ; Fill
G0 X89.049 Y120.5535 F7200 ; Move
G1 X96.7706 Y112.8319 E0.56321 F1800 ; Fill
G0 X97.4867 Y112.8319 F7200 ; Move
G1 X89.7651 Y120.5535 E0.56321 F1800 ; Fill
G0 X90.4812 Y120.5535 F7200 ; Move
G1 X98.2027 Y112.8319 E0.56321 F1800 ; Fill
G0 X98.9188 Y112.8319 F7200 ; Move
G1 X91.1972 Y120.5535 E0.56321 F1800 ; Fill
G0 X91.9133 Y120.5535 F7200 ; Move
G1 X99.6349 Y112.8319 E0.56321 F1800 ; Fill
G0 X100.351 Y112.8319 F7200 ; Move
G1 X92.6294 Y120.5535 E0.56321 F1800 ; Fill
G0 X93.3455 Y120.5535 F7200 ; Move
G1 X101.0671 Y112.8319 E0.56321 F1800 ; Fill
G0 X101.7832 Y112.8319 F7200 ; Move
G1 X94.0616 Y120.5535 E0.56321 F1800 ; Fill
G0 X94.7777 Y120.5535 F7200 ; Move
G1 X102.4993 Y112.8319 E0.56321 F1800 ; Fill
G0 X103.2154 Y112.8319 F7200 ; Move
G1 X95.4938 Y120.5535 E0.56321 F1800 ; Fill
G0 X96.2099 Y120.5535 F7200 ; Move
G1 X103.9314 Y112.8319 E0.56321 F1800 ; Fill
G0 X104.6475 Y112.8319 F7200 ; Move
G1 X96.9259 Y120.5535 E0.56321 F1800 ; Fill
G0 X97.642 Y120.5535 F7200 ; Move
G1 X105.3636 Y112.8319 E0.56321 F1800 ; Fill
G0 X106.0797 Y112.8319 F7200 ; Move
G1 X98.3581 Y120.5535 E0.56321 F1800 ; Fill
G0 X99.0742 Y120.5535 F7200 ; Move
G1 X106.7958 Y112.8319 E0.56321 F1800 ; Fill
G0 X107.5119 Y112.8319 F7200 ; Move
G1 X99.7903 Y120.5535 E0.56321 F1800 ; Fill
G0 X100.5064 Y120.5535 F7200 ; Move
G1 X108.228 Y112.8319 E0.56321 F1800 ; Fill
G0 X108.944 Y112.8319 F7200 ; Move
G1 X101.2225 Y120.5535 E0.56321 F1800 ; Fill
G0 X101.9385 Y120.5535 F7200 ; Move
G1 X109.6601 Y112.8319 E0.56321 F1800 ; Fill
G0 X110.3762 Y112.8319 F7200 ; Move
G1 X102.6546 Y120.5535 E0.56321 F1800 ; Fill
G0 X103.3707 Y120.5535 F7200 ; Move
G1 X111.0923 Y112.8319 E0.56321 F1800 ; Fill
G0 X111.8084 Y112.8319 F7200 ; Move
G1 X104.0868 Y120.5535 E0.56321 F1800 ; Fill
G0 X104.8029 Y120.5535 F7200 ; Move
G1 X112.5245 Y112.8319 E0.56321 F1800 ; Fill
G0 X113.2406 Y112.8319 F7200 ; Move
G1 X105.519 Y120.5535 E0.56321 F1800 ; Fill
G0 X106.2351 Y120.5535 F7200 ; Move
G1 X113.9566 Y112.8319 E0.56321 F1800 ; Fill
G0 X114.6727 Y112.8319 F7200 ; Move
G1 X106.9511 Y120.5535 E0.56321 F1800 ; Fill
G0 X107.6672 Y120.5535 F7200 ; Move
G1 X115.3888 Y112.8319 E0.56321 F1800 ; Fill
G0 X116.1049 Y112.8319 F7200 ; Move
G1 X108.3833 Y120.5535 E0.56321 F1800 ; Fill
G0 X109.0994 Y120.5535 F7200 ; Move
G1 X116.821 Y112.8319 E0.56321 F1800 ; Fill
G0 X117.5371 Y112.8319 F7200 ; Move
G1 X109.8155 Y120.5535 E0.56321 F1800 ; Fill
G0 X110.5316 Y120.5535 F7200 ; Move
G1 X118.2532 Y112.8319 E0.56321 F1800 ; Fill
G0 X118.9693 Y112.8319 F7200 ; Move
G1 X111.2477 Y120.5535 E0.56321 F1800 ; Fill
G0 X111.9638 Y120.5535 F7200 ; Move
G1 X119.6853 Y112.8319 E0.56321 F1800 ; Fill
G0 X120.0038 Y113.2296 F7200 ; Move
G1 X112.6798 Y120.5535 E0.53421 F1800 ; Fill
G0 X113.3959 Y120.5535 F7200 ; Move
G1 X120.0038 Y113.9457 E0.48198 F1800 ; Fill
G0 X120.0038 Y114.6617 F7200 ; Move
G1 X114.112 Y120.5535 E0.42975 F1800 ; Fill
G0 X114.8281 Y120.5535 F7200 ; Move
G1 X120.0038 Y115.3778 E0.37751 F1800 ; Fill
G0 X120.0038 Y116.0939 F7200 ; Move
G1 X115.5442 Y120.5535 E0.32528 F1800 ; Fill
G0 X116.2603 Y120.5535 F7200 ; Move
G1 X120.0038 Y116.81 E0.27305 F1800 ; Fill
G0 X120.0038 Y117.5261 F7200 ; Move
G1 X116.9764 Y120.5535 E0.22082 F1800 ; Fill
G0 X117.6924 Y120.5535 F7200 ; Move
G1 X120.0038 Y118.2422 E0.16859 F1800 ; Fill
G0 X120.0038 Y118.9583 F7200 ; Move
G1 X118.4085 Y120.5535 E0.11636 F1800 ; Fill
G0 X119.1246 Y120.5535 F7200 ; Move
G1 X120.0038 Y119.6744 E0.06413 F1800 ; Fill
G0 X120.0038 Y120.3904 F7200 ; Move
G1 X119.8407 Y120.5535 E0.0119 F1800 ; Fill
G0 Z0.25 F7200 ; Move to layer height
G1 E-0.5 F2100 ; Retract
G1 Z0.35 F7200 ; Z hop
G0 X62.2384 Y69.8992 F7200 ; Move to pattern start

G1 Z0.25 F7200 ; Z hop return
G1 E0.5 F2100 ; Un-retract
SET_PRESSURE_ADVANCE ADVANCE=0 ; Set pressure advance
M117 PA 0
G1 X81.5592 Y89.22 E1.10311 F1800 ; Print pattern wall
G1 X62.2384 Y108.5408 E1.10311 F1800 ; Print pattern wall
G1 E-0.5 F2100 ; Retract
G1 Z0.35 F7200 ; Z hop
G0 X62.8141 Y69.8992 F7200 ; Move to start next pattern wall
G1 Z0.25 F7200 ; Z hop return
G1 E0.5 F2100 ; Un-retract
G1 X82.1349 Y89.22 E1.10311 F1800 ; Print pattern wall
G1 X62.8141 Y108.5408 E1.10311 F1800 ; Print pattern wall
G1 E-0.5 F2100 ; Retract
G1 Z0.35 F7200 ; Z hop
G0 X63.3898 Y69.8992 F7200 ; Move to start next pattern wall
G1 Z0.25 F7200 ; Z hop return
G1 E0.5 F2100 ; Un-retract
G1 X82.7106 Y89.22 E1.10311 F1800 ; Print pattern wall
G1 X63.3898 Y108.5408 E1.10311 F1800 ; Print pattern wall
G1 E-0.5 F2100 ; Retract
G1 Z0.35 F7200 ; Z hop
G0 X65.8398 Y69.8992 F7200 ; Move to next pattern
G1 Z0.25 F7200 ; Z hop return
G1 E0.5 F2100 ; Un-retract
SET_PRESSURE_ADVANCE ADVANCE=0.005 ; Set pressure advance
M117 PA 0.005
G1 X85.1606 Y89.22 E1.10311 F1800 ; Print pattern wall
G1 X65.8398 Y108.5408 E1.10311 F1800 ; Print pattern wall
G1 E-0.5 F2100 ; Retract
G1 Z0.35 F7200 ; Z hop
G0 X66.4155 Y69.8992 F7200 ; Move to start next pattern wall
G1 Z0.25 F7200 ; Z hop return
G1 E0.5 F2100 ; Un-retract
G1 X85.7363 Y89.22 E1.10311 F1800 ; Print pattern wall
G1 X66.4155 Y108.5408 E1.10311 F1800 ; Print pattern wall
G1 E-0.5 F2100 ; Retract
G1 Z0.35 F7200 ; Z hop
G0 X66.9912 Y69.8992 F7200 ; Move to start next pattern wall
G1 Z0.25 F7200 ; Z hop return
G1 E0.5 F2100 ; Un-retract
G1 X86.312 Y89.22 E1.10311 F1800 ; Print pattern wall
G1 X66.9912 Y108.5408 E1.10311 F1800 ; Print pattern wall
G1 E-0.5 F2100 ; Retract
G1 Z0.35 F7200 ; Z hop
G0 X69.4412 Y69.8992 F7200 ; Move to next pattern
G1 Z0.25 F7200 ; Z hop return
G1 E0.5 F2100 ; Un-retract
SET_PRESSURE_ADVANCE ADVANCE=0.01 ; Set pressure advance
M117 PA 0.01
G1 X88.762 Y89.22 E1.10311 F1800 ; Print pattern wall
G1 X69.4412 Y108.5408 E1.10311 F1800 ; Print pattern wall
G1 E-0.5 F2100 ; Retract
G1 Z0.35 F7200 ; Z hop
G0 X70.0169 Y69.8992 F7200 ; Move to start next pattern wall
G1 Z0.25 F7200 ; Z hop return
G1 E0.5 F2100 ; Un-retract
G1 X89.3377 Y89.22 E1.10311 F1800 ; Print pattern wall
G1 X70.0169 Y108.5408 E1.10311 F1800 ; Print pattern wall
G1 E-0.5 F2100 ; Retract
G1 Z0.35 F7200 ; Z hop
G0 X70.5926 Y69.8992 F7200 ; Move to start next pattern wall
G1 Z0.25 F7200 ; Z hop return
G1 E0.5 F2100 ; Un-retract
G1 X89.9134 Y89.22 E1.10311 F1800 ; Print pattern wall
G1 X70.5926 Y108.5408 E1.10311 F1800 ; Print pattern wall
G1 E-0.5 F2100 ; Retract
G1 Z0.35 F7200 ; Z hop
G0 X73.0426 Y69.8992 F7200 ; Move to next pattern
G1 Z0.25 F7200 ; Z hop return
G1 E0.5 F2100 ; Un-retract
SET_PRESSURE_ADVANCE ADVANCE=0.015 ; Set pressure advance
M117 PA 0.015
G1 X92.3634 Y89.22 E1.10311 F1800 ; Print pattern wall
G1 X73.0426 Y108.5408 E1.10311 F1800 ; Print pattern wall
G1 E-0.5 F2100 ; Retract
G1 Z0.35 F7200 ; Z hop
G0 X73.6183 Y69.8992 F7200 ; Move to start next pattern wall
G1 Z0.25 F7200 ; Z hop return
G1 E0.5 F2100 ; Un-retract
G1 X92.9391 Y89.22 E1.10311 F1800 ; Print pattern wall
G1 X73.6183 Y108.5408 E1.10311 F1800 ; Print pattern wall
G1 E-0.5 F2100 ; Retract
G1 Z0.35 F7200 ; Z hop
G0 X74.194 Y69.8992 F7200 ; Move to start next pattern wall
G1 Z0.25 F7200 ; Z hop return
G1 E0.5 F2100 ; Un-retract
G1 X93.5148 Y89.22 E1.10311 F1800 ; Print pattern wall
G1 X74.194 Y108.5408 E1.10311 F1800 ; Print pattern wall
G1 E-0.5 F2100 ; Retract
G1 Z0.35 F7200 ; Z hop
G0 X76.644 Y69.8992 F7200 ; Move to next pattern
G1 Z0.25 F7200 ; Z hop return
G1 E0.5 F2100 ; Un-retract
SET_PRESSURE_ADVANCE ADVANCE=0.02 ; Set pressure advance
M117 PA 0.02
G1 X95.9648 Y89.22 E1.10311 F1800 ; Print pattern wall
G1 X76.644 Y108.5408 E1.10311 F1800 ; Print pattern wall
G1 E-0.5 F2100 ; Retract
G1 Z0.35 F7200 ; Z hop
G0 X77.2197 Y69.8992 F7200 ; Move to start next pattern wall
G1 Z0.25 F7200 ; Z hop return
G1 E0.5 F2100 ; Un-retract
G1 X96.5405 Y89.22 E1.10311 F1800 ; Print pattern wall
G1 X77.2197 Y108.5408 E1.10311 F1800 ; Print pattern wall
G1 E-0.5 F2100 ; Retract
G1 Z0.35 F7200 ; Z hop
G0 X77.7954 Y69.8992 F7200 ; Move to start next pattern wall
G1 Z0.25 F7200 ; Z hop return
G1 E0.5 F2100 ; Un-retract
G1 X97.1162 Y89.22 E1.10311 F1800 ; Print pattern wall
G1 X77.7954 Y108.5408 E1.10311 F1800 ; Print pattern wall
G1 E-0.5 F2100 ; Retract
G1 Z0.35 F7200 ; Z hop
G0 X80.2454 Y69.8992 F7200 ; Move to next pattern
G1 Z0.25 F7200 ; Z hop return
G1 E0.5 F2100 ; Un-retract
SET_PRESSURE_ADVANCE ADVANCE=0.025 ; Set pressure advance
M117 PA 0.025
G1 X99.5662 Y89.22 E1.10311 F1800 ; Print pattern wall
G1 X80.2454 Y108.5408 E1.10311 F1800 ; Print pattern wall
G1 E-0.5 F2100 ; Retract
G1 Z0.35 F7200 ; Z hop
G0 X80.8211 Y69.8992 F7200 ; Move to start next pattern wall
G1 Z0.25 F7200 ; Z hop return
G1 E0.5 F2100 ; Un-retract
G1 X100.1419 Y89.22 E1.10311 F1800 ; Print pattern wall
G1 X80.8211 Y108.5408 E1.10311 F1800 ; Print pattern wall
G1 E-0.5 F2100 ; Retract
G1 Z0.35 F7200 ; Z hop
G0 X81.3968 Y69.8992 F7200 ; Move to start next pattern wall
G1 Z0.25 F7200 ; Z hop return
G1 E0.5 F2100 ; Un-retract
G1 X100.7176 Y89.22 E1.10311 F1800 ; Print pattern wall
G1 X81.3968 Y108.5408 E1.10311 F1800 ; Print pattern wall
G1 E-0.5 F2100 ; Retract
G1 Z0.35 F7200 ; Z hop
G0 X83.8468 Y69.8992 F7200 ; Move to next pattern
G1 Z0.25 F7200 ; Z hop return
G1 E0.5 F2100 ; Un-retract
SET_PRESSURE_ADVANCE ADVANCE=0.03 ; Set pressure advance
M117 PA 0.03
G1 X103.1676 Y89.22 E1.10311 F1800 ; Print pattern wall
G1 X83.8468 Y108.5408 E1.10311 F1800 ; Print pattern wall
G1 E-0.5 F2100 ; Retract
G1 Z0.35 F7200 ; Z hop
G0 X84.4225 Y69.8992 F7200 ; Move to start next pattern wall
G1 Z0.25 F7200 ; Z hop return
G1 E0.5 F2100 ; Un-retract
G1 X103.7433 Y89.22 E1.10311 F1800 ; Print pattern wall
G1 X84.4225 Y108.5408 E1.10311 F1800 ; Print pattern wall
G1 E-0.5 F2100 ; Retract
G1 Z0.35 F7200 ; Z hop
G0 X84.9981 Y69.8992 F7200 ; Move to start next pattern wall
G1 Z0.25 F7200 ; Z hop return
G1 E0.5 F2100 ; Un-retract
G1 X104.319 Y89.22 E1.10311 F1800 ; Print pattern wall
G1 X84.9981 Y108.5408 E1.10311 F1800 ; Print pattern wall
G1 E-0.5 F2100 ; Retract
G1 Z0.35 F7200 ; Z hop
G0 X87.4481 Y69.8992 F7200 ; Move to next pattern
G1 Z0.25 F7200 ; Z hop return
G1 E0.5 F2100 ; Un-retract
SET_PRESSURE_ADVANCE ADVANCE=0.035 ; Set pressure advance
M117 PA 0.035
G1 X106.769 Y89.22 E1.10311 F1800 ; Print pattern wall
G1 X87.4481 Y108.5408 E1.10311 F1800 ; Print pattern wall
G1 E-0.5 F2100 ; Retract
G1 Z0.35 F7200 ; Z hop
G0 X88.0238 Y69.8992 F7200 ; Move to start next pattern wall
G1 Z0.25 F7200 ; Z hop return
G1 E0.5 F2100 ; Un-retract
G1 X107.3447 Y89.22 E1.10311 F1800 ; Print pattern wall
G1 X88.0238 Y108.5408 E1.10311 F1800 ; Print pattern wall
G1 E-0.5 F2100 ; Retract
G1 Z0.35 F7200 ; Z hop
G0 X88.5995 Y69.8992 F7200 ; Move to start next pattern wall
G1 Z0.25 F7200 ; Z hop return
G1 E0.5 F2100 ; Un-retract
G1 X107.9204 Y89.22 E1.10311 F1800 ; Print pattern wall
G1 X88.5995 Y108.5408 E1.10311 F1800 ; Print pattern wall
G1 E-0.5 F2100 ; Retract
G1 Z0.35 F7200 ; Z hop
G0 X91.0495 Y69.8992 F7200 ; Move to next pattern
G1 Z0.25 F7200 ; Z hop return
G1 E0.5 F2100 ; Un-retract
SET_PRESSURE_ADVANCE ADVANCE=0.04 ; Set pressure advance
M117 PA 0.04
G1 X110.3704 Y89.22 E1.10311 F1800 ; Print pattern wall
G1 X91.0495 Y108.5408 E1.10311 F1800 ; Print pattern wall
G1 E-0.5 F2100 ; Retract
G1 Z0.35 F7200 ; Z hop
G0 X91.6252 Y69.8992 F7200 ; Move to start next pattern wall
G1 Z0.25 F7200 ; Z hop return
G1 E0.5 F2100 ; Un-retract
G1 X110.9461 Y89.22 E1.10311 F1800 ; Print pattern wall
G1 X91.6252 Y108.5408 E1.10311 F1800 ; Print pattern wall
G1 E-0.5 F2100 ; Retract
G1 Z0.35 F7200 ; Z hop
G0 X92.2009 Y69.8992 F7200 ; Move to start next pattern wall
G1 Z0.25 F7200 ; Z hop return
G1 E0.5 F2100 ; Un-retract
G1 X111.5218 Y89.22 E1.10311 F1800 ; Print pattern wall
G1 X92.2009 Y108.5408 E1.10311 F1800 ; Print pattern wall
G1 E-0.5 F2100 ; Retract
G1 Z0.35 F7200 ; Z hop
G0 X94.6509 Y69.8992 F7200 ; Move to next pattern
G1 Z0.25 F7200 ; Z hop return
G1 E0.5 F2100 ; Un-retract
SET_PRESSURE_ADVANCE ADVANCE=0.045 ; Set pressure advance
M117 PA 0.045
G1 X113.9718 Y89.22 E1.10311 F1800 ; Print pattern wall
G1 X94.6509 Y108.5408 E1.10311 F1800 ; Print pattern wall
G1 E-0.5 F2100 ; Retract
G1 Z0.35 F7200 ; Z hop
G0 X95.2266 Y69.8992 F7200 ; Move to start next pattern wall
G1 Z0.25 F7200 ; Z hop return
G1 E0.5 F2100 ; Un-retract
G1 X114.5475 Y89.22 E1.10311 F1800 ; Print pattern wall
G1 X95.2266 Y108.5408 E1.10311 F1800 ; Print pattern wall
G1 E-0.5 F2100 ; Retract
G1 Z0.35 F7200 ; Z hop
G0 X95.8023 Y69.8992 F7200 ; Move to start next pattern wall
G1 Z0.25 F7200 ; Z hop return
G1 E0.5 F2100 ; Un-retract
G1 X115.1232 Y89.22 E1.10311 F1800 ; Print pattern wall
G1 X95.8023 Y108.5408 E1.10311 F1800 ; Print pattern wall
G1 E-0.5 F2100 ; Retract
G1 Z0.35 F7200 ; Z hop
G0 X98.2523 Y69.8992 F7200 ; Move to next pattern
G1 Z0.25 F7200 ; Z hop return
G1 E0.5 F2100 ; Un-retract
SET_PRESSURE_ADVANCE ADVANCE=0.05 ; Set pressure advance
M117 PA 0.05
G1 X117.5732 Y89.22 E1.10311 F1800 ; Print pattern wall
G1 X98.2523 Y108.5408 E1.10311 F1800 ; Print pattern wall
G1 E-0.5 F2100 ; Retract
G1 Z0.35 F7200 ; Z hop
G0 X98.828 Y69.8992 F7200 ; Move to start next pattern wall
G1 Z0.25 F7200 ; Z hop return
G1 E0.5 F2100 ; Un-retract
G1 X118.1489 Y89.22 E1.10311 F1800 ; Print pattern wall
G1 X98.828 Y108.5408 E1.10311 F1800 ; Print pattern wall
G1 E-0.5 F2100 ; Retract
G1 Z0.35 F7200 ; Z hop
G0 X99.4037 Y69.8992 F7200 ; Move to start next pattern wall
G1 Z0.25 F7200 ; Z hop return
G1 E0.5 F2100 ; Un-retract
G1 X118.7246 Y89.22 E1.10311 F1800 ; Print pattern wall
G1 X99.4037 Y108.5408 E1.10311 F1800 ; Print pattern wall
G1 E-0.5 F2100 ; Retract
G1 Z0.35 F7200 ; Z hop
G0 X101.8537 Y69.8992 F7200 ; Move to next pattern
G1 Z0.25 F7200 ; Z hop return
G1 E0.5 F2100 ; Un-retract
SET_PRESSURE_ADVANCE ADVANCE=0.055 ; Set pressure advance
M117 PA 0.055
G1 X121.1746 Y89.22 E1.10311 F1800 ; Print pattern wall
G1 X101.8537 Y108.5408 E1.10311 F1800 ; Print pattern wall
G1 E-0.5 F2100 ; Retract
G1 Z0.35 F7200 ; Z hop
G0 X102.4294 Y69.8992 F7200 ; Move to start next pattern wall
G1 Z0.25 F7200 ; Z hop return
G1 E0.5 F2100 ; Un-retract
G1 X121.7502 Y89.22 E1.10311 F1800 ; Print pattern wall
G1 X102.4294 Y108.5408 E1.10311 F1800 ; Print pattern wall
G1 E-0.5 F2100 ; Retract
G1 Z0.35 F7200 ; Z hop
G0 X103.0051 Y69.8992 F7200 ; Move to start next pattern wall
G1 Z0.25 F7200 ; Z hop return
G1 E0.5 F2100 ; Un-retract
G1 X122.3259 Y89.22 E1.10311 F1800 ; Print pattern wall
G1 X103.0051 Y108.5408 E1.10311 F1800 ; Print pattern wall
G1 E-0.5 F2100 ; Retract
G1 Z0.35 F7200 ; Z hop
G0 X105.4551 Y69.8992 F7200 ; Move to next pattern
G1 Z0.25 F7200 ; Z hop return
G1 E0.5 F2100 ; Un-retract
SET_PRESSURE_ADVANCE ADVANCE=0.06 ; Set pressure advance
M117 PA 0.06
G1 X124.7759 Y89.22 E1.10311 F1800 ; Print pattern wall
G1 X105.4551 Y108.5408 E1.10311 F1800 ; Print pattern wall
G1 E-0.5 F2100 ; Retract
G1 Z0.35 F7200 ; Z hop
G0 X106.0308 Y69.8992 F7200 ; Move to start next pattern wall
G1 Z0.25 F7200 ; Z hop return
G1 E0.5 F2100 ; Un-retract
G1 X125.3516 Y89.22 E1.10311 F1800 ; Print pattern wall
G1 X106.0308 Y108.5408 E1.10311 F1800 ; Print pattern wall
G1 E-0.5 F2100 ; Retract
G1 Z0.35 F7200 ; Z hop
G0 X106.6065 Y69.8992 F7200 ; Move to start next pattern wall
G1 Z0.25 F7200 ; Z hop return
G1 E0.5 F2100 ; Un-retract
G1 X125.9273 Y89.22 E1.10311 F1800 ; Print pattern wall
G1 X106.6065 Y108.5408 E1.10311 F1800 ; Print pattern wall
G1 E-0.5 F2100 ; Retract
G1 Z0.35 F7200 ; Z hop
G0 X109.0565 Y69.8992 F7200 ; Move to next pattern
G1 Z0.25 F7200 ; Z hop return
G1 E0.5 F2100 ; Un-retract
SET_PRESSURE_ADVANCE ADVANCE=0.065 ; Set pressure advance
M117 PA 0.065
G1 X128.3773 Y89.22 E1.10311 F1800 ; Print pattern wall
G1 X109.0565 Y108.5408 E1.10311 F1800 ; Print pattern wall
G1 E-0.5 F2100 ; Retract
G1 Z0.35 F7200 ; Z hop
G0 X109.6322 Y69.8992 F7200 ; Move to start next pattern wall
G1 Z0.25 F7200 ; Z hop return
G1 E0.5 F2100 ; Un-retract
G1 X128.953 Y89.22 E1.10311 F1800 ; Print pattern wall
G1 X109.6322 Y108.5408 E1.10311 F1800 ; Print pattern wall
G1 E-0.5 F2100 ; Retract
G1 Z0.35 F7200 ; Z hop
G0 X110.2079 Y69.8992 F7200 ; Move to start next pattern wall
G1 Z0.25 F7200 ; Z hop return
G1 E0.5 F2100 ; Un-retract
G1 X129.5287 Y89.22 E1.10311 F1800 ; Print pattern wall
G1 X110.2079 Y108.5408 E1.10311 F1800 ; Print pattern wall
G1 E-0.5 F2100 ; Retract
G1 Z0.35 F7200 ; Z hop
G0 X112.6579 Y69.8992 F7200 ; Move to next pattern
G1 Z0.25 F7200 ; Z hop return
G1 E0.5 F2100 ; Un-retract
SET_PRESSURE_ADVANCE ADVANCE=0.07 ; Set pressure advance
M117 PA 0.07
G1 X131.9787 Y89.22 E1.10311 F1800 ; Print pattern wall
G1 X112.6579 Y108.5408 E1.10311 F1800 ; Print pattern wall
G1 E-0.5 F2100 ; Retract
G1 Z0.35 F7200 ; Z hop
G0 X113.2336 Y69.8992 F7200 ; Move to start next pattern wall
G1 Z0.25 F7200 ; Z hop return
G1 E0.5 F2100 ; Un-retract
G1 X132.5544 Y89.22 E1.10311 F1800 ; Print pattern wall
G1 X113.2336 Y108.5408 E1.10311 F1800 ; Print pattern wall
G1 E-0.5 F2100 ; Retract
G1 Z0.35 F7200 ; Z hop
G0 X113.8093 Y69.8992 F7200 ; Move to start next pattern wall
G1 Z0.25 F7200 ; Z hop return
G1 E0.5 F2100 ; Un-retract
G1 X133.1301 Y89.22 E1.10311 F1800 ; Print pattern wall
G1 X113.8093 Y108.5408 E1.10311 F1800 ; Print pattern wall
G1 E-0.5 F2100 ; Retract
G1 Z0.35 F7200 ; Z hop
G0 X116.2593 Y69.8992 F7200 ; Move to next pattern
G1 Z0.25 F7200 ; Z hop return
G1 E0.5 F2100 ; Un-retract
SET_PRESSURE_ADVANCE ADVANCE=0.075 ; Set pressure advance
M117 PA 0.075
G1 X135.5801 Y89.22 E1.10311 F1800 ; Print pattern wall
G1 X116.2593 Y108.5408 E1.10311 F1800 ; Print pattern wall
G1 E-0.5 F2100 ; Retract
G1 Z0.35 F7200 ; Z hop
G0 X116.835 Y69.8992 F7200 ; Move to start next pattern wall
G1 Z0.25 F7200 ; Z hop return
G1 E0.5 F2100 ; Un-retract
G1 X136.1558 Y89.22 E1.10311 F1800 ; Print pattern wall
G1 X116.835 Y108.5408 E1.10311 F1800 ; Print pattern wall
G1 E-0.5 F2100 ; Retract
G1 Z0.35 F7200 ; Z hop
G0 X117.4107 Y69.8992 F7200 ; Move to start next pattern wall
G1 Z0.25 F7200 ; Z hop return
G1 E0.5 F2100 ; Un-retract
G1 X136.7315 Y89.22 E1.10311 F1800 ; Print pattern wall
G1 X117.4107 Y108.5408 E1.10311 F1800 ; Print pattern wall
G1 E-0.5 F2100 ; Retract
G1 Z0.35 F7200 ; Z hop
G0 X119.8607 Y69.8992 F7200 ; Move to next pattern
G1 Z0.25 F7200 ; Z hop return
G1 E0.5 F2100 ; Un-retract
SET_PRESSURE_ADVANCE ADVANCE=0.08 ; Set pressure advance
M117 PA 0.08
G1 X139.1815 Y89.22 E1.10311 F1800 ; Print pattern wall
G1 X119.8607 Y108.5408 E1.10311 F1800 ; Print pattern wall
G1 E-0.5 F2100 ; Retract
G1 Z0.35 F7200 ; Z hop
G0 X120.4364 Y69.8992 F7200 ; Move to start next pattern wall
G1 Z0.25 F7200 ; Z hop return
G1 E0.5 F2100 ; Un-retract
G1 X139.7572 Y89.22 E1.10311 F1800 ; Print pattern wall
G1 X120.4364 Y108.5408 E1.10311 F1800 ; Print pattern wall
G1 E-0.5 F2100 ; Retract
G1 Z0.35 F7200 ; Z hop
G0 X121.0121 Y69.8992 F7200 ; Move to start next pattern wall
G1 Z0.25 F7200 ; Z hop return
G1 E0.5 F2100 ; Un-retract
G1 X140.3329 Y89.22 E1.10311 F1800 ; Print pattern wall
G1 X121.0121 Y108.5408 E1.10311 F1800 ; Print pattern wall
G1 E-0.5 F2100 ; Retract
G1 Z0.35 F7200 ; Z hop
G0 X62.2384 Y69.8992 F7200 ; Move back to start position
G1 Z0.25 F7200 ; Z hop return
G1 E0.5 F2100 ; Un-retract
M106 S255 ; Set fan speed
G0 Z0.45 F7200 ; Move to layer height
SET_PRESSURE_ADVANCE ADVANCE=0 ; Set pressure advance to start value for numbering
M117 PA 0
G1 E-0.5 F2100 ; Retract
G1 Z0.55 F7200 ; Z hop
G0 X58.9217 Y111.8832 F7200 ; Move
G1 Z0.45 F7200 ; Z hop return
G1 E0.5 F2100 ; Un-retract
G1 X60.9217 Y111.8832 E0.06634 F1800 ; Glyph: 0
G1 X62.9217 Y111.8832 E0.06634 F1800 ; Glyph: 0
G1 X62.9217 Y113.8832 E0.06634 F1800 ; Glyph: 0
G1 X60.9217 Y113.8832 E0.06634 F1800 ; Glyph: 0
G1 X58.9217 Y113.8832 E0.06634 F1800 ; Glyph: 0
G1 X58.9217 Y111.8832 E0.06634 F1800 ; Glyph: 0
G1 E-0.5 F2100 ; Retract
G1 Z0.55 F7200 ; Z hop
G0 X66.1245 Y111.8832 F7200 ; Move
G1 Z0.45 F7200 ; Z hop return
G1 E0.5 F2100 ; Un-retract
G1 X68.1245 Y111.8832 E0.06634 F1800 ; Glyph: 0
G1 X70.1245 Y111.8832 E0.06634 F1800 ; Glyph: 0
G1 X70.1245 Y113.8832 E0.06634 F1800 ; Glyph: 0
G1 X68.1245 Y113.8832 E0.06634 F1800 ; Glyph: 0
G1 X66.1245 Y113.8832 E0.06634 F1800 ; Glyph: 0
G1 X66.1245 Y111.8832 E0.06634 F1800 ; Glyph: 0
G1 E-0.5 F2100 ; Retract
G1 Z0.55 F7200 ; Z hop
G0 X70.1245 Y114.8832 F7200 ; Move
G1 Z0.45 F7200 ; Z hop return
G1 E0.5 F2100 ; Un-retract
G1 X69.3745 Y114.8832 E0.02488 F1800 ; Glyph: .
G1 E-0.5 F2100 ; Retract
G1 Z0.55 F7200 ; Z hop
G0 X66.1245 Y115.8832 F7200 ; Move
G1 Z0.45 F7200 ; Z hop return
G1 E0.5 F2100 ; Un-retract
G1 X68.1245 Y115.8832 E0.06634 F1800 ; Glyph: 0
G1 X70.1245 Y115.8832 E0.06634 F1800 ; Glyph: 0
G1 X70.1245 Y117.8832 E0.06634 F1800 ; Glyph: 0
G1 X68.1245 Y117.8832 E0.06634 F1800 ; Glyph: 0
G1 X66.1245 Y117.8832 E0.06634 F1800 ; Glyph: 0
G1 X66.1245 Y115.8832 E0.06634 F1800 ; Glyph: 0
G1 E-0.5 F2100 ; Retract
G1 Z0.55 F7200 ; Z hop
G0 X66.1245 Y118.8832 F7200 ; Move
G1 Z0.45 F7200 ; Z hop return
G1 E0.5 F2100 ; Un-retract
G1 X68.1245 Y118.8832 E0.06634 F1800 ; Glyph: 1
G1 X70.1245 Y118.8832 E0.06634 F1800 ; Glyph: 1
G1 E-0.5 F2100 ; Retract
G1 Z0.55 F7200 ; Z hop
G0 X73.3273 Y111.8832 F7200 ; Move
G1 Z0.45 F7200 ; Z hop return
G1 E0.5 F2100 ; Un-retract
G1 X75.3273 Y111.8832 E0.06634 F1800 ; Glyph: 0
G1 X77.3273 Y111.8832 E0.06634 F1800 ; Glyph: 0
G1 X77.3273 Y113.8832 E0.06634 F1800 ; Glyph: 0
G1 X75.3273 Y113.8832 E0.06634 F1800 ; Glyph: 0
G1 X73.3273 Y113.8832 E0.06634 F1800 ; Glyph: 0
G1 X73.3273 Y111.8832 E0.06634 F1800 ; Glyph: 0
G1 E-0.5 F2100 ; Retract
G1 Z0.55 F7200 ; Z hop
G0 X77.3273 Y114.8832 F7200 ; Move
G1 Z0.45 F7200 ; Z hop return
G1 E0.5 F2100 ; Un-retract
G1 X76.5773 Y114.8832 E0.02488 F1800 ; Glyph: .
G1 E-0.5 F2100 ; Retract
G1 Z0.55 F7200 ; Z hop
G0 X73.3273 Y115.8832 F7200 ; Move
G1 Z0.45 F7200 ; Z hop return
G1 E0.5 F2100 ; Un-retract
G1 X75.3273 Y115.8832 E0.06634 F1800 ; Glyph: 0
G1 X77.3273 Y115.8832 E0.06634 F1800 ; Glyph: 0
G1 X77.3273 Y117.8832 E0.06634 F1800 ; Glyph: 0
G1 X75.3273 Y117.8832 E0.06634 F1800 ; Glyph: 0
G1 X73.3273 Y117.8832 E0.06634 F1800 ; Glyph: 0
G1 X73.3273 Y115.8832 E0.06634 F1800 ; Glyph: 0
G1 E-0.5 F2100 ; Retract
G1 Z0.55 F7200 ; Z hop
G0 X73.3273 Y118.8832 F7200 ; Move
G1 Z0.45 F7200 ; Z hop return
G1 E0.5 F2100 ; Un-retract
G1 X73.3273 Y120.8832 E0.06634 F1800 ; Glyph: 2
G1 X75.3273 Y120.8832 E0.06634 F1800 ; Glyph: 2
G1 X75.3273 Y118.8832 E0.06634 F1800 ; Glyph: 2
G1 X77.3273 Y118.8832 E0.06634 F1800 ; Glyph: 2
G1 X77.3273 Y120.8832 E0.06634 F1800 ; Glyph: 2
G1 E-0.5 F2100 ; Retract
G1 Z0.55 F7200 ; Z hop
G0 X80.5301 Y111.8832 F7200 ; Move
G1 Z0.45 F7200 ; Z hop return
G1 E0.5 F2100 ; Un-retract
G1 X82.5301 Y111.8832 E0.06634 F1800 ; Glyph: 0
G1 X84.5301 Y111.8832 E0.06634 F1800 ; Glyph: 0
G1 X84.5301 Y113.8832 E0.06634 F1800 ; Glyph: 0
G1 X82.5301 Y113.8832 E0.06634 F1800 ; Glyph: 0
G1 X80.5301 Y113.8832 E0.06634 F1800 ; Glyph: 0
G1 X80.5301 Y111.8832 E0.06634 F1800 ; Glyph: 0
G1 E-0.5 F2100 ; Retract
G1 Z0.55 F7200 ; Z hop
G0 X84.5301 Y114.8832 F7200 ; Move
G1 Z0.45 F7200 ; Z hop return
G1 E0.5 F2100 ; Un-retract
G1 X83.7801 Y114.8832 E0.02488 F1800 ; Glyph: .
G1 E-0.5 F2100 ; Retract
G1 Z0.55 F7200 ; Z hop
G0 X80.5301 Y115.8832 F7200 ; Move
G1 Z0.45 F7200 ; Z hop return
G1 E0.5 F2100 ; Un-retract
G1 X82.5301 Y115.8832 E0.06634 F1800 ; Glyph: 0
G1 X84.5301 Y115.8832 E0.06634 F1800 ; Glyph: 0
G1 X84.5301 Y117.8832 E0.06634 F1800 ; Glyph: 0
G1 X82.5301 Y117.8832 E0.06634 F1800 ; Glyph: 0
G1 X80.5301 Y117.8832 E0.06634 F1800 ; Glyph: 0
G1 X80.5301 Y115.8832 E0.06634 F1800 ; Glyph: 0
G1 E-0.5 F2100 ; Retract
G1 Z0.55 F7200 ; Z hop
G0 X80.5301 Y118.8832 F7200 ; Move
G1 Z0.45 F7200 ; Z hop return
G1 E0.5 F2100 ; Un-retract
G1 X80.5301 Y120.8832 E0.06634 F1800 ; Glyph: 3
G1 X82.5301 Y120.8832 E0.06634 F1800 ; Glyph: 3
G1 X82.5301 Y118.8832 E0.06634 F1800 ; Glyph: 3
G0 X82.5301 Y120.8832 F7200 ; Move
G1 X84.5301 Y120.8832 E0.06634 F1800 ; Glyph: 3
G1 X84.5301 Y118.8832 E0.06634 F1800 ; Glyph: 3
G1 E-0.5 F2100 ; Retract
G1 Z0.55 F7200 ; Z hop
G0 X87.7329 Y111.8832 F7200 ; Move
G1 Z0.45 F7200 ; Z hop return
G1 E0.5 F2100 ; Un-retract
G1 X89.7329 Y111.8832 E0.06634 F1800 ; Glyph: 0
G1 X91.7329 Y111.8832 E0.06634 F1800 ; Glyph: 0
G1 X91.7329 Y113.8832 E0.06634 F1800 ; Glyph: 0
G1 X89.7329 Y113.8832 E0.06634 F1800 ; Glyph: 0
G1 X87.7329 Y113.8832 E0.06634 F1800 ; Glyph: 0
G1 X87.7329 Y111.8832 E0.06634 F1800 ; Glyph: 0
G1 E-0.5 F2100 ; Retract
G1 Z0.55 F7200 ; Z hop
G0 X91.7329 Y114.8832 F7200 ; Move
G1 Z0.45 F7200 ; Z hop return
G1 E0.5 F2100 ; Un-retract
G1 X90.9829 Y114.8832 E0.02488 F1800 ; Glyph: .
G1 E-0.5 F2100 ; Retract
G1 Z0.55 F7200 ; Z hop
G0 X87.7329 Y115.8832 F7200 ; Move
G1 Z0.45 F7200 ; Z hop return
G1 E0.5 F2100 ; Un-retract
G1 X89.7329 Y115.8832 E0.06634 F1800 ; Glyph: 0
G1 X91.7329 Y115.8832 E0.06634 F1800 ; Glyph: 0
G1 X91.7329 Y117.8832 E0.06634 F1800 ; Glyph: 0
G1 X89.7329 Y117.8832 E0.06634 F1800 ; Glyph: 0
G1 X87.7329 Y117.8832 E0.06634 F1800 ; Glyph: 0
G1 X87.7329 Y115.8832 E0.06634 F1800 ; Glyph: 0
G1 E-0.5 F2100 ; Retract
G1 Z0.55 F7200 ; Z hop
G0 X87.7329 Y120.8832 F7200 ; Move
G1 Z0.45 F7200 ; Z hop return
G1 E0.5 F2100 ; Un-retract
G1 X89.7329 Y120.8832 E0.06634 F1800 ; Glyph: 4
G1 X91.7329 Y120.8832 E0.06634 F1800 ; Glyph: 4
G0 X89.7329 Y120.8832 F7200 ; Move
G1 X89.7329 Y118.8832 E0.06634 F1800 ; Glyph: 4
G1 X87.7329 Y118.8832 E0.06634 F1800 ; Glyph: 4
G1 E-0.5 F2100 ; Retract
G1 Z0.55 F7200 ; Z hop
G0 X94.9357 Y111.8832 F7200 ; Move
G1 Z0.45 F7200 ; Z hop return
G1 E0.5 F2100 ; Un-retract
G1 X96.9357 Y111.8832 E0.06634 F1800 ; Glyph: 0
G1 X98.9357 Y111.8832 E0.06634 F1800 ; Glyph: 0
G1 X98.9357 Y113.8832 E0.06634 F1800 ; Glyph: 0
G1 X96.9357 Y113.8832 E0.06634 F1800 ; Glyph: 0
G1 X94.9357 Y113.8832 E0.06634 F1800 ; Glyph: 0
G1 X94.9357 Y111.8832 E0.06634 F1800 ; Glyph: 0
G1 E-0.5 F2100 ; Retract
G1 Z0.55 F7200 ; Z hop
G0 X98.9357 Y114.8832 F7200 ; Move
G1 Z0.45 F7200 ; Z hop return
G1 E0.5 F2100 ; Un-retract
G1 X98.1857 Y114.8832 E0.02488 F1800 ; Glyph: .
G1 E-0.5 F2100 ; Retract
G1 Z0.55 F7200 ; Z hop
G0 X94.9357 Y115.8832 F7200 ; Move
G1 Z0.45 F7200 ; Z hop return
G1 E0.5 F2100 ; Un-retract
G1 X96.9357 Y115.8832 E0.06634 F1800 ; Glyph: 0
G1 X98.9357 Y115.8832 E0.06634 F1800 ; Glyph: 0
G1 X98.9357 Y117.8832 E0.06634 F1800 ; Glyph: 0
G1 X96.9357 Y117.8832 E0.06634 F1800 ; Glyph: 0
G1 X94.9357 Y117.8832 E0.06634 F1800 ; Glyph: 0
G1 X94.9357 Y115.8832 E0.06634 F1800 ; Glyph: 0
G1 E-0.5 F2100 ; Retract
G1 Z0.55 F7200 ; Z hop
G0 X94.9357 Y120.8832 F7200 ; Move
G1 Z0.45 F7200 ; Z hop return
G1 E0.5 F2100 ; Un-retract
G1 X94.9357 Y118.8832 E0.06634 F1800 ; Glyph: 5
G1 X96.9357 Y118.8832 E0.06634 F1800 ; Glyph: 5
G1 X96.9357 Y120.8832 E0.06634 F1800 ; Glyph: 5
G1 X98.9357 Y120.8832 E0.06634 F1800 ; Glyph: 5
G1 X98.9357 Y118.8832 E0.06634 F1800 ; Glyph: 5
G1 E-0.5 F2100 ; Retract
G1 Z0.55 F7200 ; Z hop
G0 X102.1384 Y111.8832 F7200 ; Move
G1 Z0.45 F7200 ; Z hop return
G1 E0.5 F2100 ; Un-retract
G1 X104.1384 Y111.8832 E0.06634 F1800 ; Glyph: 0
G1 X106.1384 Y111.8832 E0.06634 F1800 ; Glyph: 0
G1 X106.1384 Y113.8832 E0.06634 F1800 ; Glyph: 0
G1 X104.1384 Y113.8832 E0.06634 F1800 ; Glyph: 0
G1 X102.1384 Y113.8832 E0.06634 F1800 ; Glyph: 0
G1 X102.1384 Y111.8832 E0.06634 F1800 ; Glyph: 0
G1 E-0.5 F2100 ; Retract
G1 Z0.55 F7200 ; Z hop
G0 X106.1384 Y114.8832 F7200 ; Move
G1 Z0.45 F7200 ; Z hop return
G1 E0.5 F2100 ; Un-retract
G1 X105.3884 Y114.8832 E0.02488 F1800 ; Glyph: .
G1 E-0.5 F2100 ; Retract
G1 Z0.55 F7200 ; Z hop
G0 X102.1384 Y115.8832 F7200 ; Move
G1 Z0.45 F7200 ; Z hop return
G1 E0.5 F2100 ; Un-retract
G1 X104.1384 Y115.8832 E0.06634 F1800 ; Glyph: 0
G1 X106.1384 Y115.8832 E0.06634 F1800 ; Glyph: 0
G1 X106.1384 Y117.8832 E0.06634 F1800 ; Glyph: 0
G1 X104.1384 Y117.8832 E0.06634 F1800 ; Glyph: 0
G1 X102.1384 Y117.8832 E0.06634 F1800 ; Glyph: 0
G1 X102.1384 Y115.8832 E0.06634 F1800 ; Glyph: 0
G1 E-0.5 F2100 ; Retract
G1 Z0.55 F7200 ; Z hop
G0 X102.1384 Y120.8832 F7200 ; Move
G1 Z0.45 F7200 ; Z hop return
G1 E0.5 F2100 ; Un-retract
G1 X102.1384 Y118.8832 E0.06634 F1800 ; Glyph: 6
G1 X104.1384 Y118.8832 E0.06634 F1800 ; Glyph: 6
G1 X106.1384 Y118.8832 E0.06634 F1800 ; Glyph: 6
G1 X106.1384 Y120.8832 E0.06634 F1800 ; Glyph: 6
G1 X104.1384 Y120.8832 E0.06634 F1800 ; Glyph: 6
G1 X104.1384 Y118.8832 E0.06634 F1800 ; Glyph: 6
G1 E-0.5 F2100 ; Retract
G1 Z0.55 F7200 ; Z hop
G0 X109.3412 Y111.8832 F7200 ; Move
G1 Z0.45 F7200 ; Z hop return
G1 E0.5 F2100 ; Un-retract
G1 X111.3412 Y111.8832 E0.06634 F1800 ; Glyph: 0
G1 X113.3412 Y111.8832 E0.06634 F1800 ; Glyph: 0
G1 X113.3412 Y113.8832 E0.06634 F1800 ; Glyph: 0
G1 X111.3412 Y113.8832 E0.06634 F1800 ; Glyph: 0
G1 X109.3412 Y113.8832 E0.06634 F1800 ; Glyph: 0
G1 X109.3412 Y111.8832 E0.06634 F1800 ; Glyph: 0
G1 E-0.5 F2100 ; Retract
G1 Z0.55 F7200 ; Z hop
G0 X113.3412 Y114.8832 F7200 ; Move
G1 Z0.45 F7200 ; Z hop return
G1 E0.5 F2100 ; Un-retract
G1 X112.5912 Y114.8832 E0.02488 F1800 ; Glyph: .
G1 E-0.5 F2100 ; Retract
G1 Z0.55 F7200 ; Z hop
G0 X109.3412 Y115.8832 F7200 ; Move
G1 Z0.45 F7200 ; Z hop return
G1 E0.5 F2100 ; Un-retract
G1 X111.3412 Y115.8832 E0.06634 F1800 ; Glyph: 0
G1 X113.3412 Y115.8832 E0.06634 F1800 ; Glyph: 0
G1 X113.3412 Y117.8832 E0.06634 F1800 ; Glyph: 0
G1 X111.3412 Y117.8832 E0.06634 F1800 ; Glyph: 0
G1 X109.3412 Y117.8832 E0.06634 F1800 ; Glyph: 0
G1 X109.3412 Y115.8832 E0.06634 F1800 ; Glyph: 0
G1 E-0.5 F2100 ; Retract
G1 Z0.55 F7200 ; Z hop
G0 X109.3412 Y118.8832 F7200 ; Move
G1 Z0.45 F7200 ; Z hop return
G1 E0.5 F2100 ; Un-retract
G1 X109.3412 Y120.8832 E0.06634 F1800 ; Glyph: 7
G1 X111.3412 Y120.8832 E0.06634 F1800 ; Glyph: 7
G1 X113.3412 Y120.8832 E0.06634 F1800 ; Glyph: 7
G1 E-0.5 F2100 ; Retract
G1 Z0.55 F7200 ; Z hop
G0 X116.544 Y111.8832 F7200 ; Move
G1 Z0.45 F7200 ; Z hop return
G1 E0.5 F2100 ; Un-retract
G1 X118.544 Y111.8832 E0.06634 F1800 ; Glyph: 0
G1 X120.544 Y111.8832 E0.06634 F1800 ; Glyph: 0
G1 X120.544 Y113.8832 E0.06634 F1800 ; Glyph: 0
G1 X118.544 Y113.8832 E0.06634 F1800 ; Glyph: 0
G1 X116.544 Y113.8832 E0.06634 F1800 ; Glyph: 0
G1 X116.544 Y111.8832 E0.06634 F1800 ; Glyph: 0
G1 E-0.5 F2100 ; Retract
G1 Z0.55 F7200 ; Z hop
G0 X120.544 Y114.8832 F7200 ; Move
G1 Z0.45 F7200 ; Z hop return
G1 E0.5 F2100 ; Un-retract
G1 X119.794 Y114.8832 E0.02488 F1800 ; Glyph: .
G1 E-0.5 F2100 ; Retract
G1 Z0.55 F7200 ; Z hop
G0 X116.544 Y115.8832 F7200 ; Move
G1 Z0.45 F7200 ; Z hop return
G1 E0.5 F2100 ; Un-retract
G1 X118.544 Y115.8832 E0.06634 F1800 ; Glyph: 0
G1 X120.544 Y115.8832 E0.06634 F1800 ; Glyph: 0
G1 X120.544 Y117.8832 E0.06634 F1800 ; Glyph: 0
G1 X118.544 Y117.8832 E0.06634 F1800 ; Glyph: 0
G1 X116.544 Y117.8832 E0.06634 F1800 ; Glyph: 0
G1 X116.544 Y115.8832 E0.06634 F1800 ; Glyph: 0
G1 E-0.5 F2100 ; Retract
G1 Z0.55 F7200 ; Z hop
G0 X116.544 Y118.8832 F7200 ; Move
G1 Z0.45 F7200 ; Z hop return
G1 E0.5 F2100 ; Un-retract
G1 X118.544 Y118.8832 E0.06634 F1800 ; Glyph: 8
G1 X120.544 Y118.8832 E0.06634 F1800 ; Glyph: 8
G1 X120.544 Y120.8832 E0.06634 F1800 ; Glyph: 8
G1 X118.544 Y120.8832 E0.06634 F1800 ; Glyph: 8
G1 X116.544 Y120.8832 E0.06634 F1800 ; Glyph: 8
G1 X116.544 Y118.8832 E0.06634 F1800 ; Glyph: 8
G0 X118.544 Y118.8832 F7200 ; Move
G1 X118.544 Y120.8832 E0.06634 F1800 ; Glyph: 8
G1 E-0.5 F2100 ; Retract
G1 Z0.55 F7200 ; Z hop
G0 X60.346 Y68.0068 F7200 ; Move to pattern start

G1 Z0.45 F7200 ; Z hop return
G1 E0.5 F2100 ; Un-retract
SET_PRESSURE_ADVANCE ADVANCE=0 ; Set pressure advance
M117 PA 0
G1 X81.5592 Y89.22 E0.99515 F6000 ; Print pattern wall
G1 X60.346 Y110.4332 E0.99515 F6000 ; Print pattern wall
G1 E-0.5 F2100 ; Retract
G1 Z0.55 F7200 ; Z hop
G0 X60.9217 Y68.0068 F7200 ; Move to start next pattern wall
G1 Z0.45 F7200 ; Z hop return
G1 E0.5 F2100 ; Un-retract
G1 X82.1349 Y89.22 E0.99515 F6000 ; Print pattern wall
G1 X60.9217 Y110.4332 E0.99515 F6000 ; Print pattern wall
G1 E-0.5 F2100 ; Retract
G1 Z0.55 F7200 ; Z hop
G0 X61.4974 Y68.0068 F7200 ; Move to start next pattern wall
G1 Z0.45 F7200 ; Z hop return
G1 E0.5 F2100 ; Un-retract
G1 X82.7106 Y89.22 E0.99515 F6000 ; Print pattern wall
G1 X61.4974 Y110.4332 E0.99515 F6000 ; Print pattern wall
G1 E-0.5 F2100 ; Retract
G1 Z0.55 F7200 ; Z hop
G0 X63.9474 Y68.0068 F7200 ; Move to next pattern
G1 Z0.45 F7200 ; Z hop return
G1 E0.5 F2100 ; Un-retract
SET_PRESSURE_ADVANCE ADVANCE=0.005 ; Set pressure advance
M117 PA 0.005
G1 X85.1606 Y89.22 E0.99515 F6000 ; Print pattern wall
G1 X63.9474 Y110.4332 E0.99515 F6000 ; Print pattern wall
G1 E-0.5 F2100 ; Retract
G1 Z0.55 F7200 ; Z hop
G0 X64.5231 Y68.0068 F7200 ; Move to start next pattern wall
G1 Z0.45 F7200 ; Z hop return
G1 E0.5 F2100 ; Un-retract
G1 X85.7363 Y89.22 E0.99515 F6000 ; Print pattern wall
G1 X64.5231 Y110.4332 E0.99515 F6000 ; Print pattern wall
G1 E-0.5 F2100 ; Retract
G1 Z0.55 F7200 ; Z hop
G0 X65.0988 Y68.0068 F7200 ; Move to start next pattern wall
G1 Z0.45 F7200 ; Z hop return
G1 E0.5 F2100 ; Un-retract
G1 X86.312 Y89.22 E0.99515 F6000 ; Print pattern wall
G1 X65.0988 Y110.4332 E0.99515 F6000 ; Print pattern wall
G1 E-0.5 F2100 ; Retract
G1 Z0.55 F7200 ; Z hop
G0 X67.5488 Y68.0068 F7200 ; Move to next pattern
G1 Z0.45 F7200 ; Z hop return
G1 E0.5 F2100 ; Un-retract
SET_PRESSURE_ADVANCE ADVANCE=0.01 ; Set pressure advance
M117 PA 0.01
G1 X88.762 Y89.22 E0.99515 F6000 ; Print pattern wall
G1 X67.5488 Y110.4332 E0.99515 F6000 ; Print pattern wall
G1 E-0.5 F2100 ; Retract
G1 Z0.55 F7200 ; Z hop
G0 X68.1245 Y68.0068 F7200 ; Move to start next pattern wall
G1 Z0.45 F7200 ; Z hop return
G1 E0.5 F2100 ; Un-retract
G1 X89.3377 Y89.22 E0.99515 F6000 ; Print pattern wall
G1 X68.1245 Y110.4332 E0.99515 F6000 ; Print pattern wall
G1 E-0.5 F2100 ; Retract
G1 Z0.55 F7200 ; Z hop
G0 X68.7002 Y68.0068 F7200 ; Move to start next pattern wall
G1 Z0.45 F7200 ; Z hop return
G1 E0.5 F2100 ; Un-retract
G1 X89.9134 Y89.22 E0.99515 F6000 ; Print pattern wall
G1 X68.7002 Y110.4332 E0.99515 F6000 ; Print pattern wall
G1 E-0.5 F2100 ; Retract
G1 Z0.55 F7200 ; Z hop
G0 X71.1502 Y68.0068 F7200 ; Move to next pattern
G1 Z0.45 F7200 ; Z hop return
G1 E0.5 F2100 ; Un-retract
SET_PRESSURE_ADVANCE ADVANCE=0.015 ; Set pressure advance
M117 PA 0.015
G1 X92.3634 Y89.22 E0.99515 F6000 ; Print pattern wall
G1 X71.1502 Y110.4332 E0.99515 F6000 ; Print pattern wall
G1 E-0.5 F2100 ; Retract
G1 Z0.55 F7200 ; Z hop
G0 X71.7259 Y68.0068 F7200 ; Move to start next pattern wall
G1 Z0.45 F7200 ; Z hop return
G1 E0.5 F2100 ; Un-retract
G1 X92.9391 Y89.22 E0.99515 F6000 ; Print pattern wall
G1 X71.7259 Y110.4332 E0.99515 F6000 ; Print pattern wall
G1 E-0.5 F2100 ; Retract
G1 Z0.55 F7200 ; Z hop
G0 X72.3016 Y68.0068 F7200 ; Move to start next pattern wall
G1 Z0.45 F7200 ; Z hop return
G1 E0.5 F2100 ; Un-retract
G1 X93.5148 Y89.22 E0.99515 F6000 ; Print pattern wall
G1 X72.3016 Y110.4332 E0.99515 F6000 ; Print pattern wall
G1 E-0.5 F2100 ; Retract
G1 Z0.55 F7200 ; Z hop
G0 X74.7516 Y68.0068 F7200 ; Move to next pattern
G1 Z0.45 F7200 ; Z hop return
G1 E0.5 F2100 ; Un-retract
SET_PRESSURE_ADVANCE ADVANCE=0.02 ; Set pressure advance
M117 PA 0.02
G1 X95.9648 Y89.22 E0.99515 F6000 ; Print pattern wall
G1 X74.7516 Y110.4332 E0.99515 F6000 ; Print pattern wall
G1 E-0.5 F2100 ; Retract
G1 Z0.55 F7200 ; Z hop
G0 X75.3273 Y68.0068 F7200 ; Move to start next pattern wall
G1 Z0.45 F7200 ; Z hop return
G1 E0.5 F2100 ; Un-retract
G1 X96.5405 Y89.22 E0.99515 F6000 ; Print pattern wall
G1 X75.3273 Y110.4332 E0.99515 F6000 ; Print pattern wall
G1 E-0.5 F2100 ; Retract
G1 Z0.55 F7200 ; Z hop
G0 X75.903 Y68.0068 F7200 ; Move to start next pattern wall
G1 Z0.45 F7200 ; Z hop return
G1 E0.5 F2100 ; Un-retract
G1 X97.1162 Y89.22 E0.99515 F6000 ; Print pattern wall
G1 X75.903 Y110.4332 E0.99515 F6000 ; Print pattern wall
G1 E-0.5 F2100 ; Retract
G1 Z0.55 F7200 ; Z hop
G0 X78.353 Y68.0068 F7200 ; Move to next pattern
G1 Z0.45 F7200 ; Z hop return
G1 E0.5 F2100 ; Un-retract
SET_PRESSURE_ADVANCE ADVANCE=0.025 ; Set pressure advance
M117 PA 0.025
G1 X99.5662 Y89.22 E0.99515 F6000 ; Print pattern wall
G1 X78.353 Y110.4332 E0.99515 F6000 ; Print pattern wall
G1 E-0.5 F2100 ; Retract
G1 Z0.55 F7200 ; Z hop
G0 X78.9287 Y68.0068 F7200 ; Move to start next pattern wall
G1 Z0.45 F7200 ; Z hop return
G1 E0.5 F2100 ; Un-retract
G1 X100.1419 Y89.22 E0.99515 F6000 ; Print pattern wall
G1 X78.9287 Y110.4332 E0.99515 F6000 ; Print pattern wall
G1 E-0.5 F2100 ; Retract
G1 Z0.55 F7200 ; Z hop
G0 X79.5044 Y68.0068 F7200 ; Move to start next pattern wall
G1 Z0.45 F7200 ; Z hop return
G1 E0.5 F2100 ; Un-retract
G1 X100.7176 Y89.22 E0.99515 F6000 ; Print pattern wall
G1 X79.5044 Y110.4332 E0.99515 F6000 ; Print pattern wall
G1 E-0.5 F2100 ; Retract
G1 Z0.55 F7200 ; Z hop
G0 X81.9544 Y68.0068 F7200 ; Move to next pattern
G1 Z0.45 F7200 ; Z hop return
G1 E0.5 F2100 ; Un-retract
SET_PRESSURE_ADVANCE ADVANCE=0.03 ; Set pressure advance
M117 PA 0.03
G1 X103.1676 Y89.22 E0.99515 F6000 ; Print pattern wall
G1 X81.9544 Y110.4332 E0.99515 F6000 ; Print pattern wall
G1 E-0.5 F2100 ; Retract
G1 Z0.55 F7200 ; Z hop
G0 X82.5301 Y68.0068 F7200 ; Move to start next pattern wall
G1 Z0.45 F7200 ; Z hop return
G1 E0.5 F2100 ; Un-retract
G1 X103.7433 Y89.22 E0.99515 F6000 ; Print pattern wall
G1 X82.5301 Y110.4332 E0.99515 F6000 ; Print pattern wall
G1 E-0.5 F2100 ; Retract
G1 Z0.55 F7200 ; Z hop
G0 X83.1058 Y68.0068 F7200 ; Move to start next pattern wall
G1 Z0.45 F7200 ; Z hop return
G1 E0.5 F2100 ; Un-retract
G1 X104.319 Y89.22 E0.99515 F6000 ; Print pattern wall
G1 X83.1058 Y110.4332 E0.99515 F6000 ; Print pattern wall
G1 E-0.5 F2100 ; Retract
G1 Z0.55 F7200 ; Z hop
G0 X85.5558 Y68.0068 F7200 ; Move to next pattern
G1 Z0.45 F7200 ; Z hop return
G1 E0.5 F2100 ; Un-retract
SET_PRESSURE_ADVANCE ADVANCE=0.035 ; Set pressure advance
M117 PA 0.035
G1 X106.769 Y89.22 E0.99515 F6000 ; Print pattern wall
G1 X85.5558 Y110.4332 E0.99515 F6000 ; Print pattern wall
G1 E-0.5 F2100 ; Retract
G1 Z0.55 F7200 ; Z hop
G0 X86.1315 Y68.0068 F7200 ; Move to start next pattern wall
G1 Z0.45 F7200 ; Z hop return
G1 E0.5 F2100 ; Un-retract
G1 X107.3447 Y89.22 E0.99515 F6000 ; Print pattern wall
G1 X86.1315 Y110.4332 E0.99515 F6000 ; Print pattern wall
G1 E-0.5 F2100 ; Retract
G1 Z0.55 F7200 ; Z hop
G0 X86.7072 Y68.0068 F7200 ; Move to start next pattern wall
G1 Z0.45 F7200 ; Z hop return
G1 E0.5 F2100 ; Un-retract
G1 X107.9204 Y89.22 E0.99515 F6000 ; Print pattern wall
G1 X86.7072 Y110.4332 E0.99515 F6000 ; Print pattern wall
G1 E-0.5 F2100 ; Retract
G1 Z0.55 F7200 ; Z hop
G0 X89.1572 Y68.0068 F7200 ; Move to next pattern
G1 Z0.45 F7200 ; Z hop return
G1 E0.5 F2100 ; Un-retract
SET_PRESSURE_ADVANCE ADVANCE=0.04 ; Set pressure advance
M117 PA 0.04
G1 X110.3704 Y89.22 E0.99515 F6000 ; Print pattern wall
G1 X89.1572 Y110.4332 E0.99515 F6000 ; Print pattern wall
G1 E-0.5 F2100 ; Retract
G1 Z0.55 F7200 ; Z hop
G0 X89.7329 Y68.0068 F7200 ; Move to start next pattern wall
G1 Z0.45 F7200 ; Z hop return
G1 E0.5 F2100 ; Un-retract
G1 X110.9461 Y89.22 E0.99515 F6000 ; Print pattern wall
G1 X89.7329 Y110.4332 E0.99515 F6000 ; Print pattern wall
G1 E-0.5 F2100 ; Retract
G1 Z0.55 F7200 ; Z hop
G0 X90.3086 Y68.0068 F7200 ; Move to start next pattern wall
G1 Z0.45 F7200 ; Z hop return
G1 E0.5 F2100 ; Un-retract
G1 X111.5218 Y89.22 E0.99515 F6000 ; Print pattern wall
G1 X90.3086 Y110.4332 E0.99515 F6000 ; Print pattern wall
G1 E-0.5 F2100 ; Retract
G1 Z0.55 F7200 ; Z hop
G0 X92.7586 Y68.0068 F7200 ; Move to next pattern
G1 Z0.45 F7200 ; Z hop return
G1 E0.5 F2100 ; Un-retract
SET_PRESSURE_ADVANCE ADVANCE=0.045 ; Set pressure advance
M117 PA 0.045
G1 X113.9718 Y89.22 E0.99515 F6000 ; Print pattern wall
G1 X92.7586 Y110.4332 E0.99515 F6000 ; Print pattern wall
G1 E-0.5 F2100 ; Retract
G1 Z0.55 F7200 ; Z hop
G0 X93.3343 Y68.0068 F7200 ; Move to start next pattern wall
G1 Z0.45 F7200 ; Z hop return
G1 E0.5 F2100 ; Un-retract
G1 X114.5475 Y89.22 E0.99515 F6000 ; Print pattern wall
G1 X93.3343 Y110.4332 E0.99515 F6000 ; Print pattern wall
G1 E-0.5 F2100 ; Retract
G1 Z0.55 F7200 ; Z hop
G0 X93.91 Y68.0068 F7200 ; Move to start next pattern wall
G1 Z0.45 F7200 ; Z hop return
G1 E0.5 F2100 ; Un-retract
G1 X115.1232 Y89.22 E0.99515 F6000 ; Print pattern wall
G1 X93.91 Y110.4332 E0.99515 F6000 ; Print pattern wall
G1 E-0.5 F2100 ; Retract
G1 Z0.55 F7200 ; Z hop
G0 X96.36 Y68.0068 F7200 ; Move to next pattern
G1 Z0.45 F7200 ; Z hop return
G1 E0.5 F2100 ; Un-retract
SET_PRESSURE_ADVANCE ADVANCE=0.05 ; Set pressure advance
M117 PA 0.05
G1 X117.5732 Y89.22 E0.99515 F6000 ; Print pattern wall
G1 X96.36 Y110.4332 E0.99515 F6000 ; Print pattern wall
G1 E-0.5 F2100 ; Retract
G1 Z0.55 F7200 ; Z hop
G0 X96.9357 Y68.0068 F7200 ; Move to start next pattern wall
G1 Z0.45 F7200 ; Z hop return
G1 E0.5 F2100 ; Un-retract
G1 X118.1489 Y89.22 E0.99515 F6000 ; Print pattern wall
G1 X96.9357 Y110.4332 E0.99515 F6000 ; Print pattern wall
G1 E-0.5 F2100 ; Retract
G1 Z0.55 F7200 ; Z hop
G0 X97.5113 Y68.0068 F7200 ; Move to start next pattern wall
G1 Z0.45 F7200 ; Z hop return
G1 E0.5 F2100 ; Un-retract
G1 X118.7246 Y89.22 E0.99515 F6000 ; Print pattern wall
G1 X97.5113 Y110.4332 E0.99515 F6000 ; Print pattern wall
G1 E-0.5 F2100 ; Retract
G1 Z0.55 F7200 ; Z hop
G0 X99.9613 Y68.0068 F7200 ; Move to next pattern
G1 Z0.45 F7200 ; Z hop return
G1 E0.5 F2100 ; Un-retract
SET_PRESSURE_ADVANCE ADVANCE=0.055 ; Set pressure advance
M117 PA 0.055
G1 X121.1746 Y89.22 E0.99515 F6000 ; Print pattern wall
G1 X99.9613 Y110.4332 E0.99515 F6000 ; Print pattern wall
G1 E-0.5 F2100 ; Retract
G1 Z0.55 F7200 ; Z hop
G0 X100.537 Y68.0068 F7200 ; Move to start next pattern wall
G1 Z0.45 F7200 ; Z hop return
G1 E0.5 F2100 ; Un-retract
G1 X121.7502 Y89.22 E0.99515 F6000 ; Print pattern wall
G1 X100.537 Y110.4332 E0.99515 F6000 ; Print pattern wall
G1 E-0.5 F2100 ; Retract
G1 Z0.55 F7200 ; Z hop
G0 X101.1127 Y68.0068 F7200 ; Move to start next pattern wall
G1 Z0.45 F7200 ; Z hop return
G1 E0.5 F2100 ; Un-retract
G1 X122.3259 Y89.22 E0.99515 F6000 ; Print pattern wall
G1 X101.1127 Y110.4332 E0.99515 F6000 ; Print pattern wall
G1 E-0.5 F2100 ; Retract
G1 Z0.55 F7200 ; Z hop
G0 X103.5627 Y68.0068 F7200 ; Move to next pattern
G1 Z0.45 F7200 ; Z hop return
G1 E0.5 F2100 ; Un-retract
SET_PRESSURE_ADVANCE ADVANCE=0.06 ; Set pressure advance
M117 PA 0.06
G1 X124.7759 Y89.22 E0.99515 F6000 ; Print pattern wall
G1 X103.5627 Y110.4332 E0.99515 F6000 ; Print pattern wall
G1 E-0.5 F2100 ; Retract
G1 Z0.55 F7200 ; Z hop
G0 X104.1384 Y68.0068 F7200 ; Move to start next pattern wall
G1 Z0.45 F7200 ; Z hop return
G1 E0.5 F2100 ; Un-retract
G1 X125.3516 Y89.22 E0.99515 F6000 ; Print pattern wall
G1 X104.1384 Y110.4332 E0.99515 F6000 ; Print pattern wall
G1 E-0.5 F2100 ; Retract
G1 Z0.55 F7200 ; Z hop
G0 X104.7141 Y68.0068 F7200 ; Move to start next pattern wall
G1 Z0.45 F7200 ; Z hop return
G1 E0.5 F2100 ; Un-retract
G1 X125.9273 Y89.22 E0.99515 F6000 ; Print pattern wall
G1 X104.7141 Y110.4332 E0.99515 F6000 ; Print pattern wall
G1 E-0.5 F2100 ; Retract
G1 Z0.55 F7200 ; Z hop
G0 X107.1641 Y68.0068 F7200 ; Move to next pattern
G1 Z0.45 F7200 ; Z hop return
G1 E0.5 F2100 ; Un-retract
SET_PRESSURE_ADVANCE ADVANCE=0.065 ; Set pressure advance
M117 PA 0.065
G1 X128.3773 Y89.22 E0.99515 F6000 ; Print pattern wall
G1 X107.1641 Y110.4332 E0.99515 F6000 ; Print pattern wall
G1 E-0.5 F2100 ; Retract
G1 Z0.55 F7200 ; Z hop
G0 X107.7398 Y68.0068 F7200 ; Move to start next pattern wall
G1 Z0.45 F7200 ; Z hop return
G1 E0.5 F2100 ; Un-retract
G1 X128.953 Y89.22 E0.99515 F6000 ; Print pattern wall
G1 X107.7398 Y110.4332 E0.99515 F6000 ; Print pattern wall
G1 E-0.5 F2100 ; Retract
G1 Z0.55 F7200 ; Z hop
G0 X108.3155 Y68.0068 F7200 ; Move to start next pattern wall
G1 Z0.45 F7200 ; Z hop return
G1 E0.5 F2100 ; Un-retract
G1 X129.5287 Y89.22 E0.99515 F6000 ; Print pattern wall
G1 X108.3155 Y110.4332 E0.99515 F6000 ; Print pattern wall
G1 E-0.5 F2100 ; Retract
G1 Z0.55 F7200 ; Z hop
G0 X110.7655 Y68.0068 F7200 ; Move to next pattern
G1 Z0.45 F7200 ; Z hop return
G1 E0.5 F2100 ; Un-retract
SET_PRESSURE_ADVANCE ADVANCE=0.07 ; Set pressure advance
M117 PA 0.07
G1 X131.9787 Y89.22 E0.99515 F6000 ; Print pattern wall
G1 X110.7655 Y110.4332 E0.99515 F6000 ; Print pattern wall
G1 E-0.5 F2100 ; Retract
G1 Z0.55 F7200 ; Z hop
G0 X111.3412 Y68.0068 F7200 ; Move to start next pattern wall
G1 Z0.45 F7200 ; Z hop return
G1 E0.5 F2100 ; Un-retract
G1 X132.5544 Y89.22 E0.99515 F6000 ; Print pattern wall
G1 X111.3412 Y110.4332 E0.99515 F6000 ; Print pattern wall
G1 E-0.5 F2100 ; Retract
G1 Z0.55 F7200 ; Z hop
G0 X111.9169 Y68.0068 F7200 ; Move to start next pattern wall
G1 Z0.45 F7200 ; Z hop return
G1 E0.5 F2100 ; Un-retract
G1 X133.1301 Y89.22 E0.99515 F6000 ; Print pattern wall
G1 X111.9169 Y110.4332 E0.99515 F6000 ; Print pattern wall
G1 E-0.5 F2100 ; Retract
G1 Z0.55 F7200 ; Z hop
G0 X114.3669 Y68.0068 F7200 ; Move to next pattern
G1 Z0.45 F7200 ; Z hop return
G1 E0.5 F2100 ; Un-retract
SET_PRESSURE_ADVANCE ADVANCE=0.075 ; Set pressure advance
M117 PA 0.075
G1 X135.5801 Y89.22 E0.99515 F6000 ; Print pattern wall
G1 X114.3669 Y110.4332 E0.99515 F6000 ; Print pattern wall
G1 E-0.5 F2100 ; Retract
G1 Z0.55 F7200 ; Z hop
G0 X114.9426 Y68.0068 F7200 ; Move to start next pattern wall
G1 Z0.45 F7200 ; Z hop return
G1 E0.5 F2100 ; Un-retract
G1 X136.1558 Y89.22 E0.99515 F6000 ; Print pattern wall
G1 X114.9426 Y110.4332 E0.99515 F6000 ; Print pattern wall
G1 E-0.5 F2100 ; Retract
G1 Z0.55 F7200 ; Z hop
G0 X115.5183 Y68.0068 F7200 ; Move to start next pattern wall
G1 Z0.45 F7200 ; Z hop return
G1 E0.5 F2100 ; Un-retract
G1 X136.7315 Y89.22 E0.99515 F6000 ; Print pattern wall
G1 X115.5183 Y110.4332 E0.99515 F6000 ; Print pattern wall
G1 E-0.5 F2100 ; Retract
G1 Z0.55 F7200 ; Z hop
G0 X117.9683 Y68.0068 F7200 ; Move to next pattern
G1 Z0.45 F7200 ; Z hop return
G1 E0.5 F2100 ; Un-retract
SET_PRESSURE_ADVANCE ADVANCE=0.08 ; Set pressure advance
M117 PA 0.08
G1 X139.1815 Y89.22 E0.99515 F6000 ; Print pattern wall
G1 X117.9683 Y110.4332 E0.99515 F6000 ; Print pattern wall
G1 E-0.5 F2100 ; Retract
G1 Z0.55 F7200 ; Z hop
G0 X118.544 Y68.0068 F7200 ; Move to start next pattern wall
G1 Z0.45 F7200 ; Z hop return
G1 E0.5 F2100 ; Un-retract
G1 X139.7572 Y89.22 E0.99515 F6000 ; Print pattern wall
G1 X118.544 Y110.4332 E0.99515 F6000 ; Print pattern wall
G1 E-0.5 F2100 ; Retract
G1 Z0.55 F7200 ; Z hop
G0 X119.1197 Y68.0068 F7200 ; Move to start next pattern wall
G1 Z0.45 F7200 ; Z hop return
G1 E0.5 F2100 ; Un-retract
G1 X140.3329 Y89.22 E0.99515 F6000 ; Print pattern wall
G1 X119.1197 Y110.4332 E0.99515 F6000 ; Print pattern wall
G1 E-0.5 F2100 ; Retract
G1 Z0.55 F7200 ; Z hop
G0 X60.346 Y68.0068 F7200 ; Move back to start position
G1 Z0.45 F7200 ; Z hop return
G1 E0.5 F2100 ; Un-retract
G0 Z0.65 F7200 ; Move to layer height
SET_PRESSURE_ADVANCE ADVANCE=0 ; Set pressure advance
M117 PA 0
G1 X81.5592 Y89.22 E0.99515 F6000 ; Print pattern wall
G1 X60.346 Y110.4332 E0.99515 F6000 ; Print pattern wall
G1 E-0.5 F2100 ; Retract
G1 Z0.75 F7200 ; Z hop
G0 X60.9217 Y68.0068 F7200 ; Move to start next pattern wall
G1 Z0.65 F7200 ; Z hop return
G1 E0.5 F2100 ; Un-retract
G1 X82.1349 Y89.22 E0.99515 F6000 ; Print pattern wall
G1 X60.9217 Y110.4332 E0.99515 F6000 ; Print pattern wall
G1 E-0.5 F2100 ; Retract
G1 Z0.75 F7200 ; Z hop
G0 X61.4974 Y68.0068 F7200 ; Move to start next pattern wall
G1 Z0.65 F7200 ; Z hop return
G1 E0.5 F2100 ; Un-retract
G1 X82.7106 Y89.22 E0.99515 F6000 ; Print pattern wall
G1 X61.4974 Y110.4332 E0.99515 F6000 ; Print pattern wall
G1 E-0.5 F2100 ; Retract
G1 Z0.75 F7200 ; Z hop
G0 X63.9474 Y68.0068 F7200 ; Move to next pattern
G1 Z0.65 F7200 ; Z hop return
G1 E0.5 F2100 ; Un-retract
SET_PRESSURE_ADVANCE ADVANCE=0.005 ; Set pressure advance
M117 PA 0.005
G1 X85.1606 Y89.22 E0.99515 F6000 ; Print pattern wall
G1 X63.9474 Y110.4332 E0.99515 F6000 ; Print pattern wall
G1 E-0.5 F2100 ; Retract
G1 Z0.75 F7200 ; Z hop
G0 X64.5231 Y68.0068 F7200 ; Move to start next pattern wall
G1 Z0.65 F7200 ; Z hop return
G1 E0.5 F2100 ; Un-retract
G1 X85.7363 Y89.22 E0.99515 F6000 ; Print pattern wall
G1 X64.5231 Y110.4332 E0.99515 F6000 ; Print pattern wall
G1 E-0.5 F2100 ; Retract
G1 Z0.75 F7200 ; Z hop
G0 X65.0988 Y68.0068 F7200 ; Move to start next pattern wall
G1 Z0.65 F7200 ; Z hop return
G1 E0.5 F2100 ; Un-retract
G1 X86.312 Y89.22 E0.99515 F6000 ; Print pattern wall
G1 X65.0988 Y110.4332 E0.99515 F6000 ; Print pattern wall
G1 E-0.5 F2100 ; Retract
G1 Z0.75 F7200 ; Z hop
G0 X67.5488 Y68.0068 F7200 ; Move to next pattern
G1 Z0.65 F7200 ; Z hop return
G1 E0.5 F2100 ; Un-retract
SET_PRESSURE_ADVANCE ADVANCE=0.01 ; Set pressure advance
M117 PA 0.01
G1 X88.762 Y89.22 E0.99515 F6000 ; Print pattern wall
G1 X67.5488 Y110.4332 E0.99515 F6000 ; Print pattern wall
G1 E-0.5 F2100 ; Retract
G1 Z0.75 F7200 ; Z hop
G0 X68.1245 Y68.0068 F7200 ; Move to start next pattern wall
G1 Z0.65 F7200 ; Z hop return
G1 E0.5 F2100 ; Un-retract
G1 X89.3377 Y89.22 E0.99515 F6000 ; Print pattern wall
G1 X68.1245 Y110.4332 E0.99515 F6000 ; Print pattern wall
G1 E-0.5 F2100 ; Retract
G1 Z0.75 F7200 ; Z hop
G0 X68.7002 Y68.0068 F7200 ; Move to start next pattern wall
G1 Z0.65 F7200 ; Z hop return
G1 E0.5 F2100 ; Un-retract
G1 X89.9134 Y89.22 E0.99515 F6000 ; Print pattern wall
G1 X68.7002 Y110.4332 E0.99515 F6000 ; Print pattern wall
G1 E-0.5 F2100 ; Retract
G1 Z0.75 F7200 ; Z hop
G0 X71.1502 Y68.0068 F7200 ; Move to next pattern
G1 Z0.65 F7200 ; Z hop return
G1 E0.5 F2100 ; Un-retract
SET_PRESSURE_ADVANCE ADVANCE=0.015 ; Set pressure advance
M117 PA 0.015
G1 X92.3634 Y89.22 E0.99515 F6000 ; Print pattern wall
G1 X71.1502 Y110.4332 E0.99515 F6000 ; Print pattern wall
G1 E-0.5 F2100 ; Retract
G1 Z0.75 F7200 ; Z hop
G0 X71.7259 Y68.0068 F7200 ; Move to start next pattern wall
G1 Z0.65 F7200 ; Z hop return
G1 E0.5 F2100 ; Un-retract
G1 X92.9391 Y89.22 E0.99515 F6000 ; Print pattern wall
G1 X71.7259 Y110.4332 E0.99515 F6000 ; Print pattern wall
G1 E-0.5 F2100 ; Retract
G1 Z0.75 F7200 ; Z hop
G0 X72.3016 Y68.0068 F7200 ; Move to start next pattern wall
G1 Z0.65 F7200 ; Z hop return
G1 E0.5 F2100 ; Un-retract
G1 X93.5148 Y89.22 E0.99515 F6000 ; Print pattern wall
G1 X72.3016 Y110.4332 E0.99515 F6000 ; Print pattern wall
G1 E-0.5 F2100 ; Retract
G1 Z0.75 F7200 ; Z hop
G0 X74.7516 Y68.0068 F7200 ; Move to next pattern
G1 Z0.65 F7200 ; Z hop return
G1 E0.5 F2100 ; Un-retract
SET_PRESSURE_ADVANCE ADVANCE=0.02 ; Set pressure advance
M117 PA 0.02
G1 X95.9648 Y89.22 E0.99515 F6000 ; Print pattern wall
G1 X74.7516 Y110.4332 E0.99515 F6000 ; Print pattern wall
G1 E-0.5 F2100 ; Retract
G1 Z0.75 F7200 ; Z hop
G0 X75.3273 Y68.0068 F7200 ; Move to start next pattern wall
G1 Z0.65 F7200 ; Z hop return
G1 E0.5 F2100 ; Un-retract
G1 X96.5405 Y89.22 E0.99515 F6000 ; Print pattern wall
G1 X75.3273 Y110.4332 E0.99515 F6000 ; Print pattern wall
G1 E-0.5 F2100 ; Retract
G1 Z0.75 F7200 ; Z hop
G0 X75.903 Y68.0068 F7200 ; Move to start next pattern wall
G1 Z0.65 F7200 ; Z hop return
G1 E0.5 F2100 ; Un-retract
G1 X97.1162 Y89.22 E0.99515 F6000 ; Print pattern wall
G1 X75.903 Y110.4332 E0.99515 F6000 ; Print pattern wall
G1 E-0.5 F2100 ; Retract
G1 Z0.75 F7200 ; Z hop
G0 X78.353 Y68.0068 F7200 ; Move to next pattern
G1 Z0.65 F7200 ; Z hop return
G1 E0.5 F2100 ; Un-retract
SET_PRESSURE_ADVANCE ADVANCE=0.025 ; Set pressure advance
M117 PA 0.025
G1 X99.5662 Y89.22 E0.99515 F6000 ; Print pattern wall
G1 X78.353 Y110.4332 E0.99515 F6000 ; Print pattern wall
G1 E-0.5 F2100 ; Retract
G1 Z0.75 F7200 ; Z hop
G0 X78.9287 Y68.0068 F7200 ; Move to start next pattern wall
G1 Z0.65 F7200 ; Z hop return
G1 E0.5 F2100 ; Un-retract
G1 X100.1419 Y89.22 E0.99515 F6000 ; Print pattern wall
G1 X78.9287 Y110.4332 E0.99515 F6000 ; Print pattern wall
G1 E-0.5 F2100 ; Retract
G1 Z0.75 F7200 ; Z hop
G0 X79.5044 Y68.0068 F7200 ; Move to start next pattern wall
G1 Z0.65 F7200 ; Z hop return
G1 E0.5 F2100 ; Un-retract
G1 X100.7176 Y89.22 E0.99515 F6000 ; Print pattern wall
G1 X79.5044 Y110.4332 E0.99515 F6000 ; Print pattern wall
G1 E-0.5 F2100 ; Retract
G1 Z0.75 F7200 ; Z hop
G0 X81.9544 Y68.0068 F7200 ; Move to next pattern
G1 Z0.65 F7200 ; Z hop return
G1 E0.5 F2100 ; Un-retract
SET_PRESSURE_ADVANCE ADVANCE=0.03 ; Set pressure advance
M117 PA 0.03
G1 X103.1676 Y89.22 E0.99515 F6000 ; Print pattern wall
G1 X81.9544 Y110.4332 E0.99515 F6000 ; Print pattern wall
G1 E-0.5 F2100 ; Retract
G1 Z0.75 F7200 ; Z hop
G0 X82.5301 Y68.0068 F7200 ; Move to start next pattern wall
G1 Z0.65 F7200 ; Z hop return
G1 E0.5 F2100 ; Un-retract
G1 X103.7433 Y89.22 E0.99515 F6000 ; Print pattern wall
G1 X82.5301 Y110.4332 E0.99515 F6000 ; Print pattern wall
G1 E-0.5 F2100 ; Retract
G1 Z0.75 F7200 ; Z hop
G0 X83.1058 Y68.0068 F7200 ; Move to start next pattern wall
G1 Z0.65 F7200 ; Z hop return
G1 E0.5 F2100 ; Un-retract
G1 X104.319 Y89.22 E0.99515 F6000 ; Print pattern wall
G1 X83.1058 Y110.4332 E0.99515 F6000 ; Print pattern wall
G1 E-0.5 F2100 ; Retract
G1 Z0.75 F7200 ; Z hop
G0 X85.5558 Y68.0068 F7200 ; Move to next pattern
G1 Z0.65 F7200 ; Z hop return
G1 E0.5 F2100 ; Un-retract
SET_PRESSURE_ADVANCE ADVANCE=0.035 ; Set pressure advance
M117 PA 0.035
G1 X106.769 Y89.22 E0.99515 F6000 ; Print pattern wall
G1 X85.5558 Y110.4332 E0.99515 F6000 ; Print pattern wall
G1 E-0.5 F2100 ; Retract
G1 Z0.75 F7200 ; Z hop
G0 X86.1315 Y68.0068 F7200 ; Move to start next pattern wall
G1 Z0.65 F7200 ; Z hop return
G1 E0.5 F2100 ; Un-retract
G1 X107.3447 Y89.22 E0.99515 F6000 ; Print pattern wall
G1 X86.1315 Y110.4332 E0.99515 F6000 ; Print pattern wall
G1 E-0.5 F2100 ; Retract
G1 Z0.75 F7200 ; Z hop
G0 X86.7072 Y68.0068 F7200 ; Move to start next pattern wall
G1 Z0.65 F7200 ; Z hop return
G1 E0.5 F2100 ; Un-retract
G1 X107.9204 Y89.22 E0.99515 F6000 ; Print pattern wall
G1 X86.7072 Y110.4332 E0.99515 F6000 ; Print pattern wall
G1 E-0.5 F2100 ; Retract
G1 Z0.75 F7200 ; Z hop
G0 X89.1572 Y68.0068 F7200 ; Move to next pattern
G1 Z0.65 F7200 ; Z hop return
G1 E0.5 F2100 ; Un-retract
SET_PRESSURE_ADVANCE ADVANCE=0.04 ; Set pressure advance
M117 PA 0.04
G1 X110.3704 Y89.22 E0.99515 F6000 ; Print pattern wall
G1 X89.1572 Y110.4332 E0.99515 F6000 ; Print pattern wall
G1 E-0.5 F2100 ; Retract
G1 Z0.75 F7200 ; Z hop
G0 X89.7329 Y68.0068 F7200 ; Move to start next pattern wall
G1 Z0.65 F7200 ; Z hop return
G1 E0.5 F2100 ; Un-retract
G1 X110.9461 Y89.22 E0.99515 F6000 ; Print pattern wall
G1 X89.7329 Y110.4332 E0.99515 F6000 ; Print pattern wall
G1 E-0.5 F2100 ; Retract
G1 Z0.75 F7200 ; Z hop
G0 X90.3086 Y68.0068 F7200 ; Move to start next pattern wall
G1 Z0.65 F7200 ; Z hop return
G1 E0.5 F2100 ; Un-retract
G1 X111.5218 Y89.22 E0.99515 F6000 ; Print pattern wall
G1 X90.3086 Y110.4332 E0.99515 F6000 ; Print pattern wall
G1 E-0.5 F2100 ; Retract
G1 Z0.75 F7200 ; Z hop
G0 X92.7586 Y68.0068 F7200 ; Move to next pattern
G1 Z0.65 F7200 ; Z hop return
G1 E0.5 F2100 ; Un-retract
SET_PRESSURE_ADVANCE ADVANCE=0.045 ; Set pressure advance
M117 PA 0.045
G1 X113.9718 Y89.22 E0.99515 F6000 ; Print pattern wall
G1 X92.7586 Y110.4332 E0.99515 F6000 ; Print pattern wall
G1 E-0.5 F2100 ; Retract
G1 Z0.75 F7200 ; Z hop
G0 X93.3343 Y68.0068 F7200 ; Move to start next pattern wall
G1 Z0.65 F7200 ; Z hop return
G1 E0.5 F2100 ; Un-retract
G1 X114.5475 Y89.22 E0.99515 F6000 ; Print pattern wall
G1 X93.3343 Y110.4332 E0.99515 F6000 ; Print pattern wall
G1 E-0.5 F2100 ; Retract
G1 Z0.75 F7200 ; Z hop
G0 X93.91 Y68.0068 F7200 ; Move to start next pattern wall
G1 Z0.65 F7200 ; Z hop return
G1 E0.5 F2100 ; Un-retract
G1 X115.1232 Y89.22 E0.99515 F6000 ; Print pattern wall
G1 X93.91 Y110.4332 E0.99515 F6000 ; Print pattern wall
G1 E-0.5 F2100 ; Retract
G1 Z0.75 F7200 ; Z hop
G0 X96.36 Y68.0068 F7200 ; Move to next pattern
G1 Z0.65 F7200 ; Z hop return
G1 E0.5 F2100 ; Un-retract
SET_PRESSURE_ADVANCE ADVANCE=0.05 ; Set pressure advance
M117 PA 0.05
G1 X117.5732 Y89.22 E0.99515 F6000 ; Print pattern wall
G1 X96.36 Y110.4332 E0.99515 F6000 ; Print pattern wall
G1 E-0.5 F2100 ; Retract
G1 Z0.75 F7200 ; Z hop
G0 X96.9357 Y68.0068 F7200 ; Move to start next pattern wall
G1 Z0.65 F7200 ; Z hop return
G1 E0.5 F2100 ; Un-retract
G1 X118.1489 Y89.22 E0.99515 F6000 ; Print pattern wall
G1 X96.9357 Y110.4332 E0.99515 F6000 ; Print pattern wall
G1 E-0.5 F2100 ; Retract
G1 Z0.75 F7200 ; Z hop
G0 X97.5113 Y68.0068 F7200 ; Move to start next pattern wall
G1 Z0.65 F7200 ; Z hop return
G1 E0.5 F2100 ; Un-retract
G1 X118.7246 Y89.22 E0.99515 F6000 ; Print pattern wall
G1 X97.5113 Y110.4332 E0.99515 F6000 ; Print pattern wall
G1 E-0.5 F2100 ; Retract
G1 Z0.75 F7200 ; Z hop
G0 X99.9613 Y68.0068 F7200 ; Move to next pattern
G1 Z0.65 F7200 ; Z hop return
G1 E0.5 F2100 ; Un-retract
SET_PRESSURE_ADVANCE ADVANCE=0.055 ; Set pressure advance
M117 PA 0.055
G1 X121.1746 Y89.22 E0.99515 F6000 ; Print pattern wall
G1 X99.9613 Y110.4332 E0.99515 F6000 ; Print pattern wall
G1 E-0.5 F2100 ; Retract
G1 Z0.75 F7200 ; Z hop
G0 X100.537 Y68.0068 F7200 ; Move to start next pattern wall
G1 Z0.65 F7200 ; Z hop return
G1 E0.5 F2100 ; Un-retract
G1 X121.7502 Y89.22 E0.99515 F6000 ; Print pattern wall
G1 X100.537 Y110.4332 E0.99515 F6000 ; Print pattern wall
G1 E-0.5 F2100 ; Retract
G1 Z0.75 F7200 ; Z hop
G0 X101.1127 Y68.0068 F7200 ; Move to start next pattern wall
G1 Z0.65 F7200 ; Z hop return
G1 E0.5 F2100 ; Un-retract
G1 X122.3259 Y89.22 E0.99515 F6000 ; Print pattern wall
G1 X101.1127 Y110.4332 E0.99515 F6000 ; Print pattern wall
G1 E-0.5 F2100 ; Retract
G1 Z0.75 F7200 ; Z hop
G0 X103.5627 Y68.0068 F7200 ; Move to next pattern
G1 Z0.65 F7200 ; Z hop return
G1 E0.5 F2100 ; Un-retract
SET_PRESSURE_ADVANCE ADVANCE=0.06 ; Set pressure advance
M117 PA 0.06
G1 X124.7759 Y89.22 E0.99515 F6000 ; Print pattern wall
G1 X103.5627 Y110.4332 E0.99515 F6000 ; Print pattern wall
G1 E-0.5 F2100 ; Retract
G1 Z0.75 F7200 ; Z hop
G0 X104.1384 Y68.0068 F7200 ; Move to start next pattern wall
G1 Z0.65 F7200 ; Z hop return
G1 E0.5 F2100 ; Un-retract
G1 X125.3516 Y89.22 E0.99515 F6000 ; Print pattern wall
G1 X104.1384 Y110.4332 E0.99515 F6000 ; Print pattern wall
G1 E-0.5 F2100 ; Retract
G1 Z0.75 F7200 ; Z hop
G0 X104.7141 Y68.0068 F7200 ; Move to start next pattern wall
G1 Z0.65 F7200 ; Z hop return
G1 E0.5 F2100 ; Un-retract
G1 X125.9273 Y89.22 E0.99515 F6000 ; Print pattern wall
G1 X104.7141 Y110.4332 E0.99515 F6000 ; Print pattern wall
G1 E-0.5 F2100 ; Retract
G1 Z0.75 F7200 ; Z hop
G0 X107.1641 Y68.0068 F7200 ; Move to next pattern
G1 Z0.65 F7200 ; Z hop return
G1 E0.5 F2100 ; Un-retract
SET_PRESSURE_ADVANCE ADVANCE=0.065 ; Set pressure advance
M117 PA 0.065
G1 X128.3773 Y89.22 E0.99515 F6000 ; Print pattern wall
G1 X107.1641 Y110.4332 E0.99515 F6000 ; Print pattern wall
G1 E-0.5 F2100 ; Retract
G1 Z0.75 F7200 ; Z hop
G0 X107.7398 Y68.0068 F7200 ; Move to start next pattern wall
G1 Z0.65 F7200 ; Z hop return
G1 E0.5 F2100 ; Un-retract
G1 X128.953 Y89.22 E0.99515 F6000 ; Print pattern wall
G1 X107.7398 Y110.4332 E0.99515 F6000 ; Print pattern wall
G1 E-0.5 F2100 ; Retract
G1 Z0.75 F7200 ; Z hop
G0 X108.3155 Y68.0068 F7200 ; Move to start next pattern wall
G1 Z0.65 F7200 ; Z hop return
G1 E0.5 F2100 ; Un-retract
G1 X129.5287 Y89.22 E0.99515 F6000 ; Print pattern wall
G1 X108.3155 Y110.4332 E0.99515 F6000 ; Print pattern wall
G1 E-0.5 F2100 ; Retract
G1 Z0.75 F7200 ; Z hop
G0 X110.7655 Y68.0068 F7200 ; Move to next pattern
G1 Z0.65 F7200 ; Z hop return
G1 E0.5 F2100 ; Un-retract
SET_PRESSURE_ADVANCE ADVANCE=0.07 ; Set pressure advance
M117 PA 0.07
G1 X131.9787 Y89.22 E0.99515 F6000 ; Print pattern wall
G1 X110.7655 Y110.4332 E0.99515 F6000 ; Print pattern wall
G1 E-0.5 F2100 ; Retract
G1 Z0.75 F7200 ; Z hop
G0 X111.3412 Y68.0068 F7200 ; Move to start next pattern wall
G1 Z0.65 F7200 ; Z hop return
G1 E0.5 F2100 ; Un-retract
G1 X132.5544 Y89.22 E0.99515 F6000 ; Print pattern wall
G1 X111.3412 Y110.4332 E0.99515 F6000 ; Print pattern wall
G1 E-0.5 F2100 ; Retract
G1 Z0.75 F7200 ; Z hop
G0 X111.9169 Y68.0068 F7200 ; Move to start next pattern wall
G1 Z0.65 F7200 ; Z hop return
G1 E0.5 F2100 ; Un-retract
G1 X133.1301 Y89.22 E0.99515 F6000 ; Print pattern wall
G1 X111.9169 Y110.4332 E0.99515 F6000 ; Print pattern wall
G1 E-0.5 F2100 ; Retract
G1 Z0.75 F7200 ; Z hop
G0 X114.3669 Y68.0068 F7200 ; Move to next pattern
G1 Z0.65 F7200 ; Z hop return
G1 E0.5 F2100 ; Un-retract
SET_PRESSURE_ADVANCE ADVANCE=0.075 ; Set pressure advance
M117 PA 0.075
G1 X135.5801 Y89.22 E0.99515 F6000 ; Print pattern wall
G1 X114.3669 Y110.4332 E0.99515 F6000 ; Print pattern wall
G1 E-0.5 F2100 ; Retract
G1 Z0.75 F7200 ; Z hop
G0 X114.9426 Y68.0068 F7200 ; Move to start next pattern wall
G1 Z0.65 F7200 ; Z hop return
G1 E0.5 F2100 ; Un-retract
G1 X136.1558 Y89.22 E0.99515 F6000 ; Print pattern wall
G1 X114.9426 Y110.4332 E0.99515 F6000 ; Print pattern wall
G1 E-0.5 F2100 ; Retract
G1 Z0.75 F7200 ; Z hop
G0 X115.5183 Y68.0068 F7200 ; Move to start next pattern wall
G1 Z0.65 F7200 ; Z hop return
G1 E0.5 F2100 ; Un-retract
G1 X136.7315 Y89.22 E0.99515 F6000 ; Print pattern wall
G1 X115.5183 Y110.4332 E0.99515 F6000 ; Print pattern wall
G1 E-0.5 F2100 ; Retract
G1 Z0.75 F7200 ; Z hop
G0 X117.9683 Y68.0068 F7200 ; Move to next pattern
G1 Z0.65 F7200 ; Z hop return
G1 E0.5 F2100 ; Un-retract
SET_PRESSURE_ADVANCE ADVANCE=0.08 ; Set pressure advance
M117 PA 0.08
G1 X139.1815 Y89.22 E0.99515 F6000 ; Print pattern wall
G1 X117.9683 Y110.4332 E0.99515 F6000 ; Print pattern wall
G1 E-0.5 F2100 ; Retract
G1 Z0.75 F7200 ; Z hop
G0 X118.544 Y68.0068 F7200 ; Move to start next pattern wall
G1 Z0.65 F7200 ; Z hop return
G1 E0.5 F2100 ; Un-retract
G1 X139.7572 Y89.22 E0.99515 F6000 ; Print pattern wall
G1 X118.544 Y110.4332 E0.99515 F6000 ; Print pattern wall
G1 E-0.5 F2100 ; Retract
G1 Z0.75 F7200 ; Z hop
G0 X119.1197 Y68.0068 F7200 ; Move to start next pattern wall
G1 Z0.65 F7200 ; Z hop return
G1 E0.5 F2100 ; Un-retract
G1 X140.3329 Y89.22 E0.99515 F6000 ; Print pattern wall
G1 X119.1197 Y110.4332 E0.99515 F6000 ; Print pattern wall
G1 E-0.5 F2100 ; Retract
G1 Z0.75 F7200 ; Z hop
G0 X60.346 Y68.0068 F7200 ; Move back to start position
G1 Z0.65 F7200 ; Z hop return
G1 E0.5 F2100 ; Un-retract
G0 Z0.85 F7200 ; Move to layer height
SET_PRESSURE_ADVANCE ADVANCE=0 ; Set pressure advance
M117 PA 0
G1 X81.5592 Y89.22 E0.99515 F6000 ; Print pattern wall
G1 X60.346 Y110.4332 E0.99515 F6000 ; Print pattern wall
G1 E-0.5 F2100 ; Retract
G1 Z0.95 F7200 ; Z hop
G0 X60.9217 Y68.0068 F7200 ; Move to start next pattern wall
G1 Z0.85 F7200 ; Z hop return
G1 E0.5 F2100 ; Un-retract
G1 X82.1349 Y89.22 E0.99515 F6000 ; Print pattern wall
G1 X60.9217 Y110.4332 E0.99515 F6000 ; Print pattern wall
G1 E-0.5 F2100 ; Retract
G1 Z0.95 F7200 ; Z hop
G0 X61.4974 Y68.0068 F7200 ; Move to start next pattern wall
G1 Z0.85 F7200 ; Z hop return
G1 E0.5 F2100 ; Un-retract
G1 X82.7106 Y89.22 E0.99515 F6000 ; Print pattern wall
G1 X61.4974 Y110.4332 E0.99515 F6000 ; Print pattern wall
G1 E-0.5 F2100 ; Retract
G1 Z0.95 F7200 ; Z hop
G0 X63.9474 Y68.0068 F7200 ; Move to next pattern
G1 Z0.85 F7200 ; Z hop return
G1 E0.5 F2100 ; Un-retract
SET_PRESSURE_ADVANCE ADVANCE=0.005 ; Set pressure advance
M117 PA 0.005
G1 X85.1606 Y89.22 E0.99515 F6000 ; Print pattern wall
G1 X63.9474 Y110.4332 E0.99515 F6000 ; Print pattern wall
G1 E-0.5 F2100 ; Retract
G1 Z0.95 F7200 ; Z hop
G0 X64.5231 Y68.0068 F7200 ; Move to start next pattern wall
G1 Z0.85 F7200 ; Z hop return
G1 E0.5 F2100 ; Un-retract
G1 X85.7363 Y89.22 E0.99515 F6000 ; Print pattern wall
G1 X64.5231 Y110.4332 E0.99515 F6000 ; Print pattern wall
G1 E-0.5 F2100 ; Retract
G1 Z0.95 F7200 ; Z hop
G0 X65.0988 Y68.0068 F7200 ; Move to start next pattern wall
G1 Z0.85 F7200 ; Z hop return
G1 E0.5 F2100 ; Un-retract
G1 X86.312 Y89.22 E0.99515 F6000 ; Print pattern wall
G1 X65.0988 Y110.4332 E0.99515 F6000 ; Print pattern wall
G1 E-0.5 F2100 ; Retract
G1 Z0.95 F7200 ; Z hop
G0 X67.5488 Y68.0068 F7200 ; Move to next pattern
G1 Z0.85 F7200 ; Z hop return
G1 E0.5 F2100 ; Un-retract
SET_PRESSURE_ADVANCE ADVANCE=0.01 ; Set pressure advance
M117 PA 0.01
G1 X88.762 Y89.22 E0.99515 F6000 ; Print pattern wall
G1 X67.5488 Y110.4332 E0.99515 F6000 ; Print pattern wall
G1 E-0.5 F2100 ; Retract
G1 Z0.95 F7200 ; Z hop
G0 X68.1245 Y68.0068 F7200 ; Move to start next pattern wall
G1 Z0.85 F7200 ; Z hop return
G1 E0.5 F2100 ; Un-retract
G1 X89.3377 Y89.22 E0.99515 F6000 ; Print pattern wall
G1 X68.1245 Y110.4332 E0.99515 F6000 ; Print pattern wall
G1 E-0.5 F2100 ; Retract
G1 Z0.95 F7200 ; Z hop
G0 X68.7002 Y68.0068 F7200 ; Move to start next pattern wall
G1 Z0.85 F7200 ; Z hop return
G1 E0.5 F2100 ; Un-retract
G1 X89.9134 Y89.22 E0.99515 F6000 ; Print pattern wall
G1 X68.7002 Y110.4332 E0.99515 F6000 ; Print pattern wall
G1 E-0.5 F2100 ; Retract
G1 Z0.95 F7200 ; Z hop
G0 X71.1502 Y68.0068 F7200 ; Move to next pattern
G1 Z0.85 F7200 ; Z hop return
G1 E0.5 F2100 ; Un-retract
SET_PRESSURE_ADVANCE ADVANCE=0.015 ; Set pressure advance
M117 PA 0.015
G1 X92.3634 Y89.22 E0.99515 F6000 ; Print pattern wall
G1 X71.1502 Y110.4332 E0.99515 F6000 ; Print pattern wall
G1 E-0.5 F2100 ; Retract
G1 Z0.95 F7200 ; Z hop
G0 X71.7259 Y68.0068 F7200 ; Move to start next pattern wall
G1 Z0.85 F7200 ; Z hop return
G1 E0.5 F2100 ; Un-retract
G1 X92.9391 Y89.22 E0.99515 F6000 ; Print pattern wall
G1 X71.7259 Y110.4332 E0.99515 F6000 ; Print pattern wall
G1 E-0.5 F2100 ; Retract
G1 Z0.95 F7200 ; Z hop
G0 X72.3016 Y68.0068 F7200 ; Move to start next pattern wall
G1 Z0.85 F7200 ; Z hop return
G1 E0.5 F2100 ; Un-retract
G1 X93.5148 Y89.22 E0.99515 F6000 ; Print pattern wall
G1 X72.3016 Y110.4332 E0.99515 F6000 ; Print pattern wall
G1 E-0.5 F2100 ; Retract
G1 Z0.95 F7200 ; Z hop
G0 X74.7516 Y68.0068 F7200 ; Move to next pattern
G1 Z0.85 F7200 ; Z hop return
G1 E0.5 F2100 ; Un-retract
SET_PRESSURE_ADVANCE ADVANCE=0.02 ; Set pressure advance
M117 PA 0.02
G1 X95.9648 Y89.22 E0.99515 F6000 ; Print pattern wall
G1 X74.7516 Y110.4332 E0.99515 F6000 ; Print pattern wall
G1 E-0.5 F2100 ; Retract
G1 Z0.95 F7200 ; Z hop
G0 X75.3273 Y68.0068 F7200 ; Move to start next pattern wall
G1 Z0.85 F7200 ; Z hop return
G1 E0.5 F2100 ; Un-retract
G1 X96.5405 Y89.22 E0.99515 F6000 ; Print pattern wall
G1 X75.3273 Y110.4332 E0.99515 F6000 ; Print pattern wall
G1 E-0.5 F2100 ; Retract
G1 Z0.95 F7200 ; Z hop
G0 X75.903 Y68.0068 F7200 ; Move to start next pattern wall
G1 Z0.85 F7200 ; Z hop return
G1 E0.5 F2100 ; Un-retract
G1 X97.1162 Y89.22 E0.99515 F6000 ; Print pattern wall
G1 X75.903 Y110.4332 E0.99515 F6000 ; Print pattern wall
G1 E-0.5 F2100 ; Retract
G1 Z0.95 F7200 ; Z hop
G0 X78.353 Y68.0068 F7200 ; Move to next pattern
G1 Z0.85 F7200 ; Z hop return
G1 E0.5 F2100 ; Un-retract
SET_PRESSURE_ADVANCE ADVANCE=0.025 ; Set pressure advance
M117 PA 0.025
G1 X99.5662 Y89.22 E0.99515 F6000 ; Print pattern wall
G1 X78.353 Y110.4332 E0.99515 F6000 ; Print pattern wall
G1 E-0.5 F2100 ; Retract
G1 Z0.95 F7200 ; Z hop
G0 X78.9287 Y68.0068 F7200 ; Move to start next pattern wall
G1 Z0.85 F7200 ; Z hop return
G1 E0.5 F2100 ; Un-retract
G1 X100.1419 Y89.22 E0.99515 F6000 ; Print pattern wall
G1 X78.9287 Y110.4332 E0.99515 F6000 ; Print pattern wall
G1 E-0.5 F2100 ; Retract
G1 Z0.95 F7200 ; Z hop
G0 X79.5044 Y68.0068 F7200 ; Move to start next pattern wall
G1 Z0.85 F7200 ; Z hop return
G1 E0.5 F2100 ; Un-retract
G1 X100.7176 Y89.22 E0.99515 F6000 ; Print pattern wall
G1 X79.5044 Y110.4332 E0.99515 F6000 ; Print pattern wall
G1 E-0.5 F2100 ; Retract
G1 Z0.95 F7200 ; Z hop
G0 X81.9544 Y68.0068 F7200 ; Move to next pattern
G1 Z0.85 F7200 ; Z hop return
G1 E0.5 F2100 ; Un-retract
SET_PRESSURE_ADVANCE ADVANCE=0.03 ; Set pressure advance
M117 PA 0.03
G1 X103.1676 Y89.22 E0.99515 F6000 ; Print pattern wall
G1 X81.9544 Y110.4332 E0.99515 F6000 ; Print pattern wall
G1 E-0.5 F2100 ; Retract
G1 Z0.95 F7200 ; Z hop
G0 X82.5301 Y68.0068 F7200 ; Move to start next pattern wall
G1 Z0.85 F7200 ; Z hop return
G1 E0.5 F2100 ; Un-retract
G1 X103.7433 Y89.22 E0.99515 F6000 ; Print pattern wall
G1 X82.5301 Y110.4332 E0.99515 F6000 ; Print pattern wall
G1 E-0.5 F2100 ; Retract
G1 Z0.95 F7200 ; Z hop
G0 X83.1058 Y68.0068 F7200 ; Move to start next pattern wall
G1 Z0.85 F7200 ; Z hop return
G1 E0.5 F2100 ; Un-retract
G1 X104.319 Y89.22 E0.99515 F6000 ; Print pattern wall
G1 X83.1058 Y110.4332 E0.99515 F6000 ; Print pattern wall
G1 E-0.5 F2100 ; Retract
G1 Z0.95 F7200 ; Z hop
G0 X85.5558 Y68.0068 F7200 ; Move to next pattern
G1 Z0.85 F7200 ; Z hop return
G1 E0.5 F2100 ; Un-retract
SET_PRESSURE_ADVANCE ADVANCE=0.035 ; Set pressure advance
M117 PA 0.035
G1 X106.769 Y89.22 E0.99515 F6000 ; Print pattern wall
G1 X85.5558 Y110.4332 E0.99515 F6000 ; Print pattern wall
G1 E-0.5 F2100 ; Retract
G1 Z0.95 F7200 ; Z hop
G0 X86.1315 Y68.0068 F7200 ; Move to start next pattern wall
G1 Z0.85 F7200 ; Z hop return
G1 E0.5 F2100 ; Un-retract
G1 X107.3447 Y89.22 E0.99515 F6000 ; Print pattern wall
G1 X86.1315 Y110.4332 E0.99515 F6000 ; Print pattern wall
G1 E-0.5 F2100 ; Retract
G1 Z0.95 F7200 ; Z hop
G0 X86.7072 Y68.0068 F7200 ; Move to start next pattern wall
G1 Z0.85 F7200 ; Z hop return
G1 E0.5 F2100 ; Un-retract
G1 X107.9204 Y89.22 E0.99515 F6000 ; Print pattern wall
G1 X86.7072 Y110.4332 E0.99515 F6000 ; Print pattern wall
G1 E-0.5 F2100 ; Retract
G1 Z0.95 F7200 ; Z hop
G0 X89.1572 Y68.0068 F7200 ; Move to next pattern
G1 Z0.85 F7200 ; Z hop return
G1 E0.5 F2100 ; Un-retract
SET_PRESSURE_ADVANCE ADVANCE=0.04 ; Set pressure advance
M117 PA 0.04
G1 X110.3704 Y89.22 E0.99515 F6000 ; Print pattern wall
G1 X89.1572 Y110.4332 E0.99515 F6000 ; Print pattern wall
G1 E-0.5 F2100 ; Retract
G1 Z0.95 F7200 ; Z hop
G0 X89.7329 Y68.0068 F7200 ; Move to start next pattern wall
G1 Z0.85 F7200 ; Z hop return
G1 E0.5 F2100 ; Un-retract
G1 X110.9461 Y89.22 E0.99515 F6000 ; Print pattern wall
G1 X89.7329 Y110.4332 E0.99515 F6000 ; Print pattern wall
G1 E-0.5 F2100 ; Retract
G1 Z0.95 F7200 ; Z hop
G0 X90.3086 Y68.0068 F7200 ; Move to start next pattern wall
G1 Z0.85 F7200 ; Z hop return
G1 E0.5 F2100 ; Un-retract
G1 X111.5218 Y89.22 E0.99515 F6000 ; Print pattern wall
G1 X90.3086 Y110.4332 E0.99515 F6000 ; Print pattern wall
G1 E-0.5 F2100 ; Retract
G1 Z0.95 F7200 ; Z hop
G0 X92.7586 Y68.0068 F7200 ; Move to next pattern
G1 Z0.85 F7200 ; Z hop return
G1 E0.5 F2100 ; Un-retract
SET_PRESSURE_ADVANCE ADVANCE=0.045 ; Set pressure advance
M117 PA 0.045
G1 X113.9718 Y89.22 E0.99515 F6000 ; Print pattern wall
G1 X92.7586 Y110.4332 E0.99515 F6000 ; Print pattern wall
G1 E-0.5 F2100 ; Retract
G1 Z0.95 F7200 ; Z hop
G0 X93.3343 Y68.0068 F7200 ; Move to start next pattern wall
G1 Z0.85 F7200 ; Z hop return
G1 E0.5 F2100 ; Un-retract
G1 X114.5475 Y89.22 E0.99515 F6000 ; Print pattern wall
G1 X93.3343 Y110.4332 E0.99515 F6000 ; Print pattern wall
G1 E-0.5 F2100 ; Retract
G1 Z0.95 F7200 ; Z hop
G0 X93.91 Y68.0068 F7200 ; Move to start next pattern wall
G1 Z0.85 F7200 ; Z hop return
G1 E0.5 F2100 ; Un-retract
G1 X115.1232 Y89.22 E0.99515 F6000 ; Print pattern wall
G1 X93.91 Y110.4332 E0.99515 F6000 ; Print pattern wall
G1 E-0.5 F2100 ; Retract
G1 Z0.95 F7200 ; Z hop
G0 X96.36 Y68.0068 F7200 ; Move to next pattern
G1 Z0.85 F7200 ; Z hop return
G1 E0.5 F2100 ; Un-retract
SET_PRESSURE_ADVANCE ADVANCE=0.05 ; Set pressure advance
M117 PA 0.05
G1 X117.5732 Y89.22 E0.99515 F6000 ; Print pattern wall
G1 X96.36 Y110.4332 E0.99515 F6000 ; Print pattern wall
G1 E-0.5 F2100 ; Retract
G1 Z0.95 F7200 ; Z hop
G0 X96.9357 Y68.0068 F7200 ; Move to start next pattern wall
G1 Z0.85 F7200 ; Z hop return
G1 E0.5 F2100 ; Un-retract
G1 X118.1489 Y89.22 E0.99515 F6000 ; Print pattern wall
G1 X96.9357 Y110.4332 E0.99515 F6000 ; Print pattern wall
G1 E-0.5 F2100 ; Retract
G1 Z0.95 F7200 ; Z hop
G0 X97.5113 Y68.0068 F7200 ; Move to start next pattern wall
G1 Z0.85 F7200 ; Z hop return
G1 E0.5 F2100 ; Un-retract
G1 X118.7246 Y89.22 E0.99515 F6000 ; Print pattern wall
G1 X97.5113 Y110.4332 E0.99515 F6000 ; Print pattern wall
G1 E-0.5 F2100 ; Retract
G1 Z0.95 F7200 ; Z hop
G0 X99.9613 Y68.0068 F7200 ; Move to next pattern
G1 Z0.85 F7200 ; Z hop return
G1 E0.5 F2100 ; Un-retract
SET_PRESSURE_ADVANCE ADVANCE=0.055 ; Set pressure advance
M117 PA 0.055
G1 X121.1746 Y89.22 E0.99515 F6000 ; Print pattern wall
G1 X99.9613 Y110.4332 E0.99515 F6000 ; Print pattern wall
G1 E-0.5 F2100 ; Retract
G1 Z0.95 F7200 ; Z hop
G0 X100.537 Y68.0068 F7200 ; Move to start next pattern wall
G1 Z0.85 F7200 ; Z hop return
G1 E0.5 F2100 ; Un-retract
G1 X121.7502 Y89.22 E0.99515 F6000 ; Print pattern wall
G1 X100.537 Y110.4332 E0.99515 F6000 ; Print pattern wall
G1 E-0.5 F2100 ; Retract
G1 Z0.95 F7200 ; Z hop
G0 X101.1127 Y68.0068 F7200 ; Move to start next pattern wall
G1 Z0.85 F7200 ; Z hop return
G1 E0.5 F2100 ; Un-retract
G1 X122.3259 Y89.22 E0.99515 F6000 ; Print pattern wall
G1 X101.1127 Y110.4332 E0.99515 F6000 ; Print pattern wall
G1 E-0.5 F2100 ; Retract
G1 Z0.95 F7200 ; Z hop
G0 X103.5627 Y68.0068 F7200 ; Move to next pattern
G1 Z0.85 F7200 ; Z hop return
G1 E0.5 F2100 ; Un-retract
SET_PRESSURE_ADVANCE ADVANCE=0.06 ; Set pressure advance
M117 PA 0.06
G1 X124.7759 Y89.22 E0.99515 F6000 ; Print pattern wall
G1 X103.5627 Y110.4332 E0.99515 F6000 ; Print pattern wall
G1 E-0.5 F2100 ; Retract
G1 Z0.95 F7200 ; Z hop
G0 X104.1384 Y68.0068 F7200 ; Move to start next pattern wall
G1 Z0.85 F7200 ; Z hop return
G1 E0.5 F2100 ; Un-retract
G1 X125.3516 Y89.22 E0.99515 F6000 ; Print pattern wall
G1 X104.1384 Y110.4332 E0.99515 F6000 ; Print pattern wall
G1 E-0.5 F2100 ; Retract
G1 Z0.95 F7200 ; Z hop
G0 X104.7141 Y68.0068 F7200 ; Move to start next pattern wall
G1 Z0.85 F7200 ; Z hop return
G1 E0.5 F2100 ; Un-retract
G1 X125.9273 Y89.22 E0.99515 F6000 ; Print pattern wall
G1 X104.7141 Y110.4332 E0.99515 F6000 ; Print pattern wall
G1 E-0.5 F2100 ; Retract
G1 Z0.95 F7200 ; Z hop
G0 X107.1641 Y68.0068 F7200 ; Move to next pattern
G1 Z0.85 F7200 ; Z hop return
G1 E0.5 F2100 ; Un-retract
SET_PRESSURE_ADVANCE ADVANCE=0.065 ; Set pressure advance
M117 PA 0.065
G1 X128.3773 Y89.22 E0.99515 F6000 ; Print pattern wall
G1 X107.1641 Y110.4332 E0.99515 F6000 ; Print pattern wall
G1 E-0.5 F2100 ; Retract
G1 Z0.95 F7200 ; Z hop
G0 X107.7398 Y68.0068 F7200 ; Move to start next pattern wall
G1 Z0.85 F7200 ; Z hop return
G1 E0.5 F2100 ; Un-retract
G1 X128.953 Y89.22 E0.99515 F6000 ; Print pattern wall
G1 X107.7398 Y110.4332 E0.99515 F6000 ; Print pattern wall
G1 E-0.5 F2100 ; Retract
G1 Z0.95 F7200 ; Z hop
G0 X108.3155 Y68.0068 F7200 ; Move to start next pattern wall
G1 Z0.85 F7200 ; Z hop return
G1 E0.5 F2100 ; Un-retract
G1 X129.5287 Y89.22 E0.99515 F6000 ; Print pattern wall
G1 X108.3155 Y110.4332 E0.99515 F6000 ; Print pattern wall
G1 E-0.5 F2100 ; Retract
G1 Z0.95 F7200 ; Z hop
G0 X110.7655 Y68.0068 F7200 ; Move to next pattern
G1 Z0.85 F7200 ; Z hop return
G1 E0.5 F2100 ; Un-retract
SET_PRESSURE_ADVANCE ADVANCE=0.07 ; Set pressure advance
M117 PA 0.07
G1 X131.9787 Y89.22 E0.99515 F6000 ; Print pattern wall
G1 X110.7655 Y110.4332 E0.99515 F6000 ; Print pattern wall
G1 E-0.5 F2100 ; Retract
G1 Z0.95 F7200 ; Z hop
G0 X111.3412 Y68.0068 F7200 ; Move to start next pattern wall
G1 Z0.85 F7200 ; Z hop return
G1 E0.5 F2100 ; Un-retract
G1 X132.5544 Y89.22 E0.99515 F6000 ; Print pattern wall
G1 X111.3412 Y110.4332 E0.99515 F6000 ; Print pattern wall
G1 E-0.5 F2100 ; Retract
G1 Z0.95 F7200 ; Z hop
G0 X111.9169 Y68.0068 F7200 ; Move to start next pattern wall
G1 Z0.85 F7200 ; Z hop return
G1 E0.5 F2100 ; Un-retract
G1 X133.1301 Y89.22 E0.99515 F6000 ; Print pattern wall
G1 X111.9169 Y110.4332 E0.99515 F6000 ; Print pattern wall
G1 E-0.5 F2100 ; Retract
G1 Z0.95 F7200 ; Z hop
G0 X114.3669 Y68.0068 F7200 ; Move to next pattern
G1 Z0.85 F7200 ; Z hop return
G1 E0.5 F2100 ; Un-retract
SET_PRESSURE_ADVANCE ADVANCE=0.075 ; Set pressure advance
M117 PA 0.075
G1 X135.5801 Y89.22 E0.99515 F6000 ; Print pattern wall
G1 X114.3669 Y110.4332 E0.99515 F6000 ; Print pattern wall
G1 E-0.5 F2100 ; Retract
G1 Z0.95 F7200 ; Z hop
G0 X114.9426 Y68.0068 F7200 ; Move to start next pattern wall
G1 Z0.85 F7200 ; Z hop return
G1 E0.5 F2100 ; Un-retract
G1 X136.1558 Y89.22 E0.99515 F6000 ; Print pattern wall
G1 X114.9426 Y110.4332 E0.99515 F6000 ; Print pattern wall
G1 E-0.5 F2100 ; Retract
G1 Z0.95 F7200 ; Z hop
G0 X115.5183 Y68.0068 F7200 ; Move to start next pattern wall
G1 Z0.85 F7200 ; Z hop return
G1 E0.5 F2100 ; Un-retract
G1 X136.7315 Y89.22 E0.99515 F6000 ; Print pattern wall
G1 X115.5183 Y110.4332 E0.99515 F6000 ; Print pattern wall
G1 E-0.5 F2100 ; Retract
G1 Z0.95 F7200 ; Z hop
G0 X117.9683 Y68.0068 F7200 ; Move to next pattern
G1 Z0.85 F7200 ; Z hop return
G1 E0.5 F2100 ; Un-retract
SET_PRESSURE_ADVANCE ADVANCE=0.08 ; Set pressure advance
M117 PA 0.08
G1 X139.1815 Y89.22 E0.99515 F6000 ; Print pattern wall
G1 X117.9683 Y110.4332 E0.99515 F6000 ; Print pattern wall
G1 E-0.5 F2100 ; Retract
G1 Z0.95 F7200 ; Z hop
G0 X118.544 Y68.0068 F7200 ; Move to start next pattern wall
G1 Z0.85 F7200 ; Z hop return
G1 E0.5 F2100 ; Un-retract
G1 X139.7572 Y89.22 E0.99515 F6000 ; Print pattern wall
G1 X118.544 Y110.4332 E0.99515 F6000 ; Print pattern wall
G1 E-0.5 F2100 ; Retract
G1 Z0.95 F7200 ; Z hop
G0 X119.1197 Y68.0068 F7200 ; Move to start next pattern wall
G1 Z0.85 F7200 ; Z hop return
G1 E0.5 F2100 ; Un-retract
G1 X140.3329 Y89.22 E0.99515 F6000 ; Print pattern wall
G1 X119.1197 Y110.4332 E0.99515 F6000 ; Print pattern wall
SET_PRESSURE_ADVANCE ADVANCE=0 ; Set pressure advance back to start value
M117 PA 0
G1 E-0.5 F2100 ; Retract
G1 Z0.95 F7200 ; Z hop
G0 Z5.85 F7200 ; Z raise
M104 S0 ; Turn off hotend
M140 S0 ; Turn off bed
M107    ; Turn off fan
;
; End G-code
;
PRINT_END ; End macro. Change name to match yours
;
; FINISH
;
