; generated by PrusaSlicer 2.6.1+win64 on 2023-10-22 at 18:35:23 UTC

; 

; external perimeters extrusion width = 0.45mm
; perimeters extrusion width = 0.45mm
; infill extrusion width = 0.45mm
; solid infill extrusion width = 0.45mm
; top infill extrusion width = 0.40mm
; first layer extrusion width = 0.42mm

; external perimeters extrusion width = 0.45mm
; perimeters extrusion width = 0.45mm
; infill extrusion width = 0.45mm
; solid infill extrusion width = 0.45mm
; top infill extrusion width = 0.40mm
; first layer extrusion width = 0.42mm

; external perimeters extrusion width = 0.45mm
; perimeters extrusion width = 0.45mm
; infill extrusion width = 0.45mm
; solid infill extrusion width = 0.45mm
; top infill extrusion width = 0.40mm
; first layer extrusion width = 0.42mm

; external perimeters extrusion width = 0.45mm
; perimeters extrusion width = 0.45mm
; infill extrusion width = 0.45mm
; solid infill extrusion width = 0.45mm
; top infill extrusion width = 0.40mm
; first layer extrusion width = 0.42mm

; external perimeters extrusion width = 0.45mm
; perimeters extrusion width = 0.45mm
; infill extrusion width = 0.45mm
; solid infill extrusion width = 0.45mm
; top infill extrusion width = 0.40mm
; first layer extrusion width = 0.42mm

; external perimeters extrusion width = 0.45mm
; perimeters extrusion width = 0.45mm
; infill extrusion width = 0.45mm
; solid infill extrusion width = 0.45mm
; top infill extrusion width = 0.40mm
; first layer extrusion width = 0.42mm

; external perimeters extrusion width = 0.45mm
; perimeters extrusion width = 0.45mm
; infill extrusion width = 0.45mm
; solid infill extrusion width = 0.45mm
; top infill extrusion width = 0.40mm
; first layer extrusion width = 0.42mm

; external perimeters extrusion width = 0.45mm
; perimeters extrusion width = 0.45mm
; infill extrusion width = 0.45mm
; solid infill extrusion width = 0.45mm
; top infill extrusion width = 0.40mm
; first layer extrusion width = 0.42mm

M190 S60 ; set bed temperature and wait for it to be reached


; Pre-Processed for Cancel-Object support by preprocess_cancellation v0.2.0
; 8 known objects
EXCLUDE_OBJECT_DEFINE NAME=GuideRing_v1_2_22mm_STL_id_7_copy_0 CENTER=140.855,123.468 POLYGON=[[128.931,109.923],[128.931,136.862],[152.094,136.862],[152.094,109.923]]
EXCLUDE_OBJECT_DEFINE NAME=GuideRing_v1_2_21mm_STL_id_6_copy_0 CENTER=114.073,124.515 POLYGON=[[102.764,111.186],[102.764,137.142],[124.941,137.142],[124.941,111.186]]
EXCLUDE_OBJECT_DEFINE NAME=GuideRing_v1_2_19mm_STL_id_5_copy_0 CENTER=88.282,123.397 POLYGON=[[78.136,111.798],[78.136,135.759],[98.311,135.759],[98.311,111.798]]
EXCLUDE_OBJECT_DEFINE NAME=GuideRing_v1_2_18mm_STL_id_4_copy_0 CENTER=63.755,124.406 POLYGON=[[54.296,113.134],[54.296,136.095],[73.46,136.095],[73.46,113.134]]
EXCLUDE_OBJECT_DEFINE NAME=EndRing_v1_2_13mm_STL_id_0_copy_0 CENTER=64.340,93.800 POLYGON=[[56.204,82.957],[56.204,102.311],[71.749,102.311],[71.749,82.957]]
EXCLUDE_OBJECT_DEFINE NAME=EndRing_v1_2_15mm_STL_id_1_copy_0 CENTER=88.574,94.566 POLYGON=[[79.487,82.543],[79.487,103.896],[97.026,103.896],[97.026,82.543]]
EXCLUDE_OBJECT_DEFINE NAME=EndRing_v1_2_16mm_STL_id_2_copy_0 CENTER=113.942,95.145 POLYGON=[[104.256,82.535],[104.256,104.888],[122.803,104.888],[122.803,82.535]]
EXCLUDE_OBJECT_DEFINE NAME=EndRing_v1_2_18mm_STL_id_3_copy_0 CENTER=139.432,92.759 POLYGON=[[128.767,78.828],[128.767,103.181],[149.304,103.181],[149.304,78.828]]
M104 S200 ; set temperature
;TYPE:Custom
START_PRINT
M109 S200 ; set temperature and wait for it to be reached
G21 ; set units to millimeters
G90 ; use absolute coordinates
M82 ; use absolute distances for extrusion
G92 E0
; Filament gcode
M107
;LAYER_CHANGE
;Z:0.3
;HEIGHT:0.3
G1 Z.3 F7800
G1 E-2 F2400
G92 E0
G1 X55.319 Y79.331 F7800
G1 E2 F2400
;TYPE:Skirt/Brim
;WIDTH:0.42
G1 F1800
G1 X56.734 Y78.344 E2.07652
G1 X58.926 Y77.301 E2.18419
G1 X60.484 Y76.813 E2.25661
G1 X62.742 Y76.435 E2.35816
G1 X139.384 Y72.256 E5.76265
G1 X141.226 Y72.396 E5.84459
G1 X142.362 Y72.584 E5.89566
G1 X144.81 Y73.273 E6.00846
G1 X145.878 Y73.704 E6.05954
G1 X147.523 Y74.546 E6.14151
G1 X149.065 Y75.563 E6.22344
G1 X150.488 Y76.743 E6.30543
G1 X152.217 Y78.607 E6.4182
G1 X153.287 Y80.113 E6.50014
G1 X153.868 Y81.108 E6.55125
G1 X154.654 Y82.78 E6.6332
G1 X155.252 Y84.528 E6.71514
G1 X155.756 Y87.02 E6.82791
G1 X158.631 Y121.052 E8.34277
G1 X158.656 Y122.438 E8.40426
G1 X158.521 Y124.305 E8.48729
G1 X158.297 Y125.673 E8.54878
G1 X157.97 Y127.02 E8.61026
G1 X157.208 Y129.176 E8.71169
G1 X156.617 Y130.429 E8.77314
G1 X150.778 Y140.31 E9.28221
G1 X149.308 Y142.009 E9.38186
G1 X147.339 Y143.089 E9.48147
G1 X145.381 Y143.42 E9.56955
G1 X118.719 Y143.701 E10.7522
G1 X109.052 Y143.701 E11.18098
G1 X58.944 Y142.653 E13.404
G1 X56.742 Y142.21 E13.50363
G1 X54.831 Y141.028 E13.6033
G1 X53.303 Y138.954 E13.71756
G1 X48.808 Y129.097 E14.19808
G1 X48.407 Y127.922 E14.25315
G1 X48.001 Y126.24 E14.3299
G1 X47.822 Y125.012 E14.38494
G1 X47.733 Y123.02 E14.47338
G1 X49.634 Y90.196 E15.93172
G1 X49.801 Y88.502 E16.00722
G1 X50.394 Y86.103 E16.11683
G1 X50.989 Y84.631 E16.18725
G1 X51.742 Y83.233 E16.25768
G1 X53.091 Y81.382 E16.35927
G1 X54.856 Y79.653 E16.46886
G1 X55.27 Y79.365 E16.49123
; printing object GuideRing_v1.2_22mm.STL id:7 copy 0
EXCLUDE_OBJECT_START NAME=GuideRing_v1_2_22mm_STL_id_7_copy_0
G1 E14.49123 F2400
G92 E0
G1 X136.197 Y133.173 F7800
G1 E2 F2400
;TYPE:Perimeter
;WIDTH:0.52672
G1 F1800
G1 X136.805 Y133.399 E2.0374
G1 X137.874 Y133.694 E2.10135
G1 X137.395 Y133.713 E2.12899
G1 X136.83 Y133.805 E2.162
G1 X136.473 Y133.94 E2.18401
G1 X136.463 Y133.655 E2.20045
G1 X136.226 Y133.226 E2.22871
G1 E.22871 F2400
G92 E0
G1 X143.091 Y133.703 F7800
G1 E2 F2400
;WIDTH:0.526727
G1 F1800
G1 X144.223 Y133.399 E2.06759
G1 X144.831 Y133.173 E2.10499
G1 X144.565 Y133.655 E2.13674
G1 X144.566 Y133.93 E2.1526
G1 X144.197 Y133.805 E2.17507
G1 X143.624 Y133.712 E2.20855
G1 X143.151 Y133.704 E2.23583
G1 E.23583 F2400
G92 E0
G1 X142.24 Y110.979 F7800
G1 E2 F2400
;TYPE:External perimeter
;WIDTH:0.421639
G1 F1800
G1 X143.069 Y111.141 E2.03764
;WIDTH:0.422163
G1 X143.895 Y111.368 E2.07587
;WIDTH:0.422662
G1 X144.701 Y111.658 E2.11415
;WIDTH:0.423135
G1 X145.483 Y112.009 E2.1525
;WIDTH:0.423584
G1 X146.235 Y112.418 E2.19085
;WIDTH:0.424013
G1 X146.954 Y112.883 E2.22926
;WIDTH:0.424412
G1 X147.636 Y113.402 E2.26774
;WIDTH:0.424792
G1 X148.276 Y113.971 E2.30624
;WIDTH:0.425146
G1 X148.871 Y114.587 E2.34478
;WIDTH:0.425475
G1 X149.417 Y115.247 E2.38336
;WIDTH:0.42573
G1 X149.911 Y115.946 E2.42194
;WIDTH:0.425889
G1 X150.35 Y116.681 E2.46054
;WIDTH:0.426319
G1 X150.732 Y117.448 E2.49922
;WIDTH:0.426551
G1 X151.054 Y118.241 E2.53788
G1 X151.315 Y119.056 E2.57654
G1 X151.513 Y119.889 E2.61522
;WIDTH:0.426895
G1 X151.647 Y120.735 E2.65395
G1 X151.716 Y121.588 E2.69264
;WIDTH:0.42676
G1 X151.72 Y122.445 E2.73138
;WIDTH:0.426556
G1 X151.696 Y122.952 E2.75431
;WIDTH:0.41843
G1 X151.594 Y123.813 E2.7926
;WIDTH:0.418258
G1 X151.423 Y124.677 E2.83147
G1 X151.184 Y125.525 E2.87036
G1 X150.88 Y126.351 E2.90921
G1 X150.512 Y127.151 E2.94808
G1 X150.082 Y127.92 E2.98697
G1 X149.594 Y128.653 E3.02584
;WIDTH:0.418424
G1 X149.049 Y129.345 E3.06474
G1 X148.452 Y129.993 E3.10365
;WIDTH:0.417843
G1 X147.817 Y130.599 E3.14235
;WIDTH:0.418476
G1 X147.158 Y131.178 E3.18109
;WIDTH:0.419444
G1 X146.47 Y131.734 E3.22026
;WIDTH:0.437345
G1 X145.751 Y132.271 E3.26201
G1 X144.936 Y132.696 E3.30477
;WIDTH:0.42
G1 X144.352 Y132.915 E3.33243
G1 X143.595 Y133.153 E3.36763
;WIDTH:0.462306
G1 X142.601 Y133.405 E3.41852
;WIDTH:0.499935
G1 X142.506 Y133.443 E3.42408
;WIDTH:0.537564
G1 X142.412 Y133.481 E3.43006
;WIDTH:0.575193
G1 X142.318 Y133.518 E3.4365
G1 X141.874 Y133.558 E3.4649
;WIDTH:0.548987
G1 X141.43 Y133.597 E3.49184
;WIDTH:0.522781
G1 X140.522 Y133.624 E3.54378
;WIDTH:0.521565
G1 X139.615 Y133.598 E3.59552
;WIDTH:0.548575
G1 X139.162 Y133.558 E3.62298
;WIDTH:0.575586
G1 X138.71 Y133.519 E3.65191
G1 X138.526 Y133.462 E3.66419
;WIDTH:0.536689
G1 X138.341 Y133.406 E3.67558
;WIDTH:0.497793
G1 X138.157 Y133.35 E3.68598
;WIDTH:0.458896
G1 X137.973 Y133.293 E3.69546
;WIDTH:0.42
G1 X136.948 Y133.016 E3.74255
G1 X136.113 Y132.706 E3.78206
;WIDTH:0.424069
G1 X135.579 Y132.426 E3.80911
;WIDTH:0.437411
G1 X135.276 Y132.271 E3.82494
G1 X134.564 Y131.74 E3.86626
;WIDTH:0.42228
G1 X134.041 Y131.319 E3.89623
G1 X133.348 Y130.722 E3.93706
;WIDTH:0.421244
G1 X132.684 Y130.099 E3.97759
;WIDTH:0.423571
G1 X132.091 Y129.472 E4.01625
;WIDTH:0.42401
G1 X131.551 Y128.807 E4.05467
;WIDTH:0.424415
G1 X131.063 Y128.103 E4.09314
;WIDTH:0.42479
G1 X130.63 Y127.364 E4.13164
;WIDTH:0.425146
G1 X130.255 Y126.594 E4.17018
;WIDTH:0.425477
G1 X129.94 Y125.798 E4.20874
;WIDTH:0.425781
G1 X129.686 Y124.98 E4.24735
;WIDTH:0.426066
G1 X129.495 Y124.146 E4.28595
;WIDTH:0.42632
G1 X129.369 Y123.299 E4.32461
;WIDTH:0.426555
G1 X129.307 Y122.445 E4.36329
;WIDTH:0.426764
G1 X129.311 Y121.588 E4.40203
;WIDTH:0.426899
G1 X129.38 Y120.735 E4.44072
G1 X129.514 Y119.889 E4.47945
G1 X129.712 Y119.056 E4.51816
;WIDTH:0.426764
G1 X129.973 Y118.241 E4.55684
;WIDTH:0.426557
G1 X130.153 Y117.766 E4.57979
;WIDTH:0.418428
G1 X130.516 Y116.979 E4.61806
;WIDTH:0.418238
G1 X130.946 Y116.21 E4.65695
G1 X131.435 Y115.477 E4.69584
G1 X131.979 Y114.785 E4.73469
G1 X132.577 Y114.138 E4.77357
G1 X133.223 Y113.539 E4.81245
G1 X133.914 Y112.993 E4.85132
;WIDTH:0.418427
G1 X134.646 Y112.503 E4.89022
;WIDTH:0.41856
G1 X135.414 Y112.072 E4.92912
;WIDTH:0.418718
G1 X136.214 Y111.702 E4.96807
;WIDTH:0.418906
G1 X137.04 Y111.397 E5.007
;WIDTH:0.419119
G1 X137.888 Y111.157 E5.04599
;WIDTH:0.41936
G1 X138.751 Y110.984 E5.08496
;WIDTH:0.419628
G1 X139.626 Y110.879 E5.12401
;WIDTH:0.419881
G1 X140.507 Y110.843 E5.16311
;WIDTH:0.420515
G1 X141.377 Y110.877 E5.20178
;WIDTH:0.421092
G1 X142.181 Y110.971 E5.23779
G1 E3.23779 F2400
G92 E0
G1 X135.981 Y136.804 F7800
G1 E2 F2400
;WIDTH:0.451534
G1 F1800
G1 X135.917 Y136.142 E2.03212
;WIDTH:0.407192
G1 X135.917 Y134.779 E2.0904
;WIDTH:0.412516
G1 X135.94 Y134.323 E2.11023
;WIDTH:0.42
G1 X136.064 Y133.832 E2.13269
G1 X136.042 Y133.695 E2.13884
G1 X135.701 Y133.206 E2.16528
;WIDTH:0.424069
G1 X135.307 Y132.782 E2.19125
;WIDTH:0.437411
G1 X134.336 Y132.012 E2.24891
;WIDTH:0.419443
G1 X133.637 Y131.445 E2.28877
;WIDTH:0.418478
G1 X132.968 Y130.856 E2.32814
;WIDTH:0.417843
G1 X132.318 Y130.234 E2.3678
;WIDTH:0.418426
G1 X131.702 Y129.567 E2.40789
G1 X131.141 Y128.853 E2.44799
;WIDTH:0.418323
G1 X130.638 Y128.096 E2.48811
;WIDTH:0.418202
G1 X130.196 Y127.303 E2.52817
G1 X129.817 Y126.478 E2.56824
G1 X129.504 Y125.625 E2.60834
G1 X129.259 Y124.751 E2.6484
;WIDTH:0.418343
G1 X129.083 Y123.86 E2.6885
G1 X128.977 Y122.958 E2.7286
;WIDTH:0.418509
G1 X128.943 Y122.078 E2.7675
;WIDTH:0.426764
G1 X128.949 Y121.567 E2.7906
;WIDTH:0.426905
G1 X129.021 Y120.685 E2.83061
G1 X129.16 Y119.812 E2.87058
G1 X129.365 Y118.952 E2.91056
;WIDTH:0.426764
G1 X129.635 Y118.11 E2.95053
;WIDTH:0.426557
G1 X129.969 Y117.291 E2.99048
;WIDTH:0.426321
G1 X130.365 Y116.5 E3.03041
;WIDTH:0.425906
G1 X130.819 Y115.741 E3.07029
G1 X131.33 Y115.02 E3.11014
;WIDTH:0.425477
G1 X131.895 Y114.339 E3.14999
;WIDTH:0.425148
G1 X132.51 Y113.704 E3.18977
;WIDTH:0.424792
G1 X133.171 Y113.117 E3.22951
;WIDTH:0.424416
G1 X133.876 Y112.582 E3.26925
;WIDTH:0.424015
G1 X134.619 Y112.103 E3.3089
;WIDTH:0.423587
G1 X135.397 Y111.682 E3.34853
;WIDTH:0.423137
G1 X136.204 Y111.321 E3.38809
;WIDTH:0.422663
G1 X137.037 Y111.024 E3.42761
;WIDTH:0.422163
G1 X137.89 Y110.79 E3.46708
;WIDTH:0.42164
G1 X138.758 Y110.622 E3.50648
;WIDTH:0.421094
G1 X139.637 Y110.521 E3.54585
;WIDTH:0.420521
G1 X140.535 Y110.488 E3.58577
;WIDTH:0.41988
G1 X141.443 Y110.526 E3.62607
;WIDTH:0.419623
G1 X142.344 Y110.635 E3.66628
;WIDTH:0.41936
G1 X143.235 Y110.815 E3.70653
;WIDTH:0.41912
G1 X144.109 Y111.064 E3.74674
;WIDTH:0.418906
G1 X144.96 Y111.38 E3.78688
;WIDTH:0.418717
G1 X145.784 Y111.762 E3.82702
;WIDTH:0.418557
G1 X146.576 Y112.207 E3.86715
;WIDTH:0.418427
G1 X147.33 Y112.714 E3.90727
;WIDTH:0.418317
G1 X148.042 Y113.277 E3.94734
;WIDTH:0.418152
G1 X148.708 Y113.895 E3.98743
G1 X149.323 Y114.563 E4.02749
G1 X149.884 Y115.277 E4.06756
G1 X150.388 Y116.033 E4.10765
G1 X150.83 Y116.826 E4.14771
;WIDTH:0.418345
G1 X151.21 Y117.651 E4.18781
G1 X151.514 Y118.477 E4.22667
;WIDTH:0.426392
G1 X151.666 Y118.965 E4.24975
;WIDTH:0.426577
G1 X151.87 Y119.826 E4.28972
;WIDTH:0.426895
G1 X152.008 Y120.699 E4.32968
G1 X152.079 Y121.581 E4.36969
;WIDTH:0.42676
G1 X152.082 Y122.465 E4.40965
;WIDTH:0.426556
G1 X152.017 Y123.347 E4.4496
;WIDTH:0.426322
G1 X151.886 Y124.221 E4.4895
;WIDTH:0.426065
G1 X151.688 Y125.083 E4.5294
;WIDTH:0.425782
G1 X151.425 Y125.927 E4.56925
;WIDTH:0.425475
G1 X151.098 Y126.749 E4.60909
;WIDTH:0.425144
G1 X150.71 Y127.544 E4.6489
;WIDTH:0.42479
G1 X150.262 Y128.306 E4.68863
;WIDTH:0.424414
G1 X149.757 Y129.032 E4.72834
;WIDTH:0.424009
G1 X149.199 Y129.717 E4.76797
;WIDTH:0.423569
G1 X148.589 Y130.358 E4.80761
;WIDTH:0.421243
G1 X147.914 Y130.991 E4.8488
;WIDTH:0.422278
G1 X147.21 Y131.599 E4.89032
G1 X146.678 Y132.022 E4.92066
;WIDTH:0.424097
G1 X145.72 Y132.782 E4.97552
G1 X145.28 Y133.254 E5.00447
;WIDTH:0.42
G1 X144.985 Y133.695 E5.028
G1 X144.963 Y133.832 E5.03415
G1 X145.087 Y134.323 E5.05661
;WIDTH:0.412515
G1 X145.11 Y134.776 E5.07631
;WIDTH:0.407192
G1 X145.11 Y136.148 E5.13497
;WIDTH:0.446513
G1 X145.05 Y136.797 E5.16603
G1 X144.826 Y136.82 E5.17676
;WIDTH:0.420509
G1 X144.603 Y136.842 E5.18671
;WIDTH:0.403033
G1 X144.041 Y136.862 E5.21046
G1 X144.004 Y136.555 E5.22352
G1 X144.193 Y136.517 E5.23166
;WIDTH:0.446513
G1 X144.733 Y136.48 E5.25746
G1 X144.767 Y136.137 E5.27389
;WIDTH:0.407192
G1 X144.767 Y134.779 E5.33195
;WIDTH:0.412515
G1 X144.735 Y134.489 E5.34462
;WIDTH:0.42
G1 X144.665 Y134.43 E5.34868
G1 X144.141 Y134.211 E5.37387
G1 X143.645 Y134.124 E5.39621
G1 X143.272 Y134.115 E5.41276
;WIDTH:0.458798
G1 X143.041 Y134.093 E5.42418
;WIDTH:0.497596
G1 X142.81 Y134.071 E5.43672
;WIDTH:0.536394
G1 X142.579 Y134.049 E5.45038
;WIDTH:0.575193
G1 X142.348 Y134.027 E5.46516
G1 X141.885 Y134.041 E5.49467
;WIDTH:0.548282
G1 X141.421 Y134.055 E5.52269
;WIDTH:0.521372
G1 X140.497 Y134.063 E5.57536
;WIDTH:0.522982
G1 X139.57 Y134.054 E5.62839
;WIDTH:0.55087
G1 X139.105 Y134.04 E5.65662
;WIDTH:0.578759
G1 X138.64 Y134.026 E5.68647
G1 X138.451 Y134.046 E5.69866
;WIDTH:0.539069
G1 X138.263 Y134.066 E5.70985
;WIDTH:0.499379
G1 X138.075 Y134.086 E5.72011
;WIDTH:0.459689
G1 X137.887 Y134.106 E5.72943
;WIDTH:0.42
G1 X137.383 Y134.124 E5.7518
G1 X136.862 Y134.22 E5.7753
G1 X136.292 Y134.489 E5.80326
;WIDTH:0.412516
G1 X136.26 Y134.779 E5.81593
;WIDTH:0.407192
G1 X136.263 Y136.347 E5.88297
;WIDTH:0.447411
G1 X136.303 Y136.489 E5.89002
G1 X136.832 Y136.518 E5.91533
;WIDTH:0.405104
G1 X137.022 Y136.556 E5.92356
G1 X137.025 Y136.843 E5.93576
G1 X136.828 Y136.858 E5.94416
;WIDTH:0.451534
G1 X136.04 Y136.808 E5.98229
; stop printing object GuideRing_v1.2_22mm.STL id:7 copy 0
EXCLUDE_OBJECT_END NAME=GuideRing_v1_2_22mm_STL_id_7_copy_0
; printing object GuideRing_v1.2_21mm.STL id:6 copy 0
EXCLUDE_OBJECT_START NAME=GuideRing_v1_2_21mm_STL_id_6_copy_0
G1 E3.98229 F2400
G92 E0
G1 X111.161 Y133.956 F7800
G1 E2 F2400
;TYPE:Perimeter
;WIDTH:0.539448
G1 F1800
G1 X110.733 Y133.987 E2.02543
G1 X110.265 Y134.063 E2.05352
G1 X109.806 Y134.215 E2.08217
G1 X109.805 Y133.926 E2.09929
G1 X109.542 Y133.432 E2.13245
G1 X110.341 Y133.725 E2.18288
G1 X111.103 Y133.94 E2.22979
G1 E.22979 F2400
G92 E0
G1 X118.162 Y133.432 F7800
G1 E2 F2400
;WIDTH:0.539447
G1 F1800
G1 X117.899 Y133.926 E2.03316
G1 X117.898 Y134.215 E2.05028
G1 X117.537 Y134.08 E2.07312
G1 X116.962 Y133.986 E2.10764
G1 X116.445 Y133.978 E2.13828
G1 X117.407 Y133.711 E2.19744
G1 X118.106 Y133.452 E2.24161
G1 E.24161 F2400
G92 E0
G1 X120.216 Y131.573 F7800
G1 E2 F2400
;TYPE:External perimeter
;WIDTH:0.421301
G1 F1800
G1 X119.566 Y132.115 E2.03768
;WIDTH:0.437546
G1 X119.163 Y132.419 E2.06118
;WIDTH:0.455829
G1 X118.851 Y132.655 E2.08028
G1 X118.084 Y133.016 E2.12167
;WIDTH:0.42
