; generated by PrusaSlicer 2.6.1+win64 on 2023-10-24 at 12:13:19 UTC

; 

; external perimeters extrusion width = 0.45mm
; perimeters extrusion width = 0.45mm
; infill extrusion width = 0.45mm
; solid infill extrusion width = 0.45mm
; top infill extrusion width = 0.40mm
; support material extrusion width = 0.35mm
; first layer extrusion width = 0.42mm

M190 S60 ; set bed temperature and wait for it to be reached


; Pre-Processed for Cancel-Object support by preprocess_cancellation v0.2.0
; 1 known objects
EXCLUDE_OBJECT_DEFINE NAME=SensorHousing_v5_9_STL_id_0_copy_0 CENTER=88.494,41.061 POLYGON=[[58.065,26.444],[58.065,54.788],[117.286,54.788],[117.286,26.444]]
M104 S200 ; set temperature
;TYPE:Custom
START_PRINT
M109 S200 ; set temperature and wait for it to be reached
G21 ; set units to millimeters
G90 ; use absolute coordinates
M82 ; use absolute distances for extrusion
G92 E0
; Filament gcode
M107
;LAYER_CHANGE
;Z:0.3
;HEIGHT:0.3
G1 Z.3 F7800
G1 E-2 F2400
G92 E0
G1 X52.106 Y24.233 F7800
G1 E2 F2400
;TYPE:Skirt/Brim
;WIDTH:0.42
G1 F1800
G1 X53.247 Y22.299 E2.0996
G1 X54.99 Y20.882 E2.19923
G1 X58.065 Y20.088 E2.34009
G1 X75.603 Y20.103 E3.11799
G1 X117.709 Y22.91 E4.98974
G1 X119.888 Y23.453 E5.08934
G1 X121.743 Y24.72 E5.18898
G1 X123.04 Y26.553 E5.28858
G1 X123.642 Y29.251 E5.41119
G1 X123.642 Y37.945 E5.79681
G1 X122.971 Y40.787 E5.92633
G1 X120.164 Y46.402 E6.20477
G1 X118.966 Y48.061 E6.29553
G1 X112.521 Y54.485 E6.69915
G1 X111.24 Y55.623 E6.77515
G1 X110.353 Y56.272 E6.8239
G1 X109.244 Y56.944 E6.88142
G1 X108.258 Y57.431 E6.9302
G1 X106.11 Y58.187 E7.0312
G1 X93.392 Y60.994 E7.60888
G1 X92.022 Y61.143 E7.67
G1 X63.679 Y61.143 E8.92715
G1 X60.837 Y60.472 E9.05667
G1 X55.222 Y57.665 E9.33511
G1 X53.423 Y56.322 E9.43469
G1 X52.203 Y54.436 E9.53432
G1 X51.709 Y51.981 E9.64539
G1 X51.709 Y26.444 E10.77808
G1 X52.095 Y24.293 E10.87501
; printing object SensorHousing_v5.9.STL id:0 copy 0
EXCLUDE_OBJECT_START NAME=SensorHousing_v5_9_STL_id_0_copy_0
G1 E8.87501 F2400
G92 E0
G1 X75.18 Y33.076 F7800
G1 E2 F2400
;TYPE:Support material
G1 F1800
G1 X71.82 Y33.076 E2.14903
G1 X71.565 Y33.331 E2.16503
G1 X71.565 Y50.243 E2.91516
G1 X71.951 Y50.501 E2.93575
G1 X72.325 Y50.346 E2.95371
G1 X72.667 Y50.153 E2.97113
G1 X72.977 Y49.903 E2.98879
G1 X73.242 Y49.607 E3.00641
G1 X73.456 Y49.271 E3.02408
G1 X73.612 Y48.905 E3.04173
G1 X73.7 Y48.554 E3.05778
G1 X73.736 Y48.157 E3.07546
G1 X73.567 Y46.233 E3.16113
G1 X73.642 Y44.718 E3.22841
G1 X73.932 Y43.227 E3.29578
G1 X74.427 Y41.798 E3.36286
G1 X75.121 Y40.448 E3.43019
G1 X75.998 Y39.211 E3.49745
G1 X77.041 Y38.11 E3.56472
G1 X78.229 Y37.167 E3.632
G1 X79.538 Y36.401 E3.69927
G1 X80.942 Y35.828 E3.76653
G1 X82.413 Y35.459 E3.8338
G1 X83.921 Y35.301 E3.90105
G1 X85.418 Y35.358 E3.9675
G1 X86.929 Y35.628 E4.03558
G1 X88.368 Y36.106 E4.10284
G1 X89.729 Y36.785 E4.1703
G1 X90.968 Y37.639 E4.23705
G1 X92.088 Y38.673 E4.30466
G1 X93.045 Y39.849 E4.37191
G1 X93.827 Y41.148 E4.43916
G1 X94.418 Y42.545 E4.50644
G1 X94.806 Y44.011 E4.5737
G1 X94.829 Y44.215 E4.58281
G1 X94.829 Y51.981 E4.92727
G1 X92.022 Y51.981 E5.05177
G1 X92.022 Y54.788 E5.17627
G1 X63.679 Y54.788 E6.43342
G1 X63.679 Y51.981 E6.55792
G1 X58.065 Y51.981 E6.80693
G1 X58.065 Y26.444 E7.93962
G1 X75.18 Y26.444 E8.69875
G1 X75.18 Y33.022 E8.99052
G1 E6.99052 F2400
G92 E0
G1 X84.26 Y41.025 F7800
G1 E2 F2400
G1 F1800
G1 X85.103 Y41.094 E2.03752
G1 X85.957 Y41.316 E2.07666
G1 X86.726 Y41.667 E2.11415
G1 X87.396 Y42.12 E2.15002
G1 X88.009 Y42.703 E2.18754
G1 X88.514 Y43.381 E2.22504
G1 X88.911 Y44.169 E2.26418
G1 X89.156 Y44.978 E2.30167
G1 X89.26 Y45.817 E2.33917
G1 X89.221 Y46.662 E2.37669
G1 X89.04 Y47.488 E2.4142
G1 X88.722 Y48.271 E2.45168
G1 X88.298 Y48.96 E2.48756
G1 X87.742 Y49.596 E2.52503
G1 X87.086 Y50.13 E2.56255
G1 X86.315 Y50.56 E2.60171
G1 X85.517 Y50.839 E2.63921
G1 X84.725 Y50.975 E2.67485
G1 X84.288 Y50.995 E2.69425
G1 X83.833 Y50.975 E2.71445
G1 X83.041 Y50.839 E2.75009
G1 X82.242 Y50.56 E2.78763
G1 X81.503 Y50.151 E2.82509
G1 X80.816 Y49.596 E2.86426
G1 X80.26 Y48.96 E2.90173
G1 X79.836 Y48.271 E2.93761
G1 X79.518 Y47.488 E2.97509
G1 X79.337 Y46.662 E3.0126
G1 X79.298 Y45.817 E3.05012
G1 X79.402 Y44.978 E3.08762
G1 X79.647 Y44.169 E3.12511
G1 X80.024 Y43.412 E3.16262
G1 X80.549 Y42.703 E3.20175
G1 X81.162 Y42.12 E3.23927
G1 X81.864 Y41.649 E3.27677
G1 X82.636 Y41.304 E3.31428
G1 X83.418 Y41.1 E3.35013
G1 X84.207 Y41.03 E3.38526
G1 E1.38526 F2400
G92 E0
G1 X94.216 Y51.821 F7800
G1 E2 F2400
G1 F1800
G1 X94.216 Y43.032 E2.38983
G1 X94.114 Y42.649 E2.40741
G1 X93.821 Y41.954 E2.44086
G1 X93.821 Y51.661 E2.87141
G1 X93.425 Y51.661 E2.88897
G1 X93.425 Y41.102 E3.35731
G1 X93.03 Y40.445 E3.39131
G1 X93.03 Y51.661 E3.88879
G1 X92.635 Y51.661 E3.90631
G1 X92.635 Y39.853 E4.43005
G1 X92.24 Y39.367 E4.45783
G1 X92.24 Y51.661 E5.00313
G1 X91.845 Y51.661 E5.02065
G1 X91.845 Y38.885 E5.58733
G1 X91.45 Y38.52 E5.61118
G1 X91.45 Y54.468 E6.31855
G1 X91.055 Y54.468 E6.33607
G1 X91.055 Y38.155 E7.05963
G1 X90.768 Y37.89 E7.07696
G1 X90.659 Y37.815 E7.08283
G1 X90.659 Y54.468 E7.82147
G1 X90.264 Y54.468 E7.83899
G1 X90.264 Y37.543 E8.5897
G1 X89.869 Y37.27 E8.611
G1 X89.869 Y54.468 E9.37381
G1 X89.474 Y54.468 E9.39133
G1 X89.474 Y37.015 E10.16545
G1 X89.079 Y36.818 E10.18503
G1 X89.079 Y43.783 E10.49396
G1 X88.813 Y43.256 E10.52014
G1 X88.684 Y43.072 E10.53011
G1 X88.684 Y36.621 E10.81624
G1 X88.289 Y36.425 E10.8358
G1 X88.289 Y42.538 E11.10694
G1 X87.894 Y42.149 E11.13153
G1 X87.894 Y36.286 E11.39158
G1 X87.498 Y36.155 E11.41008
G1 X87.498 Y41.803 E11.6606
G1 X87.103 Y41.536 E11.68175
G1 X87.103 Y36.024 E11.92623
G1 X86.85 Y35.939 E11.93807
G1 X86.708 Y35.914 E11.94447
G1 X86.708 Y41.304 E12.18354
G1 X86.313 Y41.126 E12.20276
G1 X86.313 Y35.842 E12.43713
G1 X85.918 Y35.771 E12.45493
G1 X85.918 Y40.972 E12.68562
G1 X85.523 Y40.869 E12.70373
G1 X85.523 Y35.699 E12.93304
G1 X85.128 Y35.667 E12.95062
G1 X85.128 Y40.775 E13.17718
G1 X84.732 Y40.741 E13.19481
G1 X84.732 Y35.652 E13.42053
G1 X84.337 Y35.637 E13.43806
G1 X84.337 Y40.707 E13.66294
G1 X83.942 Y40.731 E13.68049
G1 X83.942 Y35.623 E13.90705
G1 X83.547 Y35.662 E13.92466
G1 X83.547 Y40.765 E14.151
G1 X83.351 Y40.787 E14.15975
G1 X83.152 Y40.839 E14.16887
G1 X83.152 Y35.704 E14.39663
G1 X82.757 Y35.745 E14.41424
G1 X82.757 Y40.942 E14.64475
G1 X82.542 Y40.997 E14.65459
G1 X82.362 Y41.073 E14.66326
G1 X82.362 Y35.802 E14.89705
G1 X81.967 Y35.901 E14.91511
G1 X81.967 Y41.252 E15.15245
G1 X81.72 Y41.363 E15.16446
G1 X81.571 Y41.457 E15.17227
G1 X81.571 Y36 E15.41431
G1 X81.176 Y36.1 E15.43238
G1 X81.176 Y41.724 E15.68183
G1 X80.971 Y41.863 E15.69282
G1 X80.781 Y42.037 E15.70425
G1 X80.781 Y36.24 E15.96137
G1 X80.386 Y36.401 E15.98029
G1 X80.386 Y42.416 E16.24708
G1 X80.275 Y42.529 E16.25411
G1 X79.991 Y42.914 E16.27533
G1 X79.991 Y36.562 E16.55707
G1 X79.68 Y36.689 E16.57197
G1 X79.596 Y36.738 E16.57628
G1 X79.596 Y43.551 E16.87847
G1 X79.368 Y44.002 E16.90088
G1 X79.201 Y44.532 E16.92553
G1 X79.201 Y36.97 E17.26094
G1 X78.805 Y37.201 E17.28127
G1 X78.805 Y54.468 E18.04714
G1 X79.201 Y54.468 E18.0647
G1 X79.201 Y47.545 E18.37177
G1 X79.527 Y48.37 E18.41112
G1 X79.596 Y48.491 E18.4173
G1 X79.596 Y54.468 E18.68241
G1 X79.991 Y54.468 E18.69993
G1 X79.991 Y49.133 E18.93656
G1 X80.386 Y49.592 E18.96342
G1 X80.386 Y54.468 E19.17969
G1 X80.781 Y54.468 E19.19721
G1 X80.781 Y49.983 E19.39614
G1 X81.176 Y50.302 E19.41866
G1 X81.176 Y54.468 E19.60344
G1 X81.571 Y54.468 E19.62096
G1 X81.571 Y50.556 E19.79448
G1 X81.967 Y50.776 E19.81457
G1 X81.967 Y54.468 E19.97833
G1 X82.362 Y54.468 E19.99585
G1 X82.362 Y50.942 E20.15225
G1 X82.757 Y51.081 E20.17082
G1 X82.757 Y54.468 E20.32105
G1 X83.152 Y54.468 E20.33857
G1 X83.152 Y51.183 E20.48428
G1 X83.547 Y51.251 E20.50206
G1 X83.547 Y54.468 E20.64475
G1 X83.942 Y54.468 E20.66227
G1 X83.942 Y51.302 E20.8027
G1 X84.337 Y51.313 E20.82023
G1 X84.337 Y54.468 E20.96017
G1 X84.732 Y54.468 E20.97769
G1 X84.732 Y51.296 E21.11838
G1 X85.128 Y51.231 E21.13618
G1 X85.128 Y54.468 E21.27976
G1 X85.523 Y54.468 E21.29728
G1 X85.523 Y51.163 E21.44387
G1 X85.918 Y51.04 E21.46222
G1 X85.918 Y54.468 E21.61427
G1 X86.313 Y54.468 E21.63179
G1 X86.313 Y50.901 E21.79
G1 X86.493 Y50.831 E21.79857
G1 X86.708 Y50.711 E21.80949
G1 X86.708 Y54.468 E21.97613
G1 X87.103 Y54.468 E21.99365
G1 X87.103 Y50.49 E22.17009
G1 X87.276 Y50.388 E22.179
G1 X87.498 Y50.208 E22.19168
G1 X87.498 Y54.468 E22.38063
G1 X87.894 Y54.468 E22.39819
G1 X87.894 Y49.889 E22.60129
G1 X88.289 Y49.459 E22.62719
G1 X88.289 Y54.468 E22.84936
G1 X88.684 Y54.468 E22.86688
G1 X88.684 Y48.943 E23.11194
G1 X89.002 Y48.427 E23.13882
G1 X89.079 Y48.249 E23.14742
G1 X89.079 Y54.628 E23.43036
G1 X78.41 Y54.628 F7800
G1 F1800
G1 X78.41 Y37.432 E24.19309
G1 X78.015 Y37.745 E24.21544
G1 X78.015 Y54.468 E24.95719
G1 X77.62 Y54.468 E24.97471
G1 X77.62 Y38.059 E25.70253
G1 X77.225 Y38.381 E25.72513
G1 X77.225 Y54.468 E26.43867
G1 X76.83 Y54.468 E26.45619
G1 X76.83 Y38.798 E27.15123
G1 X76.435 Y39.215 E27.17671
G1 X76.435 Y54.468 E27.85325
G1 X76.04 Y54.468 E27.87077
G1 X76.04 Y39.706 E28.52554
G1 X75.644 Y40.263 E28.55585
G1 X75.644 Y54.468 E29.18591
G1 X75.249 Y54.468 E29.20343
G1 X75.249 Y40.898 E29.80532
G1 X74.854 Y41.667 E29.84367
G1 X74.854 Y54.468 E30.41146
G1 X74.459 Y54.468 E30.42898
G1 X74.459 Y42.683 E30.9517
G1 X74.242 Y43.31 E30.98113
G1 X74.064 Y44.226 E31.02252
G1 X74.064 Y54.468 E31.4768
G1 X73.669 Y54.468 E31.49432
G1 X73.669 Y49.537 E31.71303
G1 X73.504 Y49.791 E31.72646
G1 X73.274 Y50.053 E31.74192
G1 X73.274 Y54.468 E31.93775
G1 X72.879 Y54.468 E31.95527
G1 X72.879 Y50.393 E32.13602
G1 X72.483 Y50.624 E32.15635
G1 X72.483 Y54.468 E32.32685
G1 X72.088 Y54.468 E32.34437
G1 X72.088 Y50.791 E32.50746
G1 X71.915 Y50.862 E32.51575
G1 X71.693 Y50.714 E32.52758
G1 X71.693 Y54.468 E32.69409
G1 X71.298 Y54.468 E32.71161
G1 X71.298 Y26.764 E33.94042
G1 X71.693 Y26.764 E33.95794
G1 X71.693 Y32.756 E34.22371
G1 X72.088 Y32.756 E34.24123
G1 X72.088 Y26.764 E34.507
G1 X72.483 Y26.764 E34.52452
G1 X72.483 Y32.756 E34.79029
G1 X72.879 Y32.756 E34.80785
G1 X72.879 Y26.764 E35.07362
G1 X73.274 Y26.764 E35.09114
G1 X73.274 Y32.756 E35.35691
G1 X73.669 Y32.756 E35.37443
G1 X73.669 Y26.764 E35.6402
G1 X74.064 Y26.764 E35.65772
G1 X74.064 Y32.756 E35.92349
G1 X74.459 Y32.756 E35.94101
G1 X74.459 Y26.764 E36.20678
G1 X74.854 Y26.764 E36.2243
G1 X74.854 Y32.916 E36.49717
G1 E34.49717 F2400
G92 E0
G1 X70.903 Y54.628 F7800
G1 E2 F2400
G1 F1800
G1 X70.903 Y26.764 E3.2359
G1 X70.508 Y26.764 E3.25342
G1 X70.508 Y54.468 E4.48223
G1 X70.113 Y54.468 E4.49975
G1 X70.113 Y26.764 E5.72856
G1 X69.717 Y26.764 E5.74612
G1 X69.717 Y54.468 E6.97493
G1 X69.322 Y54.468 E6.99245
G1 X69.322 Y26.764 E8.22126
G1 X68.927 Y26.764 E8.23878
G1 X68.927 Y54.468 E9.46759
G1 X68.532 Y54.468 E9.48511
G1 X68.532 Y26.764 E10.71392
G1 X68.137 Y26.764 E10.73144
G1 X68.137 Y54.468 E11.96025
G1 X67.742 Y54.468 E11.97777
G1 X67.742 Y26.764 E13.20658
G1 X67.347 Y26.764 E13.2241
G1 X67.347 Y54.468 E14.45291
G1 X66.952 Y54.468 E14.47043
G1 X66.952 Y26.764 E15.69924
G1 X66.556 Y26.764 E15.7168
G1 X66.556 Y54.468 E16.94561
G1 X66.161 Y54.468 E16.96313
G1 X66.161 Y26.764 E18.19194
G1 X65.766 Y26.764 E18.20946
G1 X65.766 Y54.468 E19.43827
G1 X65.371 Y54.468 E19.45579
G1 X65.371 Y26.764 E20.6846
G1 X64.976 Y26.764 E20.70212
G1 X64.976 Y54.468 E21.93093
G1 X64.581 Y54.468 E21.94845
G1 X64.581 Y26.764 E23.17726
G1 X64.186 Y26.764 E23.19478
G1 X64.186 Y54.468 E24.42359
G1 X63.999 Y54.468 E24.43188
G1 X63.999 Y51.661 E24.55638
G1 X63.79 Y51.661 E24.56565
G1 X63.79 Y26.764 E25.66995
G1 X63.395 Y26.764 E25.68747
G1 X63.395 Y51.661 E26.79177
G1 X63 Y51.661 E26.80929
G1 X63 Y26.764 E27.91359
G1 X62.605 Y26.764 E27.93111
G1 X62.605 Y51.661 E29.03541
G1 X62.21 Y51.661 E29.05293
G1 X62.21 Y26.764 E30.15723
G1 X61.815 Y26.764 E30.17475
G1 X61.815 Y51.661 E31.27905
G1 X61.42 Y51.661 E31.29657
G1 X61.42 Y26.764 E32.40087
G1 X61.025 Y26.764 E32.41839
G1 X61.025 Y51.661 E33.52269
G1 X60.629 Y51.661 E33.54025
G1 X60.629 Y26.764 E34.64455
G1 X60.234 Y26.764 E34.66207
G1 X60.234 Y51.661 E35.76637
G1 X59.839 Y51.661 E35.78389
G1 X59.839 Y26.764 E36.88819
G1 X59.444 Y26.764 E36.90571
G1 X59.444 Y51.661 E38.01001
G1 X59.049 Y51.661 E38.02753
G1 X59.049 Y26.764 E39.13183
G1 X58.654 Y26.764 E39.14935
G1 X58.654 Y51.821 E40.26075
G1 E38.26075 F2400
G92 E0
G1 X106.058 Y44.149 F7800
G1 E2 F2400
G1 F1800
G1 X102.849 Y44.149 E2.14233
G1 X102.594 Y44.404 E2.15833
G1 X102.594 Y44.749 E2.17363
G1 X102.249 Y44.749 E2.18893
G1 X101.994 Y45.004 E2.20493
G1 X101.994 Y48.349 E2.3533
G1 X100.264 Y48.349 E2.43003
G1 X100.264 Y44.219 E2.61322
G1 X101.809 Y44.219 E2.68175
G1 X102.064 Y43.965 E2.69771
G1 X102.064 Y42.419 E2.76628
G1 X106.058 Y42.419 E2.94343
G1 X106.058 Y44.096 E3.01781
G1 X105.674 Y43.989 F7800
G1 F1800
G1 X105.674 Y42.74 E3.07321
G1 X105.279 Y42.74 E3.09073
G1 X105.279 Y43.829 E3.13903
G1 X104.884 Y43.829 E3.15655
G1 X104.884 Y42.74 E3.20485
G1 X104.489 Y42.74 E3.22237
G1 X104.489 Y43.829 E3.27067
G1 X104.094 Y43.829 E3.28819
G1 X104.094 Y42.74 E3.33649
G1 X103.699 Y42.74 E3.35401
G1 X103.699 Y43.829 E3.40231
G1 X103.304 Y43.829 E3.41983
G1 X103.304 Y42.74 E3.46813
G1 X102.909 Y42.74 E3.48565
G1 X102.909 Y43.829 E3.53395
G1 X102.716 Y43.829 E3.54251
G1 X102.513 Y44.032 E3.55524
G1 X102.513 Y42.74 E3.61255
G1 X102.384 Y42.74 E3.61827
G1 X102.384 Y44.097 E3.67846
G1 X102.118 Y44.363 E3.69515
G1 X102.118 Y44.429 E3.69808
G1 X101.723 Y44.822 E3.72279
G1 X101.723 Y44.54 E3.7353
G1 X101.328 Y44.54 E3.75282
G1 X101.328 Y48.029 E3.90757
G1 X100.933 Y48.029 E3.92509
G1 X100.933 Y44.379 E4.08699
G1 E2.08699 F2400
G92 E0
G1 X117.286 Y37.945 F7800
G1 E2 F2400
G1 F1800
G1 X114.479 Y37.945 E2.1245
G1 X114.479 Y43.559 E2.37351
G1 X110.676 Y43.559 E2.54219
G1 X111.048 Y38.509 E2.76679
G1 X112.309 Y38.509 E2.82272
G1 X112.564 Y38.254 E2.83872
G1 X112.564 Y33.331 E3.05708
G1 X112.309 Y33.076 E3.07308
G1 X108.592 Y33.076 E3.23795
G1 X108.592 Y29.251 E3.40761
G1 X117.286 Y29.251 E3.79323
G1 X117.286 Y37.892 E4.1765
G1 X116.738 Y37.785 F7800
G1 F1800
G1 X116.738 Y29.571 E4.54083
G1 X116.343 Y29.571 E4.55835
G1 X116.343 Y37.625 E4.91558
G1 X115.948 Y37.625 E4.9331
G1 X115.948 Y29.571 E5.29033
G1 X115.553 Y29.571 E5.30785
G1 X115.553 Y37.625 E5.66508
G1 X115.158 Y37.625 E5.6826
G1 X115.158 Y29.571 E6.03983
G1 X114.763 Y29.571 E6.05735
G1 X114.763 Y37.625 E6.41458
G1 X114.367 Y37.625 E6.43214
G1 X114.367 Y29.571 E6.78937
G1 X113.972 Y29.571 E6.80689
G1 X113.972 Y43.239 E7.41313
G1 X113.577 Y43.239 E7.43065
G1 X113.577 Y29.571 E8.03689
G1 X113.182 Y29.571 E8.05441
G1 X113.182 Y43.239 E8.66065
G1 X112.787 Y43.239 E8.67817
G1 X112.787 Y29.571 E9.28441
G1 X112.392 Y29.571 E9.30193
G1 X112.392 Y32.756 E9.4432
G1 X111.997 Y32.756 E9.46072
G1 X111.997 Y29.571 E9.60199
G1 X111.601 Y29.571 E9.61955
G1 X111.601 Y32.756 E9.76082
G1 X111.206 Y32.756 E9.77834
G1 X111.206 Y29.571 E9.91961
G1 X110.811 Y29.571 E9.93713
G1 X110.811 Y32.756 E10.0784
G1 X110.416 Y32.756 E10.09592
G1 X110.416 Y29.571 E10.23719
G1 X110.021 Y29.571 E10.25471
G1 X110.021 Y32.756 E10.39598
G1 X109.626 Y32.756 E10.4135
G1 X109.626 Y29.571 E10.55477
G1 X109.231 Y29.571 E10.57229
G1 X109.231 Y32.916 E10.72066
G1 E8.72066 F2400
G92 E0
G1 X112.392 Y43.399 F7800
G1 E2 F2400
G1 F1800
G1 X112.392 Y38.829 E2.2027
G1 X111.997 Y38.829 E2.22022
G1 X111.997 Y43.239 E2.41582
G1 X111.601 Y43.239 E2.43338
G1 X111.601 Y38.829 E2.62898
G1 X111.345 Y38.829 E2.64033
G1 X111.206 Y40.711 E2.72403
G1 X111.206 Y43.399 E2.84326
G1 E.84326 F2400
G92 E0
G1 X110.283 Y36.877 F7800
G1 E2 F2400
;TYPE:Perimeter
;WIDTH:0.42
G1 F1800
G1 X110.101 Y36.884 E2.00808
G1 X109.802 Y37.03 E2.02284
G1 X109.598 Y37.244 E2.03595
G1 X109.488 Y37.471 E2.04714
G1 X109.448 Y37.676 E2.0564
G1 X108.895 Y45.193 E2.39072
G1 X108.713 Y46.316 E2.44118
G1 X108.358 Y47.342 E2.48934
G1 X107.832 Y48.29 E2.53743
G1 X107.151 Y49.134 E2.58553
G1 X106.334 Y49.848 E2.63366
G1 X105.406 Y50.411 E2.6818
G1 X104.395 Y50.805 E2.72993
G1 X103.367 Y51.012 E2.77644
G1 X102.245 Y51.047 E2.82623
